fuji-film/cube-lut/srgb/srgb-classic-chrome.cube
LUT_3D_SIZE 5
DOMAIN_MIN 0.000000 0.000000 0.000000
DOMAIN_MAX 0.903226 0.903226 0.903226
0.00000 0.00000 0.00000
0.16193 0.00546 0.00000
0.62508 0.00000 0.00000
0.89686 0.00000 0.00000
0.99506 0.00000 0.00000
0.00000 0.13661 0.00000
0.17799 0.17244 0.00692
0.65981 0.19142 0.00000
0.92377 0.16165 0.00000
1.00000 0.15634 0.00000
0.00000 0.51860 0.00000
0.00000 0.53731 0.00000
0.58972 0.57642 0.00000
0.91829 0.59203 0.00000
1.00000 0.55695 0.00000
0.00000 0.77850 0.00000
0.00000 0.78536 0.00000
0.37425 0.80607 0.00000
0.83776 0.82116 0.00000
1.00000 0.82888 0.00000
0.00000 0.91442 0.00000
0.00000 0.91835 0.00000
0.31156 0.93061 0.00000
0.73226 0.94775 0.19986
0.89814 0.95681 0.26012
0.00293 0.00727 0.14464
0.22551 0.03811 0.20371
0.65727 0.07868 0.27344
0.91718 0.09209 0.31418
1.00000 0.01707 0.18567
0.00000 0.19632 0.18897
0.22804 0.22805 0.22748
0.65641 0.28835 0.30120
0.93360 0.29414 0.32663
1.00000 0.18985 0.19369
0.00000 0.55395 0.21006
0.00000 0.56532 0.23652
0.61210 0.60500 0.29747
0.90573 0.63279 0.32113
1.00000 0.59412 0.23278
0.00000 0.79299 0.22410
0.00000 0.79920 0.22371
0.45606 0.81788 0.30220
0.84952 0.83250 0.34492
1.00000 0.84251 0.33943
0.00000 0.92141 0.26622
0.00000 0.92603 0.27049
0.36357 0.93728 0.31771
0.74206 0.95659 0.37569
0.90127 0.96386 0.40139
0.00000 0.03897 0.53388
0.22859 0.05912 0.57921
0.68829 0.14858 0.65070
0.93776 0.23334 0.67789
1.00000 0.30260 0.67387
0.00000 0.30256 0.58280
0.30746 0.33698 0.60843
0.69186 0.38404 0.64873
0.93267 0.44393 0.68933
1.00000 0.49958 0.71320
0.00000 0.60035 0.58844
0.00000 0.61116 0.60530
0.64044 0.64027 0.63978
0.90129 0.67108 0.67742
1.00000 0.72193 0.72093
0.00000 0.80907 0.59361
0.00000 0.81674 0.60713
0.53588 0.83136 0.64460
0.85693 0.85137 0.68287
1.00000 0.86850 0.74054
0.00000 0.93669 0.58940
0.00000 0.94065 0.59631
0.48909 0.95349 0.61572
0.76081 0.97276 0.63886
0.90365 0.98033 0.65506
0.00000 0.10478 0.78832
0.23776 0.11909 0.81959
0.67259 0.16956 0.87304
0.94361 0.30552 0.90261
1.00000 0.40052 0.88719
0.00000 0.32949 0.82027
0.29180 0.35353 0.84160
0.70782 0.41739 0.87455
0.94325 0.51946 0.89100
1.00000 0.57367 0.88495
0.00000 0.67230 0.83031
0.30355 0.68389 0.83893
0.67679 0.70686 0.85619
0.90598 0.74220 0.87374
1.00000 0.78040 0.88333
0.00000 0.83610 0.81792
0.00000 0.84144 0.82783
0.58670 0.85416 0.84894
0.87191 0.87203 0.87167
1.00000 0.88415 0.88579
0.19988 0.95321 0.80270
0.35249 0.95779 0.80760
0.58615 0.96938 0.82079
0.78642 0.98467 0.83864
0.92375 0.98924 0.84924
0.00000 0.18723 0.91298
0.25202 0.19885 0.93905
0.65206 0.24063 0.99130
0.92096 0.31136 1.00000
1.00000 0.46429 1.00000
0.00000 0.37075 0.94005
0.25450 0.38488 0.95925
0.67897 0.41969 0.99619
0.92695 0.50446 1.00000
1.00000 0.62071 1.00000
0.33702 0.73916 0.95962
0.52975 0.76257 0.97083
0.73664 0.77415 0.98837
0.91641 0.80524 0.99667
1.00000 0.83130 0.99391
0.28930 0.86171 0.95588
0.44526 0.86545 0.96127
0.68405 0.87609 0.97499
0.88121 0.90264 0.98721
1.00000 0.91788 0.99195
0.49953 0.95979 0.92934
0.55651 0.96237 0.93312
0.68155 0.97124 0.94504
0.83285 0.98246 0.96409
0.98050 0.98059 0.98057
