fuji-film/cube-lut/srgb/srgb-pro-neg-hi.cube
LUT_3D_SIZE 32
0.00000 0.00000 0.00000
0.00172 0.00000 0.00000
0.00640 0.00000 0.00000
0.01748 0.00000 0.00000
0.03199 0.00001 0.00000
0.05538 0.00211 0.00000
0.08879 0.00198 0.00000
0.13806 0.00245 0.00000
0.19894 0.00366 0.00000
0.26928 0.00271 0.00000
0.33739 0.00000 0.00000
0.40973 0.00000 0.00000
0.47280 0.00000 0.00000
0.53268 0.00000 0.00000
0.58907 0.00000 0.00000
0.64103 0.00000 0.00000
0.69657 0.00000 0.00000
0.74788 0.00000 0.00000
0.79386 0.00000 0.00000
0.83355 0.00000 0.00000
0.87172 0.00000 0.00000
0.90741 0.00000 0.00000
0.94101 0.00000 0.00000
0.97426 0.00000 0.00000
1.00000 0.00000 0.00000
1.00000 0.00000 0.00000
1.00000 0.00000 0.00000
1.00000 0.00000 0.00000
1.00000 0.00000 0.00000
1.00000 0.00000 0.00000
1.00000 0.00000 0.00000
1.00000 0.00000 0.00000
0.00000 0.00091 0.00000
0.00050 0.00139 0.00000
0.00467 0.00203 0.00000
0.01665 0.00131 0.00000
0.03132 0.00435 0.00000
0.05621 0.00543 0.00000
0.09119 0.00567 0.00000
0.14148 0.00807 0.00000
0.20251 0.00863 0.00000
0.27329 0.00691 0.00000
0.34203 0.00463 0.00000
0.41443 0.00000 0.00000
0.47685 0.00000 0.00000
0.53605 0.00000 0.00000
0.59197 0.00000 0.00000
0.64512 0.00000 0.00000
0.69957 0.00000 0.00000
0.75091 0.00000 0.00000
0.79647 0.00000 0.00000
0.83601 0.00000 0.00000
0.87399 0.00000 0.00000
0.90958 0.00000 0.00000
0.94321 0.00000 0.00000
0.97631 0.00000 0.00000
1.00000 0.00000 0.00000
1.00000 0.00000 0.00000
1.00000 0.00000 0.00000
1.00000 0.00000 0.00000
1.00000 0.00000 0.00000
1.00000 0.00000 0.00000
1.00000 0.00000 0.00000
1.00000 0.00000 0.00000
0.00000 0.00626 0.00000
0.00000 0.00670 0.00000
0.00628 0.00712 0.00000
0.01722 0.00946 0.00000
0.03382 0.01038 0.00000
0.05948 0.01107 0.00000
0.09705 0.01177 0.00000
0.14709 0.01503 0.00000
0.20842 0.01550 0.00000
0.27927 0.01296 0.00000
0.34876 0.00923 0.00000
0.41910 0.00231 0.00000
0.48189 0.00000 0.00000
0.53985 0.00000 0.00000
0.59638 0.00000 0.00000
0.65029 0.00000 0.00000
0.70321 0.00000 0.00000
0.75446 0.00000 0.00000
0.79949 0.00000 0.00000
0.83881 0.00000 0.00000
0.87646 0.00000 0.00000
0.91214 0.00000 0.00000
0.94579 0.00000 0.00000
0.97859 0.00000 0.00000
1.00000 0.00000 0.00000
1.00000 0.00000 0.00000
1.00000 0.00000 0.00000
1.00000 0.00000 0.00000
1.00000 0.00000 0.00000
1.00000 0.00000 0.00000
1.00000 0.00000 0.00000
1.00000 0.00000 0.00000
0.00000 0.01822 0.00000
0.00000 0.01888 0.00000
0.00677 0.01994 0.00000
0.01784 0.02147 0.00000
0.03782 0.02344 0.00000
0.06283 0.02456 0.00000
0.10454 0.02675 0.00000
0.15619 0.02861 0.00000
0.21850 0.03058 0.00000
0.28958 0.02507 0.00000
0.35822 0.02157 0.00000
0.42529 0.01961 0.00000
0.48828 0.00403 0.00000
0.54647 0.00000 0.00000
0.60416 0.00000 0.00000
0.65689 0.00000 0.00000
0.70897 0.00000 0.00000
0.75978 0.00000 0.00000
0.80384 0.00000 0.00000
0.84281 0.00000 0.00000
0.88010 0.00000 0.00000
0.91580 0.00000 0.00000
0.94967 0.00000 0.00000
0.98189 0.00000 0.00000
1.00000 0.00000 0.00000
1.00000 0.00000 0.00000
1.00000 0.00000 0.00000
1.00000 0.00000 0.00000
1.00000 0.00000 0.00000
1.00000 0.00000 0.00000
1.00000 0.00000 0.00000
1.00000 0.00000 0.00000
0.00000 0.03616 0.00000
0.00000 0.03580 0.00000
0.00350 0.03712 0.00000
0.01779 0.04002 0.00000
0.04167 0.04160 0.00000
0.06874 0.04733 0.00000
0.11262 0.05059 0.00000
0.16562 0.05626 0.00000
0.23179 0.05709 0.00000
0.30165 0.05305 0.00000
0.36904 0.05022 0.00000
0.43456 0.04487 0.00000
0.49812 0.03520 0.00000
0.55721 0.01769 0.00000
0.61307 0.00000 0.00000
0.66509 0.00000 0.00000
0.71707 0.00000 0.00000
0.76705 0.00000 0.00000
0.80944 0.00000 0.00000
0.84799 0.00000 0.00000
0.88484 0.00000 0.00000
0.92063 0.00000 0.00000
0.95509 0.00000 0.00000
0.98595 0.00000 0.00000
1.00000 0.00000 0.00000
1.00000 0.00000 0.00000
1.00000 0.00000 0.00000
1.00000 0.00000 0.00000
1.00000 0.00000 0.00000
1.00000 0.00000 0.00000
1.00000 0.00000 0.00000
1.00000 0.00000 0.00000
0.00000 0.05925 0.00000
0.00000 0.05863 0.00000
0.00000 0.06072 0.00000
0.01502 0.06676 0.00000
0.03359 0.07090 0.00000
0.07191 0.07736 0.00027
0.11714 0.08337 0.00059
0.17507 0.08935 0.00000
0.24087 0.09352 0.00000
0.31201 0.09137 0.00000
0.38162 0.08886 0.00000
0.44899 0.08397 0.00000
0.51367 0.07555 0.00000
0.57117 0.06113 0.00000
0.62388 0.04890 0.00000
0.67747 0.02078 0.00000
0.72741 0.00000 0.00000
0.77533 0.00000 0.00000
0.81613 0.00000 0.00000
0.85432 0.00000 0.00000
0.89087 0.00000 0.00000
0.92638 0.00000 0.00000
0.96073 0.00000 0.00000
0.99194 0.00000 0.00000
1.00000 0.00000 0.00000
1.00000 0.00000 0.00000
1.00000 0.00000 0.00000
1.00000 0.00000 0.00000
1.00000 0.00000 0.00000
1.00000 0.00000 0.00000
1.00000 0.00000 0.00000
1.00000 0.00000 0.00000
0.00000 0.09636 0.00000
0.00000 0.09604 0.00000
0.00000 0.09881 0.00000
0.00000 0.10460 0.00000
0.02097 0.10966 0.00000
0.06338 0.11448 0.00000
0.11481 0.12399 0.00000
0.17651 0.13419 0.00000
0.24978 0.13701 0.00000
0.32016 0.13981 0.00000
0.39547 0.13972 0.00000
0.46471 0.13300 0.00000
0.52808 0.12681 0.00000
0.58589 0.11331 0.00000
0.63800 0.10384 0.00000
0.68939 0.09177 0.00000
0.73744 0.07938 0.00000
0.78369 0.05946 0.00000
0.82409 0.03071 0.00000
0.86196 0.00053 0.00000
0.89779 0.00000 0.00000
0.93356 0.00000 0.00000
0.96842 0.00000 0.00000
0.99963 0.00000 0.00000
1.00000 0.00000 0.00000
1.00000 0.00000 0.00000
1.00000 0.00000 0.00000
1.00000 0.00000 0.00000
1.00000 0.00000 0.00000
1.00000 0.00000 0.00000
1.00000 0.00000 0.00000
1.00000 0.00000 0.00000
0.00000 0.15197 0.00000
0.00000 0.15252 0.00000
0.00000 0.15423 0.00000
0.00000 0.15842 0.00000
0.00000 0.16341 0.00000
0.04412 0.16902 0.00000
0.10939 0.17616 0.00000
0.17848 0.18536 0.00000
0.25099 0.19301 0.00000
0.32636 0.19829 0.00000
0.39784 0.19852 0.00000
0.46802 0.19795 0.00000
0.53318 0.19362 0.00000
0.59409 0.17961 0.00000
0.64593 0.17152 0.00000
0.69723 0.16159 0.00000
0.74532 0.14999 0.00000
0.79081 0.14376 0.00000
0.83199 0.13140 0.00000
0.87019 0.11141 0.00000
0.90741 0.09173 0.00000
0.94302 0.08021 0.00000
0.97579 0.07180 0.00000
1.00000 0.05983 0.00000
1.00000 0.02067 0.00000
1.00000 0.00000 0.00000
1.00000 0.00000 0.00000
1.00000 0.00000 0.00000
1.00000 0.00000 0.00000
1.00000 0.00000 0.00000
1.00000 0.00000 0.00000
1.00000 0.00270 0.00000
0.00000 0.21975 0.00000
0.00000 0.22130 0.00000
0.00000 0.22330 0.00000
0.00000 0.22615 0.00000
0.00000 0.22951 0.00000
0.00000 0.23426 0.00000
0.09650 0.24072 0.00000
0.17715 0.24674 0.00000
0.24880 0.25275 0.00000
0.32204 0.25885 0.00000
0.39349 0.26391 0.00000
0.46158 0.26602 0.00000
0.52841 0.26660 0.00000
0.58877 0.25893 0.00000
0.64566 0.24717 0.00000
0.69922 0.23414 0.00000
0.74991 0.22268 0.00000
0.79623 0.21259 0.00000
0.83927 0.20440 0.00000
0.87764 0.19755 0.00000
0.91563 0.18837 0.00000
0.95283 0.17373 0.00000
0.98593 0.15958 0.00000
1.00000 0.14889 0.00000
1.00000 0.14148 0.00000
1.00000 0.13237 0.00000
1.00000 0.12020 0.00000
1.00000 0.10785 0.00000
1.00000 0.10056 0.00000
1.00000 0.10104 0.00000
1.00000 0.11065 0.00000
1.00000 0.12924 0.00000
0.00000 0.28729 0.00000
0.00000 0.28890 0.00000
0.00000 0.29091 0.00000
0.00000 0.29370 0.00000
0.00000 0.29719 0.00000
0.00000 0.30109 0.00000
0.05573 0.30455 0.00000
0.16107 0.30900 0.00000
0.23782 0.31686 0.00000
0.31328 0.32020 0.00000
0.38695 0.32348 0.00000
0.45495 0.32868 0.00000
0.52052 0.33186 0.00000
0.57941 0.32980 0.00000
0.64008 0.32065 0.00000
0.69624 0.30968 0.00000
0.74938 0.29875 0.00000
0.79803 0.28922 0.00000
0.84351 0.28074 0.00000
0.88416 0.27309 0.00000
0.92301 0.26743 0.00000
0.95989 0.25797 0.00000
0.99367 0.24886 0.00000
1.00000 0.23895 0.00000
1.00000 0.22974 0.00000
1.00000 0.22031 0.00000
1.00000 0.21102 0.00000
1.00000 0.20306 0.00000
1.00000 0.19696 0.00000
1.00000 0.19387 0.00000
1.00000 0.19441 0.00000
1.00000 0.20019 0.00000
0.00000 0.34922 0.00000
0.00000 0.35011 0.00000
0.00000 0.35127 0.00000
0.00000 0.35357 0.00000
0.00000 0.35642 0.00000
0.00000 0.35976 0.00000
0.00000 0.36466 0.00000
0.13926 0.37093 0.00000
0.22806 0.37599 0.00000
0.30947 0.37800 0.00000
0.38326 0.38114 0.00000
0.44758 0.38646 0.00000
0.51035 0.39033 0.00000
0.56918 0.39098 0.00000
0.63030 0.38871 0.00000
0.68717 0.38427 0.00000
0.74268 0.37568 0.00000
0.79484 0.36716 0.00000
0.84247 0.35733 0.00000
0.88570 0.34864 0.00000
0.92748 0.34262 0.00000
0.96461 0.33696 0.00000
0.99906 0.32766 0.00000
1.00000 0.31768 0.00000
1.00000 0.30772 0.00000
1.00000 0.29775 0.00000
1.00000 0.28923 0.00000
1.00000 0.28247 0.00000
1.00000 0.27725 0.00000
1.00000 0.27109 0.00000
1.00000 0.26754 0.00000
1.00000 0.26965 0.00000
0.00000 0.40789 0.00000
0.00000 0.40900 0.00000
0.00000 0.41054 0.00000
0.00000 0.41266 0.00000
0.00000 0.41548 0.00000
0.00000 0.41889 0.00000
0.00000 0.42293 0.00000
0.10137 0.42669 0.00000
0.20440 0.43021 0.00000
0.28478 0.43361 0.00000
0.36387 0.43615 0.00000
0.43551 0.43890 0.00000
0.50125 0.44311 0.00000
0.56111 0.44684 0.00000
0.61942 0.44527 0.00000
0.67757 0.44181 0.00000
0.73336 0.43796 0.00000
0.78777 0.43169 0.00000
0.83652 0.42577 0.00000
0.88129 0.41925 0.00000
0.92550 0.41065 0.00000
0.96565 0.40230 0.00000
1.00000 0.39400 0.00000
1.00000 0.38605 0.00000
1.00000 0.37783 0.00000
1.00000 0.36870 0.00000
1.00000 0.35938 0.00000
1.00000 0.35093 0.00000
1.00000 0.34354 0.00000
1.00000 0.33672 0.00000
1.00000 0.33023 0.00000
1.00000 0.32884 0.00000
0.00000 0.46578 0.00000
0.00000 0.46654 0.00000
0.00000 0.46742 0.00000
0.00000 0.46863 0.00000
0.00000 0.47024 0.00000
0.00000 0.47227 0.00000
0.00000 0.47557 0.00000
0.00000 0.47917 0.00000
0.17526 0.48096 0.00000
0.26303 0.48225 0.00000
0.34325 0.48340 0.00000
0.42172 0.48579 0.00000
0.48971 0.49139 0.00000
0.55003 0.49329 0.00000
0.60810 0.49431 0.00000
0.66564 0.49517 0.00000
0.72145 0.49395 0.00000
0.77621 0.49059 0.00000
0.82641 0.48548 0.00000
0.87347 0.47887 0.00000
0.91916 0.47110 0.00000
0.96148 0.46333 0.00000
0.99882 0.45655 0.00000
1.00000 0.45007 0.00000
1.00000 0.44298 0.00000
1.00000 0.43486 0.00000
1.00000 0.42552 0.00000
1.00000 0.41609 0.00000
1.00000 0.40679 0.00000
1.00000 0.39941 0.00000
1.00000 0.39372 0.00000
1.00000 0.39131 0.00000
0.00000 0.51472 0.00000
0.00000 0.51551 0.00000
0.00000 0.51665 0.00000
0.00000 0.51821 0.00000
0.00000 0.52028 0.00000
0.00000 0.52272 0.00000
0.00000 0.52444 0.00000
0.00000 0.52590 0.00000
0.09789 0.52728 0.00000
0.23354 0.52898 0.00000
0.31798 0.53178 0.00000
0.39997 0.53382 0.00000
0.47128 0.53581 0.00000
0.53533 0.53829 0.00000
0.59522 0.54052 0.00000
0.65343 0.54207 0.00000
0.70856 0.54262 0.00000
0.76279 0.54183 0.00000
0.81316 0.53972 0.00000
0.86121 0.53543 0.00000
0.90830 0.52922 0.00000
0.95269 0.52224 0.00000
0.99206 0.51523 0.00000
1.00000 0.50892 0.00000
1.00000 0.50234 0.00000
1.00000 0.49505 0.00000
1.00000 0.48687 0.00000
1.00000 0.47802 0.00000
1.00000 0.46881 0.00000
1.00000 0.46105 0.00000
1.00000 0.45436 0.00000
1.00000 0.45040 0.00000
0.00000 0.56380 0.00000
0.00000 0.56429 0.00000
0.00000 0.56486 0.00000
0.00000 0.56572 0.00000
0.00000 0.56687 0.00000
0.00000 0.56823 0.00000
0.00000 0.56985 0.00000
0.00000 0.57178 0.00000
0.00000 0.57391 0.00000
0.15010 0.57566 0.00000
0.27016 0.57780 0.00000
0.36760 0.57930 0.00000
0.44545 0.58124 0.00000
0.51723 0.58325 0.00000
0.58003 0.58555 0.00000
0.63971 0.58689 0.00000
0.69478 0.58817 0.00000
0.74899 0.58855 0.00000
0.79917 0.58799 0.00000
0.84722 0.58583 0.00000
0.89466 0.58174 0.00000
0.94044 0.57589 0.00000
0.98083 0.56992 0.00000
1.00000 0.56383 0.00000
1.00000 0.55758 0.00000
1.00000 0.55052 0.00000
1.00000 0.54265 0.00000
1.00000 0.53417 0.00000
1.00000 0.52565 0.00000
1.00000 0.51831 0.00000
1.00000 0.51149 0.00000
1.00000 0.50657 0.00000
0.00000 0.60898 0.00000
0.00000 0.60951 0.00000
0.00000 0.61014 0.00000
0.00000 0.61105 0.00000
0.00000 0.61230 0.00000
0.00000 0.61391 0.00000
0.00000 0.61586 0.00000
0.00000 0.61817 0.00000
0.00000 0.62018 0.00000
0.00000 0.62140 0.00000
0.19518 0.62289 0.00000
0.32352 0.62410 0.00000
0.41434 0.62567 0.00000
0.49587 0.62687 0.00000
0.56317 0.62841 0.00000
0.62460 0.63002 0.00000
0.68037 0.63185 0.00000
0.73467 0.63314 0.00000
0.78474 0.63363 0.00000
0.83292 0.63306 0.00000
0.88006 0.63076 0.00000
0.92533 0.62699 0.00000
0.96604 0.62264 0.00000
1.00000 0.61728 0.00000
1.00000 0.61119 0.00000
1.00000 0.60427 0.00000
1.00000 0.59688 0.00000
1.00000 0.58865 0.00000
1.00000 0.58044 0.00000
1.00000 0.57299 0.00000
1.00000 0.56591 0.00000
1.00000 0.56067 0.00000
0.00000 0.65265 0.00000
0.00000 0.65320 0.00000
0.00000 0.65384 0.00000
0.00000 0.65476 0.00000
0.00000 0.65596 0.00000
0.00000 0.65738 0.00000
0.00000 0.65911 0.00000
0.00000 0.66086 0.00000
0.00000 0.66298 0.00000
0.00000 0.66445 0.00000
0.07823 0.66599 0.00000
0.26982 0.66750 0.00000
0.37699 0.66890 0.00000
0.46810 0.66978 0.00000
0.54140 0.67106 0.00000
0.60644 0.67220 0.00000
0.66514 0.67341 0.00000
0.72084 0.67442 0.00000
0.77138 0.67548 0.00000
0.82056 0.67532 0.00000
0.86692 0.67423 0.00000
0.91134 0.67219 0.00000
0.95162 0.66957 0.00000
0.98987 0.66573 0.00000
1.00000 0.66079 0.00000
1.00000 0.65449 0.00000
1.00000 0.64720 0.00000
1.00000 0.63937 0.00000
1.00000 0.63112 0.00000
1.00000 0.62383 0.00000
1.00000 0.61679 0.00000
1.00000 0.61134 0.00000
0.00000 0.69475 0.00000
0.00000 0.69523 0.00000
0.00000 0.69579 0.00000
0.00000 0.69658 0.00000
0.00000 0.69760 0.00000
0.00000 0.69890 0.00000
0.00000 0.70048 0.00000
0.00000 0.70200 0.00000
0.00000 0.70386 0.00000
0.00000 0.70553 0.00000
0.00000 0.70675 0.00000
0.20357 0.70780 0.00000
0.33796 0.70888 0.00000
0.43585 0.70987 0.00000
0.51711 0.71074 0.00000
0.58683 0.71169 0.00000
0.64953 0.71253 0.00000
0.70679 0.71348 0.00000
0.75844 0.71443 0.00000
0.80800 0.71511 0.00000
0.85488 0.71464 0.00000
0.89856 0.71402 0.00000
0.93877 0.71318 0.00000
0.97747 0.71130 0.00000
1.00000 0.70817 0.00000
1.00000 0.70284 0.00000
1.00000 0.69611 0.00000
1.00000 0.68843 0.00000
1.00000 0.68067 0.00000
1.00000 0.67294 0.00000
1.00000 0.66516 0.00000
1.00000 0.65912 0.00000
0.00000 0.73289 0.00000
0.00000 0.73333 0.00000
0.00000 0.73384 0.00000
0.00000 0.73457 0.00000
0.00000 0.73556 0.00000
0.00000 0.73685 0.00000
0.00000 0.73818 0.00000
0.00000 0.74002 0.00000
0.00000 0.74170 0.00000
0.00000 0.74360 0.00000
0.00000 0.74471 0.00000
0.09866 0.74555 0.00000
0.29017 0.74644 0.00000
0.39844 0.74771 0.00000
0.48816 0.74862 0.00000
0.56439 0.74905 0.00000
0.63212 0.74937 0.00000
0.69173 0.74955 0.00000
0.74483 0.75007 0.00000
0.79572 0.75038 0.00000
0.84359 0.75101 0.00000
0.88804 0.75166 0.00000
0.92986 0.75293 0.00000
0.96962 0.75317 0.00000
1.00000 0.75072 0.00000
1.00000 0.74622 0.00000
1.00000 0.74039 0.00000
1.00000 0.73342 0.00000
1.00000 0.72612 0.00000
1.00000 0.71896 0.00000
1.00000 0.71133 0.00000
1.00000 0.70489 0.00000
0.00000 0.76877 0.00000
0.00000 0.76920 0.00000
0.00000 0.76974 0.00000
0.00000 0.77052 0.00000
0.00000 0.77159 0.00000
0.00000 0.77290 0.00000
0.00000 0.77432 0.00000
0.00000 0.77607 0.00000
0.00000 0.77725 0.00000
0.00000 0.77897 0.00000
0.00000 0.77992 0.00000
0.00000 0.78028 0.00000
0.22514 0.78087 0.00000
0.35791 0.78155 0.00000
0.45809 0.78215 0.00000
0.54058 0.78246 0.00000
0.61341 0.78229 0.00000
0.67534 0.78242 0.00000
0.73065 0.78257 0.00000
0.78365 0.78261 0.00000
0.83303 0.78322 0.00000
0.87947 0.78488 0.00000
0.92531 0.78736 0.00000
0.96352 0.78740 0.00000
0.99491 0.78525 0.00000
1.00000 0.78180 0.00000
1.00000 0.77731 0.00000
1.00000 0.77184 0.00000
1.00000 0.76559 0.00000
1.00000 0.75915 0.00000
1.00000 0.75275 0.00000
1.00000 0.74669 0.00000
0.00000 0.80259 0.00000
0.00000 0.80294 0.00000
0.00000 0.80336 0.00000
0.00000 0.80396 0.00000
0.00000 0.80473 0.00000
0.00000 0.80549 0.00000
0.00000 0.80685 0.00000
0.00000 0.80823 0.00000
0.00000 0.80940 0.00000
0.00000 0.81053 0.00000
0.00000 0.81138 0.00000
0.00000 0.81200 0.00000
0.12441 0.81253 0.00000
0.30986 0.81285 0.00000
0.42403 0.81290 0.00000
0.51402 0.81280 0.00000
0.59242 0.81234 0.00000
0.65862 0.81202 0.00000
0.71639 0.81190 0.00000
0.77004 0.81183 0.00000
0.81943 0.81222 0.00000
0.86567 0.81391 0.00000
0.91009 0.81580 0.00000
0.95089 0.81698 0.00000
0.98343 0.81652 0.00000
1.00000 0.81489 0.00000
1.00000 0.81148 0.00000
1.00000 0.80710 0.00000
1.00000 0.80179 0.00000
1.00000 0.79570 0.00000
1.00000 0.78925 0.00000
1.00000 0.78335 0.00000
0.00000 0.83403 0.00000
0.00000 0.83431 0.00000
0.00000 0.83464 0.00000
0.00000 0.83507 0.00000
0.00000 0.83550 0.00000
0.00000 0.83628 0.00000
0.00000 0.83731 0.00000
0.00000 0.83807 0.00000
0.00000 0.83916 0.00000
0.00000 0.83989 0.00000
0.00000 0.84067 0.00000
0.00000 0.84119 0.00000
0.00000 0.84162 0.00000
0.24974 0.84194 0.00000
0.38459 0.84191 0.00000
0.48333 0.84173 0.00000
0.56740 0.84132 0.00000
0.63807 0.84091 0.00000
0.69922 0.84067 0.00000
0.75406 0.84060 0.00000
0.80396 0.84088 0.00000
0.84740 0.84180 0.00000
0.89033 0.84313 0.00000
0.93161 0.84460 0.00000
0.96893 0.84585 0.00000
0.99632 0.84543 0.00000
1.00000 0.84390 0.00000
1.00000 0.84122 0.00000
1.00000 0.83697 0.00000
1.00000 0.83109 0.00000
1.00000 0.82496 0.00000
1.00000 0.81918 0.00000
0.00000 0.86294 0.00000
0.00000 0.86317 0.00000
0.00000 0.86340 0.00000
0.00000 0.86370 0.00000
0.00000 0.86429 0.00000
0.00000 0.86509 0.00000
0.00000 0.86583 0.00000
0.00000 0.86643 0.00000
0.00000 0.86768 0.00000
0.00000 0.86840 0.00000
0.00000 0.86937 0.00000
0.00000 0.87022 0.00000
0.00000 0.87082 0.00000
0.15360 0.87123 0.00000
0.33369 0.87123 0.00000
0.44579 0.87091 0.00000
0.53764 0.87022 0.00000
0.61393 0.86942 0.00000
0.67953 0.86882 0.00000
0.73712 0.86867 0.00000
0.78813 0.86879 0.00000
0.83175 0.86955 0.00000
0.87307 0.87086 0.00000
0.91403 0.87244 0.00000
0.95145 0.87375 0.00000
0.98157 0.87486 0.00000
1.00000 0.87585 0.00000
1.00000 0.87480 0.00000
1.00000 0.87113 0.00000
1.00000 0.86568 0.00000
1.00000 0.85942 0.00000
1.00000 0.85389 0.00000
0.00000 0.89108 0.00000
0.00000 0.89129 0.00000
0.00000 0.89161 0.00000
0.00000 0.89210 0.00000
0.00000 0.89276 0.00000
0.00000 0.89348 0.00000
0.00000 0.89417 0.00000
0.00000 0.89501 0.00000
0.00000 0.89612 0.00000
0.00000 0.89686 0.00000
0.00000 0.89771 0.00000
0.00000 0.89830 0.00000
0.00000 0.89859 0.00000
0.00000 0.89880 0.00000
0.27225 0.89867 0.00000
0.40372 0.89832 0.00000
0.50423 0.89774 0.00000
0.58577 0.89724 0.00000
0.65578 0.89678 0.00000
0.71766 0.89639 0.00000
0.77201 0.89613 0.00000
0.81768 0.89656 0.00000
0.85972 0.89738 0.00000
0.89901 0.89868 0.00000
0.93513 0.90058 0.00000
0.96465 0.90386 0.00000
0.98705 0.90664 0.00000
1.00000 0.90754 0.00000
1.00000 0.90382 0.00000
1.00000 0.89781 0.00000
1.00000 0.89227 0.00000
1.00000 0.88743 0.00000
0.00000 0.91759 0.00000
0.00000 0.91790 0.00000
0.00000 0.91825 0.00000
0.00000 0.91876 0.00000
0.00000 0.91928 0.00000
0.00000 0.91987 0.00000
0.00000 0.92049 0.00000
0.00000 0.92161 0.00000
0.00000 0.92232 0.00000
0.00000 0.92313 0.00000
0.00000 0.92386 0.00000
0.00000 0.92457 0.00000
0.00000 0.92470 0.00000
0.00000 0.92470 0.00000
0.19388 0.92428 0.00000
0.35702 0.92361 0.00000
0.46826 0.92272 0.00000
0.55568 0.92198 0.00000
0.62960 0.92159 0.00000
0.69609 0.92142 0.00000
0.75381 0.92185 0.00000
0.80150 0.92289 0.00000
0.84480 0.92401 0.00000
0.88388 0.92566 0.00000
0.91999 0.92865 0.00000
0.94935 0.93223 0.00000
0.97177 0.93444 0.00000
0.98512 0.93429 0.00000
0.98922 0.93215 0.00000
0.99166 0.92906 0.00000
0.99495 0.92540 0.00000
0.99661 0.92055 0.00000
0.00000 0.94159 0.00000
0.00000 0.94180 0.00000
0.00000 0.94203 0.00000
0.00000 0.94232 0.00000
0.00000 0.94263 0.00000
0.00000 0.94311 0.00000
0.00000 0.94384 0.00000
0.00000 0.94437 0.00000
0.00000 0.94469 0.00000
0.00000 0.94516 0.00000
0.00000 0.94530 0.00000
0.00000 0.94572 0.00000
0.00000 0.94549 0.00000
0.00000 0.94528 0.00000
0.05912 0.94483 0.00000
0.30556 0.94446 0.00000
0.43042 0.94395 0.00000
0.52385 0.94382 0.00000
0.60310 0.94400 0.00000
0.67372 0.94451 0.00000
0.73430 0.94574 0.00000
0.78383 0.94751 0.00000
0.82858 0.94937 0.00000
0.86811 0.95244 0.00000
0.90458 0.95542 0.00000
0.93425 0.95756 0.00000
0.95579 0.95932 0.00000
0.96527 0.96000 0.00000
0.97005 0.95932 0.00000
0.97491 0.95768 0.00000
0.97837 0.95331 0.00000
0.97951 0.94757 0.00000
0.00000 0.95713 0.00000
0.00000 0.95723 0.00000
0.00000 0.95732 0.00000
0.00000 0.95745 0.00000
0.00000 0.95768 0.00000
0.00000 0.95814 0.00000
0.00000 0.95858 0.00000
0.00000 0.95875 0.00000
0.00000 0.95892 0.00000
0.00000 0.95914 0.00000
0.00000 0.95911 0.00000
0.00000 0.95958 0.00000
0.00000 0.95957 0.00000
0.00000 0.95971 0.00000
0.00000 0.95979 0.00000
0.26856 0.96025 0.00000
0.40732 0.96081 0.00000
0.50619 0.96207 0.00000
0.58738 0.96364 0.00000
0.65747 0.96500 0.00000
0.71652 0.96791 0.00000
0.76569 0.96998 0.00000
0.80871 0.97303 0.00000
0.84585 0.97695 0.00000
0.88028 0.97907 0.00000
0.90585 0.98159 0.00000
0.92200 0.98292 0.00000
0.93280 0.98321 0.00000
0.94133 0.98234 0.00000
0.94818 0.97971 0.00000
0.95365 0.97482 0.00000
0.95840 0.96829 0.00000
0.00000 0.96878 0.00000
0.00000 0.96888 0.00000
0.00000 0.96895 0.00000
0.00000 0.96904 0.00000
0.00000 0.96916 0.00000
0.00000 0.96938 0.00000
0.00000 0.96975 0.00000
0.00000 0.97016 0.00000
0.00000 0.97044 0.00000
0.00000 0.97110 0.00000
0.00000 0.97154 0.00000
0.00000 0.97237 0.00000
0.00000 0.97321 0.00000
0.00000 0.97444 0.00000
0.13448 0.97587 0.00000
0.32045 0.97728 0.00000
0.42984 0.97877 0.00000
0.51218 0.98166 0.00000
0.58605 0.98322 0.00000
0.64783 0.98599 0.00000
0.69965 0.98937 0.00000
0.74357 0.99204 0.00000
0.78192 0.99533 0.00000
0.81543 0.99849 0.00000
0.84296 1.00000 0.00000
0.86540 1.00000 0.00000
0.88260 1.00000 0.00000
0.89587 1.00000 0.01211
0.90730 1.00000 0.07371
0.91727 0.99814 0.12125
0.92678 0.99251 0.15953
0.93615 0.98516 0.19263
0.00000 0.98369 0.00000
0.00000 0.98389 0.00000
0.00000 0.98412 0.00000
0.00000 0.98444 0.00000
