fuji-film/cube-lut/srgb/srgb-astia.cube
LUT_3D_SIZE 32
0.00000 0.00000 0.00000
0.01828 0.00000 0.00000
0.03867 0.00000 0.00000
0.06067 0.00133 0.00000
0.08615 0.00288 0.00000
0.12442 0.00498 0.00000
0.17555 0.00694 0.00000
0.23465 0.00534 0.00000
0.30361 0.00460 0.00000
0.37644 0.00000 0.00000
0.45469 0.00000 0.00000
0.52242 0.00000 0.00000
0.58510 0.00000 0.00000
0.64943 0.00000 0.00000
0.70739 0.00000 0.00000
0.76109 0.00000 0.00000
0.81454 0.00000 0.00000
0.86203 0.00000 0.00000
0.90568 0.00000 0.00000
0.94425 0.00000 0.00000
0.98040 0.00000 0.06143
1.00000 0.00000 0.10890
1.00000 0.00000 0.14051
1.00000 0.00000 0.17043
1.00000 0.00000 0.19134
1.00000 0.00000 0.20031
1.00000 0.00000 0.19130
1.00000 0.00000 0.13442
1.00000 0.00000 0.00000
1.00000 0.00000 0.00000
1.00000 0.00000 0.00000
1.00000 0.00000 0.00000
0.00000 0.01541 0.00000
0.01253 0.01527 0.00000
0.03182 0.01723 0.00000
0.05499 0.01546 0.00000
0.08277 0.01608 0.00000
0.12279 0.01813 0.00000
0.17542 0.01704 0.00000
0.23453 0.01482 0.00000
0.30511 0.01297 0.00000
0.37755 0.00558 0.00000
0.45680 0.00000 0.00000
0.52443 0.00000 0.00000
0.58741 0.00000 0.00000
0.65115 0.00000 0.00000
0.70892 0.00000 0.00000
0.76245 0.00000 0.00000
0.81557 0.00000 0.00000
0.86295 0.00000 0.00000
0.90640 0.00000 0.00000
0.94496 0.00000 0.00000
0.98096 0.00000 0.03730
1.00000 0.00000 0.09248
1.00000 0.00000 0.12762
1.00000 0.00000 0.16129
1.00000 0.00000 0.18278
1.00000 0.00000 0.19260
1.00000 0.00000 0.18363
1.00000 0.00000 0.12352
1.00000 0.00000 0.00000
1.00000 0.00000 0.00000
1.00000 0.00000 0.00000
1.00000 0.00273 0.00000
0.00000 0.02884 0.00000
0.00896 0.02917 0.00000
0.02633 0.03084 0.00000
0.04944 0.02956 0.00000
0.08061 0.03083 0.00000
0.12057 0.03248 0.00000
0.17520 0.02887 0.00000
0.23463 0.02565 0.00000
0.30670 0.02253 0.00000
0.37923 0.01686 0.00000
0.45880 0.00000 0.00000
0.52654 0.00000 0.00000
0.58963 0.00000 0.00000
0.65291 0.00000 0.00000
0.71049 0.00000 0.00000
0.76393 0.00000 0.00000
0.81679 0.00000 0.00000
0.86392 0.00000 0.00000
0.90719 0.00000 0.00000
0.94573 0.00000 0.00000
0.98152 0.00000 0.00546
1.00000 0.00000 0.06813
1.00000 0.00000 0.11147
1.00000 0.00000 0.14997
1.00000 0.00000 0.17085
1.00000 0.00000 0.18335
1.00000 0.00000 0.17456
1.00000 0.00000 0.10773
1.00000 0.00000 0.00000
1.00000 0.00000 0.00000
1.00000 0.00000 0.00000
1.00000 0.01093 0.00000
0.00000 0.04293 0.00146
0.00345 0.04315 0.00123
0.01922 0.04563 0.00047
0.04387 0.04737 0.00000
0.07349 0.04892 0.00000
0.11793 0.05070 0.00000
0.17390 0.04819 0.00000
0.23459 0.04619 0.00000
0.30746 0.04295 0.00000
0.38051 0.03849 0.00000
0.46011 0.02597 0.00000
0.52887 0.00634 0.00000
0.59196 0.00054 0.00000
0.65491 0.00000 0.00000
0.71251 0.00000 0.00000
0.76587 0.00000 0.00000
0.81844 0.00000 0.00000
0.86543 0.00000 0.00000
0.90841 0.00000 0.00000
0.94663 0.00000 0.00000
0.98187 0.00000 0.00000
1.00000 0.00000 0.02425
1.00000 0.00000 0.09484
1.00000 0.00000 0.12925
1.00000 0.00000 0.15412
1.00000 0.00000 0.16823
1.00000 0.00000 0.15940
1.00000 0.00000 0.08015
1.00000 0.00000 0.00000
1.00000 0.00000 0.00000
1.00000 0.00000 0.00000
1.00000 0.02300 0.00000
0.00000 0.06381 0.00606
0.00000 0.06480 0.00436
0.01019 0.06701 0.00237
0.03113 0.06987 0.00000
0.06745 0.07172 0.00000
0.11282 0.07555 0.00000
0.17117 0.07500 0.00000
0.23226 0.07629 0.00000
0.30687 0.07422 0.00000
0.37922 0.07438 0.00000
0.45885 0.07120 0.00000
0.52880 0.05416 0.00000
0.59378 0.04644 0.00000
0.65662 0.02099 0.00000
0.71482 0.00000 0.00000
0.76826 0.00000 0.00000
0.82037 0.00000 0.00000
0.86733 0.00000 0.00000
0.90987 0.00000 0.00000
0.94718 0.00000 0.00000
0.98235 0.00000 0.00000
1.00000 0.00000 0.00000
1.00000 0.00000 0.04461
1.00000 0.00000 0.09363
1.00000 0.00000 0.12897
1.00000 0.00000 0.14687
1.00000 0.00000 0.13876
1.00000 0.00000 0.04786
1.00000 0.00000 0.00000
1.00000 0.00000 0.00000
1.00000 0.00000 0.00000
1.00000 0.04000 0.00000
0.00000 0.09711 0.00466
0.00000 0.09894 0.00171
0.00000 0.10197 0.00052
0.01381 0.10156 0.00000
0.04874 0.10496 0.00000
0.10139 0.10771 0.00087
0.16305 0.11210 0.00000
0.22924 0.11408 0.00000
0.30244 0.11525 0.00000
0.37584 0.11923 0.00000
0.45588 0.11288 0.00000
0.52630 0.10866 0.00000
0.59357 0.09954 0.00000
0.65735 0.08382 0.00000
0.71620 0.06365 0.00000
0.77077 0.02577 0.00000
0.82232 0.00000 0.00000
0.86898 0.00000 0.00000
0.91068 0.00000 0.00000
0.94794 0.00000 0.00000
0.98372 0.00000 0.00000
1.00000 0.00000 0.00000
1.00000 0.00000 0.00000
1.00000 0.00000 0.03286
1.00000 0.00000 0.08380
1.00000 0.00000 0.11533
1.00000 0.00000 0.10547
1.00000 0.00000 0.00000
1.00000 0.00000 0.00000
1.00000 0.00000 0.00000
1.00000 0.01324 0.00000
1.00000 0.06039 0.00000
0.00000 0.13798 0.00206
0.00000 0.13995 0.00000
0.00000 0.14277 0.00000
0.00000 0.14371 0.00000
0.01970 0.14451 0.00000
0.07907 0.14833 0.00000
0.14766 0.15235 0.00000
0.22112 0.15999 0.00000
0.29749 0.16279 0.00000
0.37252 0.16804 0.00000
0.45007 0.16567 0.00000
0.52195 0.16239 0.00000
0.59049 0.15719 0.00000
0.65502 0.14925 0.00000
0.71505 0.13192 0.00000
0.77165 0.09500 0.00000
0.82282 0.05412 0.00000
0.86817 0.03132 0.00000
0.91102 0.00000 0.00000
0.94952 0.00000 0.00000
0.98479 0.00000 0.00000
1.00000 0.00000 0.00000
1.00000 0.00000 0.00000
1.00000 0.00000 0.00000
1.00000 0.00000 0.01340
1.00000 0.00000 0.06411
1.00000 0.00000 0.05301
1.00000 0.00000 0.00000
1.00000 0.00000 0.00000
1.00000 0.00000 0.00000
1.00000 0.04806 0.00000
1.00000 0.08285 0.00000
0.00000 0.18617 0.00000
0.00000 0.18679 0.00000
0.00000 0.18872 0.00000
0.00000 0.19123 0.00000
0.00000 0.19535 0.00000
0.05248 0.20025 0.00000
0.14263 0.20632 0.00000
0.21776 0.21261 0.00000
0.29248 0.21820 0.00000
0.37135 0.22043 0.00000
0.44236 0.22448 0.00000
0.51467 0.22402 0.00000
0.58453 0.21658 0.00000
0.64833 0.21545 0.00000
0.70941 0.20509 0.00000
0.76709 0.17823 0.00000
0.81954 0.14637 0.00000
0.86689 0.10836 0.00000
0.91020 0.06196 0.00000
0.94806 0.02594 0.00000
0.98316 0.00000 0.00000
1.00000 0.00000 0.00000
1.00000 0.00000 0.00000
1.00000 0.00000 0.00000
1.00000 0.00000 0.00000
1.00000 0.00000 0.00000
1.00000 0.00000 0.00000
1.00000 0.00000 0.00000
1.00000 0.00000 0.00000
1.00000 0.04738 0.00000
1.00000 0.08430 0.00000
1.00000 0.10839 0.00000
0.00000 0.25196 0.00000
0.00000 0.25306 0.00000
0.00000 0.25433 0.00000
0.00000 0.25615 0.00000
0.00000 0.25914 0.00000
0.00030 0.26317 0.00000
0.11352 0.26854 0.00000
0.20210 0.27353 0.00000
0.28382 0.27608 0.00000
0.36126 0.27859 0.00000
0.42936 0.28973 0.00000
0.50600 0.28469 0.00000
0.57448 0.28323 0.00000
0.63836 0.28389 0.00000
0.70030 0.27428 0.00000
0.75772 0.25649 0.00000
0.81135 0.23296 0.00000
0.86038 0.20576 0.00000
0.90473 0.17613 0.00000
0.94360 0.14472 0.00000
0.98008 0.10873 0.00000
1.00000 0.07011 0.00000
1.00000 0.02735 0.00000
1.00000 0.00000 0.00000
1.00000 0.00000 0.00000
1.00000 0.00000 0.00000
1.00000 0.00000 0.00000
1.00000 0.01303 0.00000
1.00000 0.06758 0.00000
1.00000 0.10026 0.00000
1.00000 0.12101 0.00000
1.00000 0.13770 0.00000
0.00000 0.31820 0.00000
0.00000 0.32026 0.00000
0.00000 0.32262 0.00000
0.00000 0.32603 0.00000
0.00000 0.32811 0.00000
0.00000 0.32947 0.00000
0.08206 0.33046 0.00000
0.18373 0.33165 0.00000
0.26411 0.33878 0.00000
0.33738 0.34583 0.00000
0.41348 0.34791 0.00000
0.49329 0.34563 0.00000
0.56306 0.34532 0.00000
0.62694 0.34567 0.00000
0.68776 0.34197 0.00000
0.74520 0.33017 0.00000
0.79996 0.31098 0.00000
0.85064 0.28748 0.00000
0.89580 0.26375 0.00000
0.93535 0.23800 0.00000
0.97284 0.21527 0.00000
1.00000 0.19716 0.00000
1.00000 0.17820 0.00000
1.00000 0.15549 0.00000
1.00000 0.13190 0.00000
1.00000 0.11266 0.00000
1.00000 0.10590 0.00000
1.00000 0.11565 0.00000
1.00000 0.13141 0.00000
1.00000 0.14807 0.00000
1.00000 0.16134 0.00000
1.00000 0.17221 0.00000
0.00000 0.38394 0.00000
0.00000 0.38458 0.00000
0.00000 0.38525 0.00000
0.00000 0.38603 0.00000
0.00000 0.38748 0.00000
0.00000 0.38861 0.00000
0.00000 0.39138 0.00000
0.14979 0.39434 0.00000
0.23488 0.40012 0.00000
0.32102 0.40577 0.00000
0.39497 0.40876 0.00000
0.47473 0.40930 0.00000
0.54633 0.40871 0.00000
0.61153 0.40675 0.00000
0.67339 0.40231 0.00000
0.73121 0.39430 0.00000
0.78718 0.37787 0.00000
0.83741 0.36152 0.00000
0.88389 0.34076 0.00000
0.92541 0.31860 0.00000
0.96380 0.29808 0.00000
0.99904 0.28161 0.00000
1.00000 0.26299 0.00000
1.00000 0.24138 0.00000
1.00000 0.22028 0.00000
1.00000 0.20277 0.00000
1.00000 0.19140 0.00000
1.00000 0.18817 0.00000
1.00000 0.19174 0.00000
1.00000 0.20046 0.00000
1.00000 0.20904 0.00000
1.00000 0.21915 0.00000
0.00000 0.44653 0.00000
0.00000 0.44732 0.00000
0.00000 0.44828 0.00000
0.00000 0.44925 0.00000
0.00000 0.45041 0.00000
0.00000 0.45177 0.00000
0.00000 0.45333 0.00000
0.08126 0.45524 0.00000
0.21518 0.45764 0.00000
0.30408 0.46202 0.00000
0.37851 0.46509 0.00000
0.45380 0.46658 0.00000
0.52699 0.46699 0.00000
0.59261 0.46658 0.00000
0.65460 0.46426 0.00000
0.71323 0.45834 0.00000
0.76772 0.44929 0.00000
0.81962 0.43615 0.00000
0.86708 0.42076 0.00000
0.91075 0.40242 0.00000
0.95019 0.38545 0.00000
0.98683 0.36944 0.00000
1.00000 0.35233 0.00000
1.00000 0.33369 0.00000
1.00000 0.31390 0.00000
1.00000 0.29592 0.00000
1.00000 0.28180 0.00000
1.00000 0.27363 0.00000
1.00000 0.26928 0.00000
1.00000 0.26984 0.00000
1.00000 0.27130 0.00000
1.00000 0.27468 0.00000
0.00000 0.50426 0.00000
0.00000 0.50491 0.00000
0.00000 0.50566 0.00000
0.00000 0.50675 0.00000
0.00000 0.50806 0.00000
0.00000 0.50960 0.00000
0.00000 0.51125 0.00000
0.00000 0.51351 0.00000
0.14074 0.51573 0.00000
0.26511 0.51720 0.00000
0.35950 0.51844 0.00000
0.43099 0.52063 0.00000
0.50597 0.52149 0.00000
0.57278 0.52155 0.00000
0.63490 0.52021 0.00000
0.69335 0.51707 0.00000
0.74753 0.51147 0.00000
0.79871 0.50347 0.00000
0.84705 0.49216 0.00000
0.89151 0.47871 0.00000
0.93307 0.46394 0.00000
0.97171 0.44886 0.00000
1.00000 0.43431 0.00000
1.00000 0.41786 0.00000
1.00000 0.39993 0.00000
1.00000 0.38101 0.00000
1.00000 0.36549 0.00000
1.00000 0.35484 0.00000
1.00000 0.34593 0.00000
1.00000 0.34045 0.00000
1.00000 0.33629 0.00000
1.00000 0.33414 0.00000
0.00000 0.55888 0.00000
0.00000 0.55959 0.00000
0.00000 0.56034 0.00000
0.00000 0.56130 0.00000
0.00000 0.56250 0.00000
0.00000 0.56365 0.00000
0.00000 0.56539 0.00000
0.00000 0.56662 0.00000
0.06822 0.56816 0.00000
0.21244 0.57019 0.00000
0.32782 0.57096 0.00000
0.40973 0.57198 0.00000
0.48447 0.57231 0.00000
0.55250 0.57221 0.00000
0.61473 0.57168 0.00000
0.67383 0.56995 0.00000
0.72741 0.56716 0.00000
0.77812 0.56222 0.00000
0.82582 0.55540 0.00000
0.87020 0.54637 0.00000
0.91266 0.53530 0.00000
0.95314 0.52298 0.00000
0.99104 0.50990 0.00000
1.00000 0.49642 0.00000
1.00000 0.48175 0.00000
1.00000 0.46277 0.00000
1.00000 0.44755 0.00000
1.00000 0.43647 0.00000
1.00000 0.42584 0.00000
1.00000 0.41675 0.00000
1.00000 0.40838 0.00000
1.00000 0.40212 0.00000
0.00000 0.60854 0.00000
0.00000 0.60917 0.00000
0.00000 0.60985 0.00000
0.00000 0.61067 0.00000
0.00000 0.61157 0.00000
0.00000 0.61276 0.00000
0.00000 0.61366 0.00000
0.00000 0.61535 0.00000
0.00000 0.61623 0.00000
0.14973 0.61758 0.00000
0.28762 0.61837 0.00000
0.38198 0.61915 0.00000
0.45987 0.62003 0.00000
0.53024 0.62038 0.00000
0.59380 0.61995 0.00000
0.65458 0.61843 0.00000
0.70819 0.61651 0.00000
0.75840 0.61363 0.00000
0.80553 0.60965 0.00000
0.84957 0.60419 0.00000
0.89194 0.59687 0.00000
0.93316 0.58754 0.00000
0.97181 0.57767 0.00000
1.00000 0.56855 0.00000
1.00000 0.55663 0.00000
1.00000 0.54149 0.00000
1.00000 0.52731 0.00000
1.00000 0.51550 0.00000
1.00000 0.50220 0.00000
1.00000 0.49195 0.00000
1.00000 0.48216 0.00000
1.00000 0.47361 0.00000
0.00000 0.65272 0.00000
0.00000 0.65318 0.00000
0.00000 0.65367 0.00000
0.00000 0.65435 0.00000
0.00000 0.65531 0.00000
0.00000 0.65627 0.00000
0.00000 0.65696 0.00000
0.00000 0.65788 0.00000
0.00000 0.65898 0.00000
0.02180 0.65953 0.00000
0.22946 0.66065 0.00000
0.34409 0.66135 0.00000
0.43137 0.66201 0.00000
0.50834 0.66219 0.00000
0.57416 0.66231 0.00000
0.63599 0.66168 0.00000
0.68922 0.66124 0.00000
0.73907 0.65994 0.00000
0.78615 0.65731 0.00000
0.83009 0.65366 0.00000
0.87211 0.64890 0.00000
0.91303 0.64316 0.00000
0.95162 0.63699 0.00000
0.99054 0.62953 0.00000
1.00000 0.61963 0.00000
1.00000 0.60775 0.00000
1.00000 0.59683 0.00000
1.00000 0.58501 0.00000
1.00000 0.57322 0.00000
1.00000 0.56245 0.00000
1.00000 0.55201 0.00000
1.00000 0.54412 0.00000
0.00000 0.69127 0.00000
0.00000 0.69173 0.00000
0.00000 0.69226 0.00000
0.00000 0.69304 0.00000
0.00000 0.69423 0.00000
0.00000 0.69514 0.00000
0.00000 0.69652 0.00000
0.00000 0.69748 0.00000
0.00000 0.69873 0.00000
0.00000 0.69926 0.00000
0.11263 0.70013 0.00000
0.28948 0.70035 0.00000
0.39415 0.70072 0.00000
0.48059 0.70102 0.00000
0.55161 0.70156 0.00000
0.61576 0.70184 0.00000
0.67002 0.70195 0.00000
0.72072 0.70088 0.00000
0.76794 0.69902 0.00000
0.81178 0.69651 0.00000
0.85345 0.69355 0.00000
0.89400 0.69013 0.00000
0.93246 0.68613 0.00000
0.97201 0.68049 0.00000
1.00000 0.67315 0.00000
1.00000 0.66508 0.00000
1.00000 0.65648 0.00000
1.00000 0.64624 0.00000
1.00000 0.63553 0.00000
1.00000 0.62662 0.00000
1.00000 0.61698 0.00000
1.00000 0.60749 0.00000
0.00000 0.72993 0.00000
0.00000 0.73036 0.00000
0.00000 0.73085 0.00000
0.00000 0.73150 0.00000
0.00000 0.73241 0.00000
0.00000 0.73303 0.00000
0.00000 0.73396 0.00000
0.00000 0.73463 0.00000
0.00000 0.73545 0.00000
0.00000 0.73551 0.00000
0.00000 0.73607 0.00000
0.21581 0.73609 0.00000
0.34847 0.73625 0.00000
0.44758 0.73641 0.00000
0.52704 0.73679 0.00000
0.59634 0.73693 0.00000
0.65307 0.73696 0.00000
0.70406 0.73670 0.00000
0.75133 0.73585 0.00000
0.79505 0.73455 0.00000
0.83654 0.73294 0.00000
0.87701 0.73100 0.00000
0.91539 0.72872 0.00000
0.95541 0.72528 0.00000
0.99336 0.72069 0.00000
1.00000 0.71588 0.00000
1.00000 0.70953 0.00000
1.00000 0.69871 0.00000
1.00000 0.68951 0.00000
1.00000 0.68104 0.00000
1.00000 0.67270 0.00000
1.00000 0.66282 0.00000
0.00000 0.76279 0.00000
0.00000 0.76319 0.00000
0.00000 0.76368 0.00000
0.00000 0.76438 0.00000
0.00000 0.76513 0.00000
0.00000 0.76551 0.00000
0.00000 0.76673 0.00000
0.00000 0.76722 0.00000
0.00000 0.76833 0.00000
0.00000 0.76844 0.00000
0.00000 0.76926 0.00000
0.09411 0.76958 0.00000
0.29338 0.76999 0.00000
0.40946 0.77004 0.00000
0.49920 0.76977 0.00000
0.57470 0.76903 0.00000
0.63550 0.76853 0.00000
0.68856 0.76836 0.00000
0.73602 0.76840 0.00000
0.77965 0.76836 0.00000
0.82141 0.76799 0.00000
0.86270 0.76752 0.00000
0.90160 0.76733 0.00000
0.94211 0.76591 0.00000
0.97850 0.76269 0.00000
1.00000 0.75822 0.00000
1.00000 0.75170 0.00000
1.00000 0.74554 0.00000
1.00000 0.73637 0.00000
1.00000 0.72922 0.00000
1.00000 0.72114 0.00000
1.00000 0.71248 0.00000
0.00000 0.79313 0.00000
0.00000 0.79359 0.00000
0.00000 0.79411 0.00000
0.00000 0.79476 0.00000
0.00000 0.79529 0.00000
0.00000 0.79628 0.00000
0.00000 0.79755 0.00000
0.00000 0.79822 0.00000
0.00000 0.79974 0.00000
0.00000 0.80036 0.00000
0.00000 0.80163 0.00000
0.00000 0.80205 0.00000
0.21960 0.80219 0.00000
0.36430 0.80157 0.00000
0.46584 0.80044 0.00000
0.54884 0.79905 0.00000
0.61567 0.79810 0.00000
0.67276 0.79754 0.00000
0.72171 0.79771 0.00000
0.76624 0.79830 0.00000
0.80831 0.79881 0.00000
0.85034 0.79945 0.00000
0.89035 0.80112 0.00000
0.92948 0.80008 0.00000
0.96401 0.79743 0.00000
0.99315 0.79349 0.00000
1.00000 0.78851 0.00000
1.00000 0.78289 0.00000
1.00000 0.77730 0.00000
1.00000 0.77077 0.00000
1.00000 0.76441 0.00000
1.00000 0.75718 0.00000
0.00000 0.82169 0.00000
0.00000 0.82216 0.00000
0.00000 0.82265 0.00000
0.00000 0.82319 0.00000
0.00000 0.82403 0.00000
0.00000 0.82540 0.00000
0.00000 0.82644 0.00000
0.00000 0.82766 0.00000
0.00000 0.82928 0.00000
0.00000 0.83007 0.00000
0.00000 0.83120 0.00000
0.00000 0.83140 0.00000
0.11156 0.83120 0.00000
0.31495 0.83023 0.00000
0.43063 0.82858 0.00000
0.52184 0.82655 0.00000
0.59477 0.82514 0.00000
0.65624 0.82429 0.00000
0.70739 0.82437 0.00000
0.75267 0.82518 0.00000
0.79372 0.82651 0.00000
0.83501 0.82786 0.00000
0.87399 0.82920 0.00000
0.91402 0.82933 0.00000
0.94954 0.82811 0.00000
0.98029 0.82612 0.00000
1.00000 0.82250 0.00000
1.00000 0.81852 0.00000
1.00000 0.81334 0.00000
1.00000 0.80911 0.00000
1.00000 0.80246 0.00000
1.00000 0.79671 0.00000
0.00000 0.84825 0.00000
0.00000 0.84860 0.00000
0.00000 0.84896 0.00000
0.00000 0.84953 0.00000
0.00000 0.85061 0.00000
0.00000 0.85184 0.00000
0.00000 0.85259 0.00000
0.00000 0.85381 0.00000
0.00000 0.85510 0.00000
0.00000 0.85613 0.00000
0.00000 0.85742 0.00000
0.00000 0.85790 0.00000
0.00000 0.85795 0.00000
0.25905 0.85730 0.00000
0.39217 0.85612 0.00000
0.49101 0.85436 0.00000
0.56958 0.85265 0.00000
0.63573 0.85121 0.00000
0.69062 0.85045 0.00000
0.73793 0.85039 0.00000
0.77939 0.85134 0.00000
0.81880 0.85271 0.00000
0.85744 0.85391 0.00000
0.89835 0.85488 0.00000
0.93642 0.85532 0.00000
0.96940 0.85434 0.00000
0.99743 0.85229 0.00000
1.00000 0.84918 0.00000
1.00000 0.84494 0.00000
1.00000 0.84082 0.00000
1.00000 0.83632 0.00000
1.00000 0.82847 0.00000
0.00000 0.87244 0.00000
0.00000 0.87280 0.00000
0.00000 0.87342 0.00000
0.00000 0.87431 0.00000
0.00000 0.87546 0.00000
0.00000 0.87637 0.00000
0.00000 0.87759 0.00000
0.00000 0.87928 0.00000
0.00000 0.88031 0.00000
0.00000 0.88163 0.00000
0.00000 0.88283 0.00000
0.00000 0.88355 0.00000
0.00000 0.88364 0.00000
0.18821 0.88325 0.00000
0.35036 0.88245 0.00000
0.45843 0.88084 0.00000
0.54284 0.87886 0.00000
0.61366 0.87688 0.00000
0.67218 0.87557 0.00000
0.72213 0.87510 0.00000
0.76537 0.87548 0.00000
0.80567 0.87636 0.00000
0.84323 0.87755 0.00000
0.88330 0.87888 0.00000
0.92105 0.88033 0.00000
0.95538 0.88159 0.00000
0.98592 0.88245 0.00000
1.00000 0.88102 0.00000
1.00000 0.87728 0.00000
1.00000 0.87272 0.00000
1.00000 0.86693 0.00000
1.00000 0.85934 0.00000
0.00000 0.89666 0.00000
0.00000 0.89714 0.00000
0.00000 0.89769 0.00000
0.00000 0.89846 0.00000
0.00000 0.89916 0.00000
0.00000 0.89997 0.00000
0.00000 0.90146 0.00000
0.00000 0.90318 0.00000
0.00000 0.90423 0.00000
0.00000 0.90561 0.00000
0.00000 0.90673 0.00000
0.00000 0.90794 0.00000
0.00000 0.90866 0.00000
0.05373 0.90873 0.00000
0.30175 0.90808 0.00000
0.42290 0.90662 0.00000
0.51347 0.90484 0.00000
0.58842 0.90303 0.00000
0.65070 0.90153 0.00000
0.70448 0.90066 0.00000
0.75068 0.90053 0.00000
0.79195 0.90106 0.00000
0.82931 0.90207 0.00000
0.86801 0.90293 0.00000
0.90459 0.90471 0.00000
0.93879 0.90780 0.00000
0.97018 0.91046 0.00000
0.99224 0.91061 0.00000
1.00000 0.90780 0.00000
1.00000 0.90343 0.00000
1.00000 0.89823 0.00000
1.00000 0.89051 0.00000
0.00000 0.91928 0.00000
0.00000 0.91977 0.00000
0.00000 0.92022 0.00000
0.00000 0.92074 0.00000
0.00000 0.92160 0.00000
0.00000 0.92283 0.00000
0.00000 0.92447 0.00000
0.00000 0.92604 0.00000
0.00000 0.92740 0.00000
0.00000 0.92927 0.00000
0.00000 0.93106 0.00000
0.00000 0.93299 0.00000
0.00000 0.93428 0.00000
0.00000 0.93478 0.00000
0.23967 0.93439 0.00000
0.38193 0.93301 0.00000
0.48085 0.93093 0.00000
0.56056 0.92884 0.00000
0.62696 0.92696 0.00000
0.68422 0.92555 0.00000
0.73339 0.92505 0.00000
0.77681 0.92543 0.00000
0.81547 0.92672 0.00000
0.85403 0.92817 0.00000
0.88937 0.93215 0.00000
0.92189 0.93650 0.00000
0.95239 0.93869 0.00000
0.97411 0.93898 0.00000
0.98855 0.93753 0.00000
0.99603 0.93430 0.00000
0.99899 0.92941 0.00000
1.00000 0.92252 0.00000
0.00000 0.94180 0.00000
0.00000 0.94216 0.00000
0.00000 0.94264 0.00000
0.00000 0.94336 0.00000
0.00000 0.94433 0.00000
0.00000 0.94563 0.00000
0.00000 0.94701 0.00000
0.00000 0.94809 0.00000
0.00000 0.94959 0.00000
0.00000 0.95126 0.00000
0.00000 0.95238 0.00000
0.00000 0.95383 0.00000
0.00000 0.95474 0.00000
0.00000 0.95504 0.00000
0.17068 0.95466 0.00000
0.34323 0.95376 0.00000
0.45004 0.95232 0.00000
0.53421 0.95071 0.00000
0.60374 0.94961 0.00000
0.66313 0.94954 0.00000
0.71544 0.95022 0.00000
0.75994 0.95176 0.00000
0.80028 0.95400 0.00000
0.83863 0.95757 0.00000
0.87296 0.96117 0.00000
0.90386 0.96446 0.00000
0.93209 0.96643 0.00000
0.95171 0.96684 0.00000
0.96542 0.96644 0.00000
0.97583 0.96528 0.00000
0.98109 0.96051 0.00000
0.98362 0.95310 0.00000
0.00000 0.95881 0.00000
0.00000 0.95909 0.00000
0.00000 0.95945 0.00000
0.00000 0.95996 0.00000
0.00000 0.96067 0.00000
0.00000 0.96154 0.00000
0.00000 0.96228 0.00000
0.00000 0.96307 0.00000
0.00000 0.96417 0.00000
0.00000 0.96517 0.00000
0.00000 0.96602 0.00000
0.00000 0.96712 0.00000
0.00000 0.96807 0.00000
0.00000 0.96845 0.00000
0.11387 0.96893 0.00000
0.31700 0.96920 0.00000
0.42912 0.96948 0.00000
0.51574 0.96999 0.00000
0.58475 0.97087 0.00000
0.64376 0.97270 0.00000
0.69526 0.97476 0.00000
0.74029 0.97704 0.00000
0.77976 0.98067 0.00000
0.81699 0.98403 0.00000
0.84991 0.98687 0.00000
0.87769 0.98949 0.00000
0.90210 0.99052 0.00000
0.92031 0.99120 0.00000
0.93489 0.99072 0.00000
0.94597 0.98767 0.00000
0.95407 0.98292 0.00000
0.96118 0.97709 0.00000
0.00000 0.97172 0.00000
0.00000 0.97188 0.00000
0.00000 0.97211 0.00000
0.00000 0.97247 0.00000
0.00000 0.97295 0.00000
0.00000 0.97365 0.00000
0.00000 0.97452 0.00000
0.00000 0.97524 0.00000
0.00000 0.97605 0.00000
0.00000 0.97702 0.00000
0.00000 0.97848 0.00000
0.00000 0.97987 0.00000
0.00000 0.98127 0.00000
0.00000 0.98270 0.00000
0.19793 0.98404 0.00000
0.33601 0.98608 0.00000
0.43236 0.98799 0.00000
0.50868 0.98942 0.00000
0.57137 0.99230 0.00000
0.62675 0.99477 0.00000
0.67497 0.99807 0.00000
0.71756 1.00000 0.00000
0.75509 1.00000 0.00000
0.79008 1.00000 0.00000
0.82056 1.00000 0.00000
0.84578 1.00000 0.00000
0.86735 1.00000 0.00000
0.88693 1.00000 0.00000
0.90261 1.00000 0.00000
0.91586 1.00000 0.00000
0.92706 0.99980 0.00000
0.93737 0.99413 0.05756
0.00000 0.98795 0.00000
0.00000 0.98818 0.00000
0.00000 0.98845 0.00000
0.00000 0.98884 0.00000
