fuji-film/cube-lut/srgb/srgb-classic-chrome.cube
LUT_3D_SIZE 32
0.00000 0.00000 0.00000
0.00250 0.00112 0.00000
0.01094 0.00008 0.00000
0.02546 0.00000 0.00000
0.04425 0.00102 0.00034
0.07048 0.00207 0.00133
0.10966 0.00300 0.00078
0.16193 0.00546 0.00000
0.22633 0.00518 0.00000
0.29775 0.00377 0.00000
0.36989 0.00000 0.00000
0.44191 0.00000 0.00000
0.50642 0.00000 0.00000
0.57046 0.00000 0.00000
0.62508 0.00000 0.00000
0.68521 0.00000 0.00000
0.72601 0.00000 0.00000
0.76761 0.00000 0.00000
0.80499 0.00000 0.00000
0.83779 0.00000 0.00000
0.86826 0.00000 0.00000
0.89686 0.00000 0.00000
0.92289 0.00000 0.00000
0.94696 0.00000 0.00000
0.96643 0.00000 0.00000
0.98170 0.00000 0.00000
0.99059 0.00000 0.00000
0.99358 0.00000 0.00000
0.99506 0.00000 0.00000
0.99641 0.00000 0.00000
0.99786 0.00000 0.00000
1.00000 0.00000 0.00000
0.00000 0.00250 0.00000
0.00237 0.00347 0.00004
0.01085 0.00429 0.00048
0.02344 0.00469 0.00048
0.04245 0.00615 0.00172
0.06889 0.00721 0.00311
0.11148 0.00791 0.00265
0.16520 0.01162 0.00142
0.23026 0.01139 0.00000
0.30146 0.01081 0.00000
0.37312 0.00546 0.00000
0.44488 0.00126 0.00000
0.50949 0.00000 0.00000
0.57364 0.00000 0.00000
0.62713 0.00000 0.00000
0.68742 0.00000 0.00000
0.72848 0.00000 0.00000
0.76965 0.00000 0.00000
0.80678 0.00000 0.00000
0.83959 0.00000 0.00000
0.87009 0.00000 0.00000
0.89862 0.00000 0.00000
0.92457 0.00000 0.00000
0.94862 0.00000 0.00000
0.96795 0.00000 0.00000
0.98327 0.00000 0.00000
0.99174 0.00000 0.00000
0.99461 0.00000 0.00000
0.99603 0.00000 0.00000
0.99734 0.00000 0.00000
0.99873 0.00000 0.00000
1.00000 0.00000 0.00000
0.00000 0.00807 0.00000
0.00139 0.00916 0.00033
0.00963 0.01036 0.00108
0.02477 0.01249 0.00080
0.04250 0.01317 0.00257
0.06980 0.01451 0.00391
0.11464 0.01594 0.00366
0.17009 0.01830 0.00319
0.23493 0.02038 0.00050
0.30566 0.02006 0.00000
0.37665 0.01668 0.00000
0.44826 0.01222 0.00000
0.51311 0.00815 0.00000
0.57712 0.00015 0.00000
0.63028 0.00000 0.00000
0.68972 0.00000 0.00000
0.73116 0.00000 0.00000
0.77195 0.00000 0.00000
0.80884 0.00000 0.00000
0.84162 0.00000 0.00000
0.87222 0.00000 0.00000
0.90065 0.00000 0.00000
0.92652 0.00000 0.00000
0.95053 0.00000 0.00000
0.96973 0.00000 0.00000
0.98499 0.00000 0.00000
0.99310 0.00000 0.00000
0.99587 0.00000 0.00000
0.99723 0.00000 0.00000
0.99844 0.00000 0.00000
0.99977 0.00000 0.00000
1.00000 0.00000 0.00000
0.00000 0.01858 0.00000
0.00000 0.01988 0.00128
0.00794 0.02241 0.00205
0.02293 0.02435 0.00332
0.05047 0.02499 0.00308
0.07483 0.02937 0.00514
0.12211 0.03140 0.00524
0.17586 0.03551 0.00493
0.24078 0.03850 0.00286
0.31154 0.03821 0.00000
0.38174 0.03787 0.00000
0.45272 0.03330 0.00000
0.51838 0.02965 0.00000
0.58201 0.01952 0.00000
0.63473 0.02007 0.00000
0.69280 0.00000 0.00000
0.73494 0.00000 0.00000
0.77525 0.00000 0.00000
0.81183 0.00000 0.00000
0.84452 0.00000 0.00000
0.87531 0.00000 0.00000
0.90352 0.00000 0.00000
0.92944 0.00000 0.00000
0.95323 0.00000 0.00000
0.97233 0.00000 0.00000
0.98732 0.00000 0.00000
0.99522 0.00000 0.00000
0.99784 0.00000 0.00000
0.99904 0.00000 0.00000
1.00000 0.00000 0.00000
1.00000 0.00000 0.00000
1.00000 0.00000 0.00000
0.00000 0.03421 0.00119
0.00000 0.03509 0.00252
0.00339 0.03825 0.00338
0.01801 0.04023 0.00466
0.04602 0.04483 0.00587
0.08407 0.05043 0.00784
0.12833 0.05544 0.00760
0.18346 0.06095 0.00814
0.24680 0.06498 0.00615
0.31850 0.06456 0.00178
0.38835 0.06681 0.00000
0.45862 0.06544 0.00000
0.52515 0.06134 0.00000
0.58931 0.05168 0.00000
0.64070 0.05467 0.00000
0.69636 0.03551 0.00000
0.73955 0.03059 0.00000
0.77958 0.02402 0.00000
0.81601 0.01153 0.00000
0.84854 0.00000 0.00000
0.87947 0.00000 0.00000
0.90733 0.00000 0.00000
0.93341 0.00000 0.00000
0.95670 0.00000 0.00000
0.97615 0.00000 0.00000
0.99055 0.00000 0.00000
0.99820 0.00000 0.00000
1.00000 0.00000 0.00000
1.00000 0.00291 0.00000
1.00000 0.01620 0.00000
1.00000 0.02457 0.00000
1.00000 0.03438 0.00000
0.00000 0.05518 0.00407
0.00000 0.05646 0.00414
0.00000 0.06100 0.00450
0.01164 0.06619 0.00570
0.03476 0.07249 0.00727
0.07841 0.07760 0.00953
0.12973 0.08531 0.01190
0.18677 0.09356 0.01044
0.25277 0.09599 0.01038
0.32483 0.09969 0.00796
0.39593 0.10180 0.00008
0.46438 0.10047 0.00000
0.53135 0.09910 0.00000
0.59890 0.09067 0.00000
0.64708 0.09452 0.00000
0.69978 0.08474 0.00000
0.74484 0.08041 0.00000
0.78510 0.07373 0.00000
0.82113 0.06452 0.00000
0.85342 0.05618 0.00000
0.88393 0.04434 0.00000
0.91202 0.03812 0.00000
0.93813 0.03460 0.00000
0.96125 0.03115 0.00000
0.98141 0.02358 0.00000
0.99480 0.02839 0.00000
1.00000 0.03804 0.00000
1.00000 0.04921 0.00000
1.00000 0.05911 0.00000
1.00000 0.06729 0.00000
1.00000 0.07232 0.00000
1.00000 0.07888 0.00000
0.00000 0.08977 0.00485
0.00000 0.09045 0.00423
0.00000 0.09476 0.00387
0.00000 0.09951 0.00469
0.02348 0.10489 0.00726
0.06825 0.11156 0.00933
0.12209 0.11982 0.01160
0.18750 0.13013 0.01351
0.25551 0.13867 0.00862
0.32806 0.14251 0.00841
0.40014 0.14480 0.00531
0.47066 0.14433 0.00000
0.53466 0.14431 0.00000
0.60218 0.13924 0.00000
0.65303 0.14106 0.00000
0.70394 0.13459 0.00000
0.75019 0.12873 0.00000
0.79125 0.12358 0.00000
0.82684 0.11987 0.00000
0.85898 0.11632 0.00000
0.88913 0.11207 0.00000
0.91733 0.10864 0.00000
0.94401 0.10019 0.00000
0.96723 0.09447 0.00000
0.98689 0.09319 0.00000
0.99959 0.09870 0.00000
1.00000 0.10298 0.00000
1.00000 0.10625 0.00000
1.00000 0.10936 0.00000
1.00000 0.11236 0.00000
1.00000 0.11432 0.00000
1.00000 0.11774 0.00000
0.00000 0.13661 0.00000
0.00000 0.13727 0.00000
0.00000 0.14023 0.00000
0.00000 0.14506 0.00074
0.00000 0.14983 0.00309
0.04670 0.15490 0.00514
0.10975 0.16257 0.00632
0.17799 0.17244 0.00692
0.25252 0.18202 0.01008
0.32958 0.19151 0.00483
0.40081 0.19547 0.00440
0.47049 0.19687 0.00378
0.53738 0.19922 0.00000
0.60090 0.19629 0.00000
0.65981 0.19142 0.00000
0.70807 0.18759 0.00000
0.75469 0.18525 0.00000
0.79625 0.18287 0.00000
0.83196 0.18008 0.00000
0.86463 0.17359 0.00000
0.89490 0.16704 0.00000
0.92377 0.16165 0.00000
0.95008 0.15757 0.00000
0.97448 0.15365 0.00000
0.99275 0.15367 0.00000
1.00000 0.15573 0.00000
1.00000 0.15686 0.00000
1.00000 0.15678 0.00000
1.00000 0.15634 0.00000
1.00000 0.15642 0.00000
1.00000 0.15626 0.00000
1.00000 0.15769 0.00000
0.00000 0.18924 0.00000
0.00000 0.19041 0.00000
0.00000 0.19265 0.00000
0.00000 0.19658 0.00000
0.00000 0.20075 0.00000
0.00000 0.20603 0.00000
0.08119 0.21227 0.00000
0.16125 0.22101 0.00000
0.24048 0.23133 0.00306
0.32134 0.23947 0.00244
0.39905 0.24943 0.00000
0.46731 0.25421 0.00000
0.53583 0.25711 0.00000
0.59858 0.25780 0.00000
0.66304 0.25301 0.00000
0.71130 0.25085 0.00000
0.75845 0.24582 0.00000
0.80069 0.24038 0.00000
0.83683 0.23685 0.00000
0.86950 0.23111 0.00000
0.90018 0.22650 0.00000
0.92954 0.22291 0.00000
0.95599 0.21944 0.00000
0.98048 0.21602 0.00000
0.99910 0.21404 0.00000
1.00000 0.21266 0.00000
1.00000 0.21151 0.00000
1.00000 0.20905 0.00000
1.00000 0.20620 0.00000
1.00000 0.20408 0.00000
1.00000 0.20203 0.00000
1.00000 0.20142 0.00000
0.00000 0.24713 0.00000
0.00000 0.24859 0.00000
0.00000 0.25057 0.00000
0.00000 0.25372 0.00000
0.00000 0.25783 0.00000
0.00000 0.26286 0.00000
0.00000 0.26926 0.00000
0.12549 0.27659 0.00000
0.21814 0.28490 0.00000
0.30457 0.29276 0.00000
0.38684 0.29925 0.00000
0.46003 0.31088 0.00000
0.53113 0.31520 0.00000
0.59495 0.31867 0.00000
0.65706 0.31364 0.00000
0.71085 0.30990 0.00000
0.75915 0.30624 0.00000
0.80265 0.30325 0.00000
0.84010 0.29909 0.00000
0.87306 0.29457 0.00000
0.90431 0.28973 0.00000
0.93428 0.28467 0.00000
0.96242 0.27966 0.00000
0.98556 0.27596 0.00000
1.00000 0.27280 0.00000
1.00000 0.27110 0.00000
1.00000 0.26783 0.00000
1.00000 0.26264 0.00000
1.00000 0.25719 0.00000
1.00000 0.25271 0.00000
1.00000 0.24889 0.00000
1.00000 0.24648 0.00000
0.00000 0.30604 0.00000
0.00000 0.30739 0.00000
0.00000 0.30904 0.00000
0.00000 0.31147 0.00000
0.00000 0.31488 0.00000
0.00000 0.31921 0.00000
0.00000 0.32434 0.00000
0.05678 0.33042 0.00000
0.18232 0.33782 0.00000
0.27537 0.34507 0.00000
0.36519 0.35061 0.00000
0.44491 0.35891 0.00000
0.52172 0.36670 0.00000
0.58377 0.37159 0.00000
0.64937 0.37218 0.00000
0.70408 0.37086 0.00000
0.75601 0.36661 0.00000
0.80053 0.36402 0.00000
0.84142 0.36055 0.00000
0.87441 0.36032 0.00000
0.90595 0.36121 0.00000
0.93570 0.35574 0.00000
0.96429 0.34972 0.00000
0.98924 0.34371 0.00000
1.00000 0.33808 0.00000
1.00000 0.33315 0.00000
1.00000 0.32883 0.00000
1.00000 0.32472 0.00000
1.00000 0.32088 0.00000
1.00000 0.31746 0.00000
1.00000 0.31401 0.00000
1.00000 0.30923 0.00000
0.00000 0.36324 0.00000
0.00000 0.36430 0.00000
0.00000 0.36554 0.00000
0.00000 0.36737 0.00000
0.00000 0.36994 0.00000
0.00000 0.37334 0.00000
0.00000 0.37776 0.00000
0.00000 0.38316 0.00000
0.12656 0.38902 0.00000
0.24394 0.39574 0.00000
0.33967 0.40361 0.00000
0.42272 0.41046 0.00000
0.50555 0.41555 0.00000
0.57092 0.42441 0.00000
0.63926 0.43382 0.00000
0.69885 0.43089 0.00000
0.75030 0.42764 0.00000
0.79668 0.42286 0.00000
0.83939 0.41924 0.00000
0.87566 0.41414 0.00000
0.90853 0.41081 0.00000
0.93892 0.40812 0.00000
0.96432 0.40933 0.00000
0.98942 0.40917 0.00000
1.00000 0.40800 0.00000
1.00000 0.40427 0.00000
1.00000 0.39650 0.00000
1.00000 0.38460 0.00000
1.00000 0.37262 0.00000
1.00000 0.36447 0.00000
1.00000 0.35661 0.00000
1.00000 0.35091 0.00000
0.00000 0.41612 0.00000
0.00000 0.41734 0.00000
0.00000 0.41876 0.00000
0.00000 0.42087 0.00000
0.00000 0.42385 0.00000
0.00000 0.42759 0.00000
0.00000 0.43209 0.00000
0.00000 0.43690 0.00000
0.00292 0.44216 0.00000
0.20096 0.44848 0.00000
0.30550 0.45671 0.00000
0.39352 0.46665 0.00000
0.48529 0.46743 0.00000
0.55658 0.47328 0.00000
0.62964 0.47787 0.00000
0.68768 0.48840 0.00000
0.74053 0.49000 0.00000
0.78856 0.48863 0.00000
0.83208 0.48439 0.00000
0.87010 0.48171 0.00000
0.90426 0.47746 0.00000
0.93511 0.47394 0.00000
0.96243 0.47104 0.00000
0.98716 0.46885 0.00000
1.00000 0.46572 0.00000
1.00000 0.46086 0.00000
1.00000 0.45470 0.00000
1.00000 0.44718 0.00000
1.00000 0.43823 0.00000
1.00000 0.42882 0.00000
1.00000 0.42165 0.00000
1.00000 0.41649 0.00000
0.00000 0.46706 0.00000
0.00000 0.46800 0.00000
0.00000 0.46908 0.00000
0.00000 0.47086 0.00000
0.00000 0.47372 0.00000
0.00000 0.47952 0.00000
0.00000 0.48679 0.00000
0.00000 0.49060 0.00000
0.00000 0.49343 0.00000
0.12970 0.49634 0.00000
0.27008 0.50269 0.00000
0.37179 0.50983 0.00000
0.46455 0.52313 0.00000
0.53421 0.52680 0.00000
0.60923 0.52987 0.00000
0.67360 0.53521 0.00000
0.73089 0.53955 0.00000
0.77984 0.54138 0.00000
0.82239 0.54206 0.00000
0.86103 0.54131 0.00000
0.89600 0.53911 0.00000
0.92802 0.53575 0.00000
0.95697 0.53195 0.00000
0.98152 0.52956 0.00000
1.00000 0.52647 0.00000
1.00000 0.52249 0.00000
1.00000 0.51622 0.00000
1.00000 0.50845 0.00000
1.00000 0.49940 0.00000
1.00000 0.48887 0.00000
1.00000 0.47865 0.00000
1.00000 0.47028 0.00000
0.00000 0.51860 0.00000
0.00000 0.51947 0.00000
0.00000 0.52054 0.00000
0.00000 0.52203 0.00000
0.00000 0.52410 0.00000
0.00000 0.52682 0.00000
0.00000 0.53042 0.00000
0.00000 0.53731 0.00000
0.00000 0.54647 0.00000
0.00000 0.55061 0.00000
0.20480 0.55380 0.00000
0.32944 0.55866 0.00000
0.43781 0.56453 0.00000
0.51849 0.57099 0.00000
0.58972 0.57642 0.00000
0.65510 0.58179 0.00000
0.71424 0.58733 0.00000
0.76688 0.59083 0.00000
0.81109 0.59253 0.00000
0.84987 0.59360 0.00000
0.88619 0.59366 0.00000
0.91829 0.59203 0.00000
0.94777 0.59032 0.00000
0.97377 0.58620 0.00000
0.99768 0.58377 0.00000
1.00000 0.57919 0.00000
1.00000 0.57415 0.00000
1.00000 0.56697 0.00000
1.00000 0.55695 0.00000
1.00000 0.54654 0.00000
1.00000 0.53598 0.00000
1.00000 0.52700 0.00000
0.00000 0.56787 0.00000
0.00000 0.56837 0.00000
0.00000 0.56894 0.00000
0.00000 0.56978 0.00000
0.00000 0.57115 0.00000
0.00000 0.57402 0.00000
0.00000 0.57791 0.00000
0.00000 0.58235 0.00000
0.00000 0.58724 0.00000
0.00000 0.59221 0.00000
0.11420 0.59777 0.00000
0.28638 0.60301 0.00000
0.40496 0.60843 0.00000
0.50073 0.61394 0.00000
0.56935 0.61960 0.00000
0.63590 0.62431 0.00000
0.69581 0.62881 0.00000
0.75158 0.63278 0.00000
0.79816 0.63631 0.00000
0.83891 0.63888 0.00000
0.87576 0.64027 0.00000
0.90817 0.64143 0.00000
0.93810 0.64090 0.00000
0.96435 0.64044 0.00000
0.98998 0.63657 0.00000
1.00000 0.63275 0.00000
1.00000 0.62849 0.00000
1.00000 0.62098 0.00000
1.00000 0.61196 0.00000
1.00000 0.60061 0.00000
1.00000 0.58956 0.00000
1.00000 0.58097 0.00000
0.00000 0.61070 0.00000
0.00000 0.61141 0.00000
0.00000 0.61224 0.00000
0.00000 0.61343 0.00000
0.00000 0.61524 0.00000
0.00000 0.61780 0.00000
0.00000 0.62098 0.00000
0.00000 0.62470 0.00000
0.00000 0.62891 0.00000
0.00000 0.63342 0.00000
0.00000 0.63857 0.00000
0.22035 0.64346 0.00000
0.36184 0.64838 0.00000
0.47228 0.65311 0.00000
0.54678 0.65848 0.00000
0.61708 0.66275 0.00000
0.67789 0.66669 0.00000
0.73483 0.67006 0.00000
0.78394 0.67372 0.00000
0.82637 0.67706 0.00000
0.86491 0.67986 0.00000
0.89870 0.68176 0.00000
0.92862 0.68317 0.00000
0.95571 0.68367 0.00000
0.98190 0.68261 0.00000
1.00000 0.67902 0.00000
1.00000 0.67448 0.00000
1.00000 0.66934 0.00000
1.00000 0.65970 0.00000
1.00000 0.65038 0.00000
1.00000 0.64087 0.00000
1.00000 0.63248 0.00000
0.00000 0.65098 0.00000
0.00000 0.65162 0.00000
0.00000 0.65238 0.00000
0.00000 0.65352 0.00000
0.00000 0.65516 0.00000
0.00000 0.65736 0.00000
0.00000 0.65999 0.00000
0.00000 0.66325 0.00000
0.00000 0.66680 0.00000
0.00000 0.67082 0.00000
0.00000 0.67535 0.00000
0.12840 0.68034 0.00000
0.31099 0.68548 0.00000
0.43449 0.69029 0.00000
0.51952 0.69520 0.00000
0.59730 0.69858 0.00000
0.66139 0.70118 0.00000
0.71866 0.70326 0.00000
0.76838 0.70673 0.00000
0.81269 0.71075 0.00000
0.85270 0.71425 0.00000
0.88813 0.71739 0.00000
0.91895 0.71994 0.00000
0.94684 0.72134 0.00000
0.97322 0.72032 0.00000
0.99744 0.71896 0.00000
1.00000 0.71633 0.00000
1.00000 0.71029 0.00000
1.00000 0.70294 0.00000
1.00000 0.69392 0.00000
1.00000 0.68559 0.00000
1.00000 0.67891 0.00000
0.00000 0.68712 0.00000
0.00000 0.68769 0.00000
0.00000 0.68839 0.00000
0.00000 0.68943 0.00000
0.00000 0.69088 0.00000
0.00000 0.69273 0.00000
0.00000 0.69508 0.00000
0.00000 0.69808 0.00000
0.00000 0.70151 0.00000
0.00000 0.70566 0.00000
0.00000 0.71001 0.00000
0.00000 0.71476 0.00000
0.24830 0.71920 0.00000
0.39166 0.72321 0.00000
0.48777 0.72775 0.00000
0.57402 0.73086 0.00000
0.64311 0.73324 0.00000
0.70337 0.73500 0.00000
0.75389 0.73780 0.00000
0.79790 0.74199 0.00000
0.83872 0.74557 0.00000
0.87568 0.74864 0.00000
0.90764 0.75124 0.00000
0.93660 0.75252 0.00000
0.96415 0.75358 0.00000
0.98894 0.75356 0.00000
1.00000 0.75166 0.00000
1.00000 0.74857 0.00000
1.00000 0.74103 0.00000
1.00000 0.73318 0.00000
1.00000 0.72528 0.00000
1.00000 0.71912 0.00000
0.00000 0.72100 0.00000
0.00000 0.72152 0.00000
0.00000 0.72211 0.00000
0.00000 0.72300 0.00000
0.00000 0.72422 0.00000
0.00000 0.72581 0.00000
0.00000 0.72786 0.00000
0.00000 0.73036 0.00000
0.00000 0.73321 0.00000
0.00000 0.73681 0.00000
0.00000 0.74063 0.00000
0.00000 0.74492 0.00000
0.17080 0.74876 0.00000
0.34418 0.75214 0.00000
0.45245 0.75584 0.00000
0.54689 0.75932 0.00000
0.62233 0.76261 0.00000
0.68713 0.76472 0.00000
0.73973 0.76661 0.00000
0.78406 0.76961 0.00000
0.82434 0.77307 0.00000
0.86222 0.77572 0.00000
0.89582 0.77834 0.00000
0.92641 0.78046 0.00000
0.95570 0.78223 0.00000
0.98087 0.78306 0.00000
1.00000 0.78227 0.00000
1.00000 0.77919 0.00000
1.00000 0.77603 0.00000
1.00000 0.76810 0.00000
1.00000 0.76107 0.00000
1.00000 0.75397 0.00000
0.00000 0.75091 0.00000
0.00000 0.75137 0.00000
0.00000 0.75190 0.00000
0.00000 0.75265 0.00000
0.00000 0.75369 0.00000
0.00000 0.75513 0.00000
0.00000 0.75700 0.00000
0.00000 0.75924 0.00000
0.00000 0.76181 0.00000
0.00000 0.76512 0.00000
0.00000 0.76836 0.00000
0.00000 0.77175 0.00000
0.01426 0.77483 0.00000
0.29386 0.77815 0.00000
0.41409 0.78164 0.00000
0.51739 0.78459 0.00000
0.59931 0.78812 0.00000
0.66891 0.79113 0.00000
0.72444 0.79319 0.00000
0.77039 0.79531 0.00000
0.81132 0.79707 0.00000
0.84965 0.79906 0.00000
0.88390 0.80136 0.00000
0.91582 0.80383 0.00000
0.94598 0.80649 0.00000
0.97199 0.80836 0.00000
0.99080 0.80812 0.00000
1.00000 0.80618 0.00000
1.00000 0.80294 0.00000
1.00000 0.79883 0.00000
1.00000 0.79114 0.00000
1.00000 0.78555 0.00000
0.00000 0.77850 0.00000
0.00000 0.77888 0.00000
0.00000 0.77931 0.00000
0.00000 0.77993 0.00000
0.00000 0.78079 0.00000
0.00000 0.78193 0.00000
0.00000 0.78345 0.00000
0.00000 0.78536 0.00000
0.00000 0.78766 0.00000
0.00000 0.79103 0.00000
0.00000 0.79418 0.00000
0.00000 0.79720 0.00000
0.00000 0.79969 0.00000
0.23983 0.80215 0.00000
0.37425 0.80607 0.00000
0.48441 0.80921 0.00000
0.57256 0.81219 0.00000
0.64803 0.81462 0.00000
0.70869 0.81661 0.00000
0.75799 0.81815 0.00000
0.79976 0.81968 0.00000
0.83776 0.82116 0.00000
0.87183 0.82335 0.00000
0.90410 0.82607 0.00000
0.93484 0.82876 0.00000
0.96135 0.83092 0.00000
0.98281 0.83178 0.00000
0.99627 0.83099 0.00000
1.00000 0.82888 0.00000
1.00000 0.82479 0.00000
1.00000 0.82017 0.00000
1.00000 0.81359 0.00000
0.00000 0.80366 0.00000
0.00000 0.80400 0.00000
0.00000 0.80439 0.00000
0.00000 0.80495 0.00000
0.00000 0.80569 0.00000
0.00000 0.80664 0.00000
0.00000 0.80780 0.00000
0.00000 0.80927 0.00000
0.00000 0.81102 0.00000
0.00000 0.81335 0.00000
0.00000 0.81628 0.00000
0.00000 0.81988 0.00000
0.00000 0.82294 0.00000
0.15625 0.82554 0.00000
0.33068 0.82867 0.00000
0.45095 0.83143 0.00000
0.54605 0.83401 0.00000
0.62634 0.83639 0.00000
0.69119 0.83858 0.00000
0.74395 0.84033 0.00000
0.78746 0.84172 0.00000
0.82639 0.84302 0.00000
0.85989 0.84473 0.00000
0.89221 0.84702 0.00000
0.92329 0.84935 0.00000
0.95076 0.85134 0.00000
0.97376 0.85268 0.00000
0.98920 0.85290 0.00000
0.99726 0.85157 0.00000
1.00000 0.84907 0.00000
1.00000 0.84445 0.00000
1.00000 0.84047 0.00000
0.00000 0.82461 0.00000
0.00000 0.82493 0.00000
0.00000 0.82531 0.00000
0.00000 0.82585 0.00000
0.00000 0.82659 0.00000
0.00000 0.82756 0.00000
0.00000 0.82880 0.00000
0.00000 0.83049 0.00000
0.00000 0.83253 0.00000
0.00000 0.83491 0.00000
0.00000 0.83759 0.00000
0.00000 0.84074 0.00000
0.00000 0.84357 0.00000
0.00000 0.84628 0.00000
0.28305 0.84918 0.00000
0.41732 0.85207 0.00000
0.51829 0.85468 0.00000
0.60279 0.85697 0.00000
0.67142 0.85912 0.00000
0.72804 0.86091 0.03619
0.77435 0.86246 0.05595
0.81506 0.86354 0.01174
0.84871 0.86507 0.00000
0.88046 0.86688 0.00000
0.91079 0.86885 0.00000
0.93839 0.87118 0.00000
0.96288 0.87269 0.00000
0.98089 0.87314 0.00000
0.99179 0.87311 0.00000
0.99684 0.87170 0.00000
0.99739 0.86833 0.00000
0.99846 0.86506 0.00000
0.00000 0.84540 0.00000
0.00000 0.84569 0.00000
0.00000 0.84603 0.00000
0.00000 0.84653 0.00000
0.00000 0.84719 0.00000
0.00000 0.84804 0.00000
0.00000 0.84914 0.00000
0.00000 0.85050 0.00000
0.00000 0.85231 0.00000
0.00000 0.85445 0.00000
0.00000 0.85678 0.00000
0.00000 0.85938 0.00000
0.00000 0.86202 0.00000
0.00000 0.86501 0.00000
0.22277 0.86803 0.00000
0.38052 0.87084 0.00000
0.48945 0.87354 0.00000
0.57889 0.87585 0.00000
0.65059 0.87782 0.00000
0.71010 0.87981 0.01151
0.75986 0.88181 0.09532
0.80304 0.88352 0.11288
0.83818 0.88525 0.09427
0.87052 0.88673 0.01642
0.90067 0.88838 0.00000
0.92771 0.89033 0.00000
0.95253 0.89197 0.00000
0.97176 0.89347 0.00000
0.98660 0.89472 0.00000
0.99394 0.89369 0.00000
0.99564 0.89085 0.00000
0.99583 0.88767 0.00000
0.00000 0.86448 0.00000
0.00000 0.86476 0.00000
0.00000 0.86507 0.00000
0.00000 0.86550 0.00000
0.00000 0.86607 0.00000
0.00000 0.86685 0.00000
0.00000 0.86781 0.00000
0.00000 0.86896 0.00000
0.00000 0.87055 0.00000
0.00000 0.87250 0.00000
0.00000 0.87465 0.00000
0.00000 0.87712 0.00000
0.00000 0.87963 0.00000
0.00000 0.88244 0.00000
0.13378 0.88532 0.00000
0.33857 0.88813 0.00000
0.45840 0.89064 0.00000
0.55371 0.89316 0.00000
0.62924 0.89578 0.00000
0.69141 0.89830 0.00000
0.74458 0.90038 0.11429
0.79059 0.90204 0.16358
0.82725 0.90394 0.16817
0.86025 0.90569 0.13281
0.88965 0.90769 0.05325
0.91649 0.90973 0.00000
0.94077 0.91152 0.00000
0.95870 0.91312 0.00000
0.97195 0.91400 0.00000
0.98128 0.91329 0.00000
0.98528 0.91110 0.00000
0.98643 0.90846 0.00000
0.00000 0.88165 0.00000
0.00000 0.88192 0.00000
0.00000 0.88222 0.00000
0.00000 0.88264 0.00000
0.00000 0.88321 0.00000
0.00000 0.88391 0.00000
0.00000 0.88477 0.00000
0.00000 0.88584 0.00000
0.00000 0.88741 0.00000
0.00000 0.88915 0.00000
0.00000 0.89107 0.00000
0.00000 0.89352 0.00000
0.00000 0.89583 0.00000
0.00000 0.89869 0.00000
0.00000 0.90131 0.00000
0.30086 0.90423 0.00000
0.43202 0.90722 0.00000
0.52991 0.91012 0.00000
0.60699 0.91270 0.00000
0.67188 0.91480 0.00000
0.72659 0.91693 0.11631
0.77277 0.91905 0.17041
0.80937 0.92124 0.17356
0.84256 0.92312 0.15521
0.87238 0.92513 0.12624
0.89763 0.92751 0.09161
0.91912 0.92957 0.05172
0.93623 0.93081 0.00488
0.94905 0.93120 0.00000
0.95849 0.93048 0.00000
0.96473 0.92859 0.06101
0.97006 0.92575 0.08023
0.00000 0.89761 0.00000
0.00000 0.89783 0.00000
0.00000 0.89809 0.00000
0.00000 0.89846 0.00000
0.00000 0.89897 0.00000
0.00000 0.89963 0.00000
0.00000 0.90061 0.00000
0.00000 0.90188 0.00000
0.00000 0.90342 0.00000
0.00000 0.90523 0.00000
0.00000 0.90730 0.00000
0.00000 0.90928 0.00000
0.00000 0.91186 0.00000
0.00000 0.91433 0.00000
0.17092 0.91698 0.00000
0.34009 0.91962 0.00000
0.44512 0.92206 0.00000
0.53087 0.92421 0.00000
0.60054 0.92654 0.00000
0.65822 0.92907 0.08648
0.70768 0.93146 0.14579
0.75149 0.93350 0.16982
0.78751 0.93623 0.17700
0.81910 0.93898 0.17588
0.84760 0.94108 0.17179
0.87149 0.94366 0.16686
0.89179 0.94517 0.16474
0.90957 0.94535 0.16723
0.92357 0.94509 0.17502
0.93422 0.94405 0.18751
0.94327 0.94202 0.20032
0.95119 0.93920 0.21606
0.00000 0.91442 0.00000
0.00000 0.91466 0.00000
0.00000 0.91493 0.00000
0.00000 0.91534 0.00000
