fuji-film/cube-lut/srgb/srgb-eterna.cube
LUT_3D_SIZE 8
DOMAIN_MIN 0.000000 0.000000 0.000000
DOMAIN_MAX 0.903226 0.903226 0.903226
0.00000 0.00000 0.00000
0.12366 0.00928 0.00640
0.28427 0.00756 0.00000
0.47760 0.00000 0.00000
0.66410 0.00000 0.00000
0.81145 0.00000 0.00000
0.92604 0.00000 0.00000
0.98506 0.00000 0.17016
0.00000 0.11258 0.00949
0.11410 0.12327 0.01306
0.28744 0.11406 0.00020
0.48732 0.09227 0.00000
0.67047 0.04210 0.00000
0.81700 0.00000 0.00000
0.93022 0.00000 0.00000
0.98642 0.02011 0.17885
0.00000 0.25901 0.00000
0.00207 0.26610 0.01049
0.26435 0.27504 0.00995
0.49189 0.27991 0.00000
0.68341 0.25365 0.00000
0.83459 0.20473 0.00000
0.94404 0.13609 0.03634
0.99223 0.13432 0.18681
0.00000 0.44734 0.00000
0.00000 0.45022 0.00000
0.15902 0.46032 0.00000
0.45105 0.47420 0.00000
0.67151 0.47843 0.00000
0.83168 0.45055 0.00000
0.94831 0.40654 0.00000
0.99477 0.36418 0.15182
0.00000 0.63154 0.00000
0.00000 0.63506 0.00000
0.00000 0.64348 0.00000
0.37140 0.65109 0.00000
0.62596 0.65942 0.00000
0.79417 0.66670 0.00000
0.91410 0.64699 0.00000
0.97639 0.60715 0.00000
0.00000 0.77295 0.00000
0.00000 0.77486 0.00000
0.00000 0.77853 0.00000
0.24263 0.78244 0.00000
0.57110 0.78772 0.00000
0.75419 0.78893 0.00000
0.88375 0.79249 0.00000
0.95679 0.77560 0.00000
0.00000 0.86831 0.00000
0.00000 0.86942 0.00000
0.00000 0.87211 0.00000
0.00000 0.87630 0.00903
0.50639 0.88246 0.00000
0.70914 0.88730 0.03735
0.84687 0.88631 0.04238
0.93625 0.88536 0.00000
0.00000 0.93888 0.16958
0.00000 0.93970 0.17317
0.00000 0.94263 0.18305
0.00305 0.94665 0.19566
0.46979 0.95178 0.19989
0.65973 0.95709 0.21980
0.79101 0.95918 0.26734
0.87115 0.95462 0.31006
0.01009 0.01515 0.13130
0.14439 0.03218 0.14574
0.29467 0.04785 0.14843
0.48461 0.04590 0.14553
0.67181 0.02050 0.10094
0.81772 0.00000 0.07441
0.93173 0.00000 0.04878
0.98705 0.02913 0.19743
0.00000 0.13194 0.12588
0.14094 0.14161 0.14029
0.29249 0.15537 0.15766
0.49178 0.15626 0.15450
0.67753 0.08734 0.09429
0.82177 0.00000 0.08251
0.93532 0.00000 0.07149
0.98800 0.03417 0.20406
0.00000 0.27268 0.13333
0.09263 0.27865 0.14439
0.28395 0.29097 0.15909
0.49136 0.30549 0.15652
0.68606 0.28304 0.10421
0.83947 0.22441 0.06467
0.94865 0.14766 0.09118
0.99346 0.13995 0.20685
0.00000 0.46058 0.13505
0.00000 0.46550 0.14077
0.22212 0.47135 0.15225
0.47220 0.48658 0.16253
0.67374 0.49728 0.11519
0.83063 0.47085 0.00000
0.94959 0.42197 0.00000
0.99694 0.37300 0.16398
0.00000 0.63950 0.11184
0.00000 0.64283 0.11784
0.00000 0.64978 0.12701
0.40903 0.65719 0.17125
0.64077 0.66496 0.16452
0.79781 0.67513 0.03175
0.91365 0.65586 0.00000
0.97633 0.61547 0.00394
0.00000 0.77433 0.12950
0.00000 0.77608 0.10887
0.00000 0.77947 0.12372
0.30583 0.78305 0.14631
0.60136 0.78864 0.21844
0.76168 0.79088 0.15947
0.88567 0.79646 0.00000
0.95648 0.77967 0.00000
0.00000 0.86837 0.14313
0.00000 0.86892 0.13427
0.00000 0.87171 0.15005
0.12381 0.87656 0.17803
0.53222 0.88270 0.18955
0.72592 0.88713 0.25059
0.85140 0.88726 0.19704
0.93669 0.88699 0.00000
0.00000 0.93910 0.23737
0.00000 0.94010 0.23931
0.00000 0.94312 0.24368
0.14122 0.94726 0.25122
0.48481 0.95248 0.26789
0.66665 0.95800 0.28234
0.79392 0.96044 0.31108
0.87281 0.95611 0.34243
0.02295 0.03099 0.29215
0.14917 0.04853 0.30612
0.32039 0.07688 0.32516
0.51461 0.09769 0.33347
0.69051 0.10848 0.34102
0.83799 0.07742 0.31930
0.95060 0.00000 0.25022
0.99163 0.08960 0.23596
0.08409 0.16780 0.28729
0.18068 0.17665 0.29757
0.32058 0.18957 0.31110
0.50554 0.20715 0.33603
0.69215 0.21964 0.35354
0.84148 0.20208 0.33738
0.95161 0.11521 0.23442
0.99249 0.11358 0.23376
0.00000 0.29905 0.28728
0.13817 0.30308 0.29764
0.31448 0.31401 0.31403
0.51463 0.32731 0.33761
0.69584 0.34965 0.35230
0.84253 0.35941 0.34365
0.95543 0.28818 0.24663
0.99634 0.22507 0.22433
0.00000 0.47860 0.29121
0.00000 0.48256 0.30042
0.25444 0.49270 0.31714
0.49656 0.50634 0.33157
0.68411 0.52308 0.34975
0.82700 0.52634 0.32816
0.93962 0.51193 0.28647
0.99724 0.43332 0.19677
0.00000 0.64969 0.30504
0.00000 0.65371 0.31257
0.11525 0.65859 0.32855
0.46374 0.66598 0.35724
0.66384 0.67627 0.37196
0.80111 0.68866 0.36672
0.91349 0.68102 0.28566
0.97623 0.65273 0.23236
0.00000 0.77599 0.34043
0.00000 0.77783 0.34337
0.00000 0.78101 0.35407
0.40446 0.78519 0.37261
0.64305 0.79076 0.41608
0.78215 0.79663 0.38387
0.88918 0.80406 0.33744
0.96047 0.79317 0.26863
0.00000 0.86907 0.37078
0.00000 0.87011 0.37102
0.00000 0.87264 0.37261
0.31539 0.87701 0.38212
0.58795 0.88267 0.41060
0.75582 0.88734 0.45564
0.86372 0.88984 0.37274
0.94026 0.89123 0.30787
0.00000 0.94014 0.36172
0.00000 0.94138 0.36370
0.00000 0.94414 0.36879
0.26439 0.94869 0.37651
0.51890 0.95421 0.38545
0.68200 0.95994 0.39354
0.80000 0.96323 0.40310
0.87568 0.95950 0.42429
0.05015 0.06050 0.49980
0.16053 0.06673 0.51312
0.32477 0.07518 0.53554
0.54555 0.11218 0.56054
0.72298 0.14962 0.55985
0.85579 0.15085 0.54519
0.96137 0.14522 0.52379
1.00000 0.19349 0.46500
0.08238 0.17843 0.49340
0.19613 0.19361 0.50519
0.35110 0.21001 0.52208
0.55046 0.24352 0.54462
0.72125 0.25763 0.55392
0.85553 0.26316 0.55344
0.96200 0.25119 0.54160
1.00000 0.26054 0.49119
0.11103 0.34076 0.49321
0.20757 0.34576 0.50029
0.36637 0.35331 0.51515
0.54407 0.37278 0.53559
0.71653 0.39286 0.54947
0.84950 0.41025 0.56237
0.95554 0.41721 0.56338
1.00000 0.42049 0.52724
0.00000 0.50731 0.48815
0.02651 0.51050 0.49541
0.31710 0.51626 0.51039
0.52843 0.52798 0.52771
0.70305 0.53908 0.54217
0.83657 0.54718 0.54860
0.93888 0.56449 0.54949
0.99506 0.56827 0.51824
0.00000 0.66133 0.48652
0.00000 0.66367 0.49404
0.23249 0.66913 0.50841
0.48975 0.67579 0.52952
0.67748 0.68331 0.54477
0.81134 0.69206 0.55230
0.91729 0.69707 0.54320
0.98309 0.70295 0.52644
0.00000 0.77966 0.49754
0.00000 0.78103 0.50472
0.13620 0.78420 0.52080
0.46098 0.78854 0.54132
0.65737 0.79477 0.56204
0.79317 0.80197 0.56655
0.89611 0.80905 0.56971
0.96719 0.80769 0.55731
0.00000 0.86914 0.52426
0.00000 0.87022 0.53106
0.00000 0.87342 0.54605
0.42952 0.87798 0.56181
0.63237 0.88356 0.58112
0.77584 0.88918 0.59738
0.87788 0.89490 0.56450
0.94682 0.89697 0.57057
0.00000 0.94233 0.50340
0.00000 0.94326 0.50589
0.00529 0.94591 0.51168
0.37985 0.95027 0.52036
0.56309 0.95640 0.52820
0.70300 0.96241 0.53086
0.80886 0.96683 0.53385
0.88059 0.96411 0.54365
0.03465 0.09395 0.69025
0.15898 0.09881 0.70580
0.32370 0.10204 0.72833
0.53860 0.11128 0.75641
0.73902 0.16671 0.77174
0.87615 0.21817 0.76204
0.96932 0.21769 0.74267
1.00000 0.24734 0.69699
0.06577 0.19173 0.68386
0.18319 0.19517 0.69553
0.35190 0.21006 0.71668
0.55890 0.23859 0.74030
0.74336 0.28834 0.75314
0.86886 0.32446 0.74839
0.96568 0.30491 0.74181
1.00000 0.32524 0.70898
0.16480 0.38791 0.67671
0.27126 0.40359 0.68582
0.41656 0.41137 0.69952
0.57988 0.42424 0.71054
0.73727 0.44236 0.71977
0.85615 0.46265 0.72620
0.95535 0.45830 0.73573
1.00000 0.48001 0.71995
0.04605 0.54026 0.66205
0.21284 0.54321 0.66757
0.37614 0.55194 0.67948
0.55857 0.56111 0.69335
0.71732 0.57205 0.70408
0.84127 0.58590 0.71414
0.94046 0.59875 0.72175
0.99456 0.62110 0.71749
0.00000 0.67893 0.64568
0.00000 0.68038 0.65186
0.31635 0.68422 0.66569
0.52609 0.68893 0.68188
0.69558 0.69527 0.69480
0.82184 0.70205 0.70469
0.92456 0.70767 0.70957
0.98715 0.71917 0.70895
0.00000 0.78722 0.64031
0.00000 0.78838 0.64640
0.25505 0.79105 0.65911
0.49508 0.79440 0.67617
0.66849 0.80115 0.69238
0.80109 0.80654 0.70325
0.90561 0.80974 0.71075
0.97104 0.81290 0.71948
0.00000 0.87245 0.64636
0.00000 0.87360 0.65235
0.19881 0.87627 0.66554
0.46667 0.88101 0.68484
0.64843 0.88691 0.70120
0.78243 0.89252 0.70973
0.88604 0.89779 0.70910
0.95070 0.89985 0.72169
0.00000 0.94481 0.62905
0.00000 0.94612 0.63188
0.28535 0.94860 0.63836
0.45546 0.95286 0.64699
0.60224 0.95870 0.65572
0.72286 0.96508 0.66329
0.82038 0.96969 0.66955
0.88940 0.96812 0.67437
0.04301 0.13323 0.83784
0.15601 0.13201 0.84736
0.33491 0.12985 0.86879
0.54362 0.13335 0.89471
0.73402 0.14841 0.91408
0.87729 0.22245 0.91846
0.97570 0.29985 0.89768
1.00000 0.30964 0.85961
0.01703 0.21764 0.82859
0.18038 0.21663 0.83782
0.35123 0.21910 0.85713
0.55740 0.23573 0.88133
0.74243 0.26417 0.89664
0.87765 0.32529 0.89887
0.97176 0.37938 0.88445
1.00000 0.36619 0.85748
0.13453 0.39774 0.81075
0.25889 0.40642 0.81797
0.42070 0.42849 0.83249
0.59751 0.43528 0.84831
0.74934 0.46130 0.85153
0.86900 0.49305 0.85622
0.95917 0.52371 0.85641
1.00000 0.49638 0.84844
0.24337 0.58846 0.79318
0.32514 0.59378 0.79761
0.45406 0.60044 0.80608
0.60167 0.60367 0.81444
0.73700 0.61322 0.82013
0.85014 0.62764 0.82997
0.94421 0.64113 0.83651
0.99432 0.64172 0.83499
0.12722 0.69631 0.77306
0.24023 0.69823 0.77744
0.40004 0.70248 0.78686
0.56866 0.70730 0.79982
0.71302 0.71375 0.81326
0.83129 0.72200 0.82315
0.92952 0.73314 0.82647
0.98740 0.74370 0.82716
0.00000 0.79896 0.76055
0.10801 0.80024 0.76540
0.34611 0.80238 0.77584
0.53289 0.80573 0.79027
0.68923 0.80978 0.80408
0.81497 0.81480 0.81437
0.91689 0.81836 0.82169
0.98393 0.82124 0.82542
0.00000 0.87759 0.75130
0.00000 0.87882 0.75615
0.31320 0.88217 0.76728
0.50924 0.88708 0.78272
0.66401 0.89218 0.79725
0.79161 0.89676 0.80827
0.89348 0.89985 0.81540
0.96053 0.90074 0.82079
0.23537 0.94763 0.73214
0.29274 0.94846 0.73469
0.39495 0.95087 0.74109
0.51587 0.95526 0.75068
0.63662 0.96053 0.76243
0.74565 0.96662 0.77388
0.83645 0.97126 0.78392
0.90623 0.97065 0.78965
0.07607 0.16916 0.94519
0.15599 0.16967 0.95375
0.33246 0.16539 0.97344
0.53279 0.15902 0.99356
0.71924 0.16007 1.00000
0.86293 0.19159 1.00000
0.97158 0.26229 0.99943
1.00000 0.37001 0.98036
0.07044 0.24293 0.93463
0.17510 0.24306 0.94324
0.34561 0.24300 0.96312
0.54551 0.24689 0.98542
0.72814 0.25423 0.99387
0.86579 0.29654 0.99240
0.97106 0.35399 0.99051
1.00000 0.42857 0.97158
0.07801 0.39423 0.91347
0.21013 0.39680 0.92152
0.38571 0.41118 0.93884
0.57756 0.41841 0.95692
0.74667 0.44988 0.96402
0.86586 0.49302 0.96482
0.96396 0.52682 0.96713
1.00000 0.56247 0.94643
0.29671 0.60918 0.88847
0.37909 0.61983 0.89312
0.50911 0.63404 0.90396
0.63795 0.63309 0.91898
0.75352 0.63659 0.92861
0.85658 0.66696 0.93167
0.94835 0.68126 0.93669
0.99641 0.68813 0.92381
0.32943 0.72292 0.87198
0.38542 0.72516 0.87624
0.49165 0.72823 0.88495
0.61729 0.73197 0.89602
0.73618 0.74216 0.90639
0.84289 0.75661 0.91515
0.93023 0.76942 0.91810
0.98815 0.77390 0.91529
0.26071 0.80410 0.85504
0.32269 0.80552 0.85913
0.44704 0.80857 0.86892
0.58760 0.81332 0.88226
0.71940 0.81976 0.89541
0.82811 0.82537 0.90643
0.91755 0.83217 0.91219
0.98587 0.84033 0.91179
0.22380 0.88488 0.84588
0.29778 0.88594 0.84951
0.42294 0.88804 0.85761
0.56171 0.89094 0.86923
0.69118 0.89486 0.88216
0.80596 0.90017 0.89395
0.90459 0.90469 0.90419
0.97614 0.90698 0.90917
0.38954 0.94829 0.81746
0.42235 0.94926 0.82011
0.48600 0.95188 0.82685
0.57735 0.95578 0.83763
0.67803 0.96099 0.85127
0.77734 0.96687 0.86604
0.86517 0.97100 0.88074
0.93347 0.97221 0.89132
0.00000 0.20558 0.98823
0.16331 0.20325 0.99338
0.32314 0.20332 1.00000
0.52178 0.20447 1.00000
0.70438 0.19708 1.00000
0.84355 0.22385 1.00000
0.95701 0.24372 1.00000
1.00000 0.35910 1.00000
0.09757 0.27089 0.98182
0.18270 0.27045 0.98947
0.33718 0.27303 0.99848
0.53354 0.26894 1.00000
0.70960 0.28066 1.00000
0.84739 0.29756 1.00000
0.95790 0.32491 1.00000
1.00000 0.42015 1.00000
0.12824 0.40502 0.96445
0.21453 0.40771 0.97135
0.37261 0.41599 0.98549
0.55848 0.42531 0.99842
0.72359 0.43835 1.00000
0.85099 0.46812 1.00000
0.95329 0.50985 1.00000
0.99927 0.55474 1.00000
0.30626 0.60801 0.94074
0.38172 0.61696 0.94701
0.51935 0.63566 0.96213
0.64634 0.64327 0.98244
0.75245 0.64731 0.99505
0.85235 0.66466 0.99774
0.94067 0.70685 0.99799
0.98834 0.70682 0.99234
0.44941 0.75361 0.93399
0.49326 0.75791 0.93986
0.57757 0.76472 0.95205
0.67185 0.76781 0.96775
0.76131 0.76888 0.98046
0.84974 0.78241 0.98672
0.92991 0.80521 0.98758
0.98065 0.80742 0.98381
0.43713 0.81544 0.92132
0.47443 0.81620 0.92562
0.54849 0.81896 0.93564
0.64229 0.82447 0.94803
0.74053 0.83230 0.96034
0.83521 0.84818 0.97043
0.91667 0.86428 0.97676
0.98269 0.86697 0.97878
0.42147 0.88283 0.89970
0.45590 0.88398 0.90324
0.52592 0.88696 0.91115
0.62038 0.89239 0.92341
0.72147 0.90034 0.93762
0.81847 0.90971 0.95270
0.90515 0.91722 0.96631
0.98242 0.91660 0.97722
0.50378 0.94647 0.88094
0.52354 0.94755 0.88358
0.56743 0.95024 0.89012
0.63547 0.95440 0.90125
0.71661 0.96022 0.91636
0.80271 0.96659 0.93406
0.88865 0.97036 0.95398
0.96986 0.96993 0.96990
