fuji-film/cube-lut/srgb/srgb-pro-neg-hi.cube
LUT_3D_SIZE 5
DOMAIN_MIN 0.000000 0.000000 0.000000
DOMAIN_MAX 0.903226 0.903226 0.903226
0.00000 0.00000 0.00000
0.13806 0.00245 0.00000
0.58907 0.00000 0.00000
0.90741 0.00000 0.00000
1.00000 0.00000 0.00000
0.00000 0.15197 0.00000
0.17848 0.18536 0.00000
0.64593 0.17152 0.00000
0.94302 0.08021 0.00000
1.00000 0.00000 0.00000
0.00000 0.56380 0.00000
0.00000 0.57178 0.00000
0.58003 0.58555 0.00000
0.94044 0.57589 0.00000
1.00000 0.52565 0.00000
0.00000 0.83403 0.00000
0.00000 0.83807 0.00000
0.38459 0.84191 0.00000
0.84740 0.84180 0.00000
1.00000 0.83697 0.00000
0.00000 0.98369 0.00000
0.00000 0.98632 0.00000
0.27935 0.99452 0.00000
0.71640 1.00000 0.09934
0.87548 1.00000 0.21085
0.00395 0.00365 0.16421
0.20879 0.02111 0.23404
0.61780 0.01833 0.32109
0.90925 0.00000 0.40723
1.00000 0.00000 0.35587
0.00000 0.20687 0.19599
0.22852 0.22852 0.22867
0.63508 0.26401 0.30701
0.93849 0.25124 0.35246
1.00000 0.10005 0.24596
0.00000 0.57604 0.14730
0.00000 0.58395 0.17643
0.59111 0.60041 0.24105
0.92291 0.61027 0.27184
1.00000 0.55944 0.20044
0.00000 0.84017 0.13017
0.00000 0.84326 0.11425
0.43434 0.84580 0.19480
0.85123 0.84790 0.23898
1.00000 0.84946 0.23404
0.00000 0.98886 0.20973
0.00000 0.99119 0.21699
0.31741 1.00000 0.26769
0.72077 1.00000 0.31598
0.87608 1.00000 0.36199
0.00000 0.00000 0.63701
0.23599 0.00000 0.69751
0.64815 0.00090 0.76473
0.92494 0.11832 0.78937
1.00000 0.21363 0.77221
0.07908 0.28536 0.65738
0.34662 0.31432 0.66991
0.66149 0.35224 0.69123
0.92871 0.39092 0.72848
1.00000 0.42125 0.75769
0.00000 0.60155 0.58518
0.17170 0.60607 0.59516
0.61655 0.61651 0.61615
0.90725 0.62955 0.65207
1.00000 0.66831 0.69037
0.00000 0.84457 0.53770
0.00000 0.84627 0.54359
0.51028 0.84818 0.56362
0.85019 0.85337 0.60032
1.00000 0.86370 0.65955
0.00000 1.00000 0.53890
0.00000 1.00000 0.54336
0.42891 1.00000 0.55956
0.72740 1.00000 0.58402
0.87822 1.00000 0.61164
0.16733 0.00000 0.91715
0.33799 0.00000 0.97550
0.64118 0.00000 1.00000
0.92615 0.11318 1.00000
1.00000 0.30709 0.99757
0.20593 0.26747 0.98194
0.39312 0.28841 0.98827
0.68789 0.34335 0.98939
0.93989 0.43590 0.98498
1.00000 0.47159 0.98417
0.24926 0.65058 0.90486
0.41601 0.65462 0.90869
0.67998 0.66214 0.92001
0.91642 0.68605 0.93128
1.00000 0.71398 0.92742
0.00000 0.86025 0.84042
0.16427 0.86028 0.84388
0.59269 0.85996 0.85558
0.86711 0.86719 0.86672
1.00000 0.86880 0.88117
0.00000 1.00000 0.79472
0.24245 1.00000 0.79724
0.53768 1.00000 0.80494
0.75355 1.00000 0.81906
0.90533 1.00000 0.83182
0.29966 0.03239 0.96276
0.41744 0.00152 0.98416
0.66009 0.00000 0.99847
0.91200 0.00000 0.99868
1.00000 0.32457 1.00000
0.33881 0.27856 0.99667
0.45541 0.28634 0.99878
0.69463 0.30360 0.99835
0.92727 0.37116 0.99985
1.00000 0.50368 1.00000
0.48274 0.69855 0.99660
0.60130 0.71912 0.99691
0.76729 0.71504 0.99746
0.93216 0.73964 1.00000
1.00000 0.77035 1.00000
0.40863 0.86600 0.99939
0.50831 0.86651 1.00000
0.69235 0.87178 1.00000
0.88092 0.89018 1.00000
1.00000 0.89490 1.00000
0.44988 1.00000 0.96170
0.50891 1.00000 0.96363
0.64499 1.00000 0.97037
0.81681 1.00000 0.98256
0.99095 0.99119 0.99120
