fuji-film/cube-lut/srgb/srgb-pro-neg-std.cube
LUT_3D_SIZE 32
0.00000 0.00000 0.00000
0.01356 0.00000 0.00111
0.02938 0.00000 0.00190
0.03962 0.00425 0.00171
0.06109 0.00433 0.00064
0.08615 0.00713 0.00000
0.12528 0.01079 0.00000
0.17368 0.01248 0.00000
0.22553 0.01258 0.00000
0.28291 0.00855 0.00000
0.34191 0.00325 0.00000
0.39958 0.00000 0.00860
0.45720 0.00000 0.01266
0.51677 0.00000 0.00921
0.56979 0.00000 0.00000
0.62175 0.00000 0.00000
0.67689 0.00000 0.00000
0.72348 0.00000 0.00000
0.76546 0.00000 0.00000
0.80432 0.00000 0.00000
0.83993 0.00000 0.00000
0.87294 0.00000 0.00000
0.90262 0.00000 0.00000
0.93080 0.00000 0.00000
0.95522 0.00000 0.00000
0.97604 0.00000 0.00000
0.99101 0.00000 0.00000
1.00000 0.00000 0.00000
1.00000 0.00000 0.00000
1.00000 0.00000 0.00000
1.00000 0.00000 0.00000
1.00000 0.00000 0.00000
0.00000 0.01650 0.00000
0.01429 0.01695 0.00075
0.02997 0.01742 0.00221
0.04779 0.01787 0.00268
0.06578 0.01898 0.00024
0.09043 0.02355 0.00000
0.13287 0.02444 0.00000
0.18031 0.02858 0.00000
0.23335 0.02498 0.00000
0.28966 0.02161 0.00000
0.34746 0.01563 0.00000
0.40418 0.00686 0.00715
0.45987 0.00000 0.01085
0.52096 0.00000 0.00684
0.57491 0.00000 0.00000
0.62644 0.00000 0.00000
0.67974 0.00000 0.00000
0.72567 0.00000 0.00000
0.76741 0.00000 0.00000
0.80595 0.00000 0.00000
0.84152 0.00000 0.00000
0.87430 0.00000 0.00000
0.90380 0.00000 0.00000
0.93187 0.00000 0.00000
0.95637 0.00000 0.00000
0.97701 0.00000 0.00000
0.99184 0.00000 0.00000
1.00000 0.00000 0.00000
1.00000 0.00000 0.00000
1.00000 0.00000 0.00000
1.00000 0.00000 0.00000
1.00000 0.00000 0.00000
0.00000 0.03214 0.00000
0.01233 0.03313 0.00269
0.03167 0.03409 0.00430
0.05065 0.03600 0.00438
0.07290 0.03659 0.00279
0.09898 0.04069 0.00062
0.14154 0.04290 0.00000
0.18832 0.04243 0.00000
0.24108 0.04144 0.00000
0.29670 0.03624 0.00000
0.35371 0.02983 0.00000
0.40976 0.02149 0.00535
0.46421 0.01614 0.00858
0.52762 0.00000 0.00423
0.58224 0.00000 0.00000
0.63453 0.00000 0.00000
0.68291 0.00000 0.00000
0.72817 0.00000 0.00000
0.76964 0.00000 0.00000
0.80784 0.00000 0.00000
0.84333 0.00000 0.00000
0.87586 0.00000 0.00000
0.90526 0.00000 0.00000
0.93311 0.00000 0.00000
0.95764 0.00000 0.00000
0.97810 0.00000 0.00000
0.99280 0.00000 0.00000
1.00000 0.00000 0.00000
1.00000 0.00000 0.00000
1.00000 0.00000 0.00000
1.00000 0.00000 0.00000
1.00000 0.00755 0.00000
0.00000 0.04709 0.00305
0.01093 0.04964 0.00674
0.02974 0.05159 0.00806
0.04910 0.05505 0.00973
0.07329 0.05746 0.00764
0.10636 0.06194 0.00649
0.14852 0.06410 0.00379
0.19674 0.06659 0.00119
0.24871 0.06383 0.00000
0.30492 0.06103 0.00000
0.36180 0.05447 0.00000
0.41843 0.04854 0.00227
0.47486 0.03725 0.00407
0.53909 0.01267 0.00000
0.59091 0.00200 0.00000
0.64356 0.00000 0.00000
0.68741 0.00000 0.00000
0.73174 0.00000 0.00000
0.77283 0.00000 0.00000
0.81062 0.00000 0.00000
0.84590 0.00000 0.00000
0.87814 0.00000 0.00000
0.90737 0.00000 0.00000
0.93481 0.00000 0.00000
0.95951 0.00000 0.00000
0.97965 0.00000 0.00000
0.99426 0.00000 0.00000
1.00000 0.00000 0.00000
1.00000 0.00000 0.00000
1.00000 0.00000 0.00000
1.00000 0.00000 0.00000
1.00000 0.02283 0.00000
0.00000 0.07056 0.00713
0.00761 0.07213 0.01004
0.02397 0.07508 0.01121
0.05076 0.07816 0.01150
0.07643 0.08316 0.01286
0.11117 0.08824 0.01216
0.15538 0.09425 0.01168
0.20289 0.09703 0.00909
0.25603 0.09648 0.00339
0.31387 0.09268 0.00000
0.37196 0.08891 0.00000
0.43250 0.07962 0.00000
0.48701 0.07429 0.00000
0.54498 0.06110 0.00000
0.60027 0.04318 0.00000
0.65205 0.02074 0.00000
0.69317 0.00000 0.00000
0.73614 0.00000 0.00000
0.77709 0.00000 0.00000
0.81432 0.00000 0.00000
0.84944 0.00000 0.00000
0.88106 0.00000 0.00000
0.91019 0.00000 0.00000
0.93724 0.00000 0.00000
0.96216 0.00000 0.00000
0.98179 0.00000 0.00000
0.99609 0.00000 0.00000
1.00000 0.00000 0.00000
1.00000 0.00000 0.00000
1.00000 0.00000 0.00000
1.00000 0.01772 0.00000
1.00000 0.04967 0.00000
0.00000 0.10382 0.01175
0.00000 0.10629 0.01264
0.00972 0.11037 0.01406
0.03413 0.11300 0.01553
0.07381 0.11757 0.01498
0.11237 0.12282 0.01415
0.16017 0.12946 0.01462
0.21100 0.13531 0.01215
0.26312 0.13606 0.00726
0.32322 0.13503 0.00139
0.38209 0.12991 0.00000
0.44228 0.12179 0.00000
0.49626 0.11673 0.00000
0.55194 0.11002 0.00000
0.60724 0.09804 0.00000
0.65738 0.08188 0.00000
0.69960 0.06700 0.00000
0.74141 0.04473 0.00000
0.78201 0.02005 0.00000
0.81889 0.00000 0.00000
0.85366 0.00000 0.00000
0.88468 0.00000 0.00000
0.91376 0.00000 0.00000
0.94062 0.00000 0.00000
0.96536 0.00000 0.00000
0.98437 0.00000 0.00000
0.99826 0.00000 0.00000
1.00000 0.00000 0.00000
1.00000 0.00000 0.00000
1.00000 0.01837 0.00000
1.00000 0.05544 0.00000
1.00000 0.07879 0.00000
0.00000 0.14728 0.00770
0.00000 0.14908 0.00824
0.00000 0.15271 0.00887
0.00544 0.15570 0.01101
0.05800 0.15828 0.01200
0.10502 0.16265 0.01322
0.15615 0.16895 0.01345
0.21217 0.17588 0.01417
0.26975 0.18189 0.00657
0.32853 0.17990 0.00103
0.38705 0.17926 0.00000
0.44376 0.17391 0.00000
0.50549 0.16674 0.00000
0.55848 0.15986 0.00000
0.60883 0.15288 0.00000
0.66087 0.13914 0.00000
0.70602 0.12705 0.00000
0.74764 0.11455 0.00000
0.78748 0.10368 0.00000
0.82409 0.09087 0.00000
0.85823 0.06899 0.00000
0.88921 0.03334 0.00000
0.91823 0.00000 0.00000
0.94461 0.00000 0.00000
0.96872 0.00000 0.00000
0.98786 0.00000 0.00000
1.00000 0.00000 0.00000
1.00000 0.00000 0.00000
1.00000 0.03413 0.00000
1.00000 0.07500 0.00000
1.00000 0.09448 0.00000
1.00000 0.10980 0.00000
0.00000 0.19673 0.00000
0.00000 0.19845 0.00024
0.00000 0.20084 0.00147
0.00000 0.20333 0.00311
0.01207 0.20650 0.00473
0.08381 0.20997 0.00483
0.14294 0.21369 0.00570
0.20459 0.22041 0.00472
0.26641 0.22637 0.00234
0.32769 0.23317 0.00000
0.38830 0.23132 0.00000
0.44792 0.23056 0.00000
0.51205 0.22152 0.00000
0.56368 0.21323 0.00000
0.61170 0.20691 0.00000
0.66388 0.19755 0.00000
0.71022 0.18843 0.00000
0.75316 0.17770 0.00000
0.79291 0.16563 0.00000
0.82936 0.15755 0.00000
0.86291 0.14721 0.00000
0.89345 0.13311 0.00000
0.92293 0.11346 0.00000
0.95052 0.08673 0.00000
0.97417 0.05628 0.00000
0.99386 0.03157 0.00000
1.00000 0.04638 0.00000
1.00000 0.08125 0.00000
1.00000 0.10784 0.00000
1.00000 0.12247 0.00000
1.00000 0.13131 0.00000
1.00000 0.13922 0.00000
0.00000 0.25009 0.00000
0.00000 0.25143 0.00000
0.00000 0.25314 0.00000
0.00000 0.25558 0.00000
0.00000 0.25903 0.00000
0.03135 0.26229 0.00000
0.12059 0.26568 0.00000
0.18879 0.26995 0.00000
0.25683 0.27500 0.00000
0.32029 0.28005 0.00000
0.38823 0.28394 0.00000
0.44339 0.28441 0.00000
0.50329 0.27959 0.00000
0.56067 0.27426 0.00000
0.61639 0.27006 0.00000
0.66361 0.26346 0.00000
0.71107 0.25388 0.00000
0.75652 0.24046 0.00000
0.79676 0.22644 0.00000
0.83462 0.21237 0.00000
0.86840 0.20024 0.00000
0.89943 0.18872 0.00000
0.92843 0.17862 0.00000
0.95615 0.16852 0.00000
0.97907 0.15697 0.00000
0.99913 0.14442 0.00000
1.00000 0.14137 0.00000
1.00000 0.14845 0.00000
1.00000 0.15741 0.00000
1.00000 0.16438 0.00000
1.00000 0.16906 0.00000
1.00000 0.17394 0.00000
0.00000 0.30584 0.00000
0.00000 0.30714 0.00000
0.00000 0.30880 0.00000
0.00000 0.31109 0.00000
0.00000 0.31387 0.00000
0.00000 0.31666 0.00000
0.06774 0.31906 0.00000
0.16228 0.32148 0.00000
0.23656 0.32499 0.00000
0.30192 0.32927 0.00000
0.37559 0.33465 0.00000
0.43556 0.33381 0.00000
0.49276 0.33331 0.00000
0.55627 0.33368 0.00000
0.61263 0.32847 0.00000
0.66220 0.32108 0.00000
0.71056 0.31183 0.00000
0.75627 0.30187 0.00000
0.79750 0.29232 0.00000
0.83633 0.28193 0.00000
0.87082 0.27089 0.00000
0.90257 0.25992 0.00000
0.93204 0.25291 0.00000
0.95930 0.24739 0.00000
0.98371 0.23735 0.00000
1.00000 0.22575 0.00000
1.00000 0.21903 0.00000
1.00000 0.21885 0.00000
1.00000 0.22058 0.00000
1.00000 0.22266 0.00000
1.00000 0.22409 0.00000
1.00000 0.22531 0.00000
0.00000 0.36443 0.00000
0.00000 0.36482 0.00000
0.00000 0.36519 0.00000
0.00000 0.36570 0.00000
0.00000 0.36637 0.00000
0.00000 0.36699 0.00000
0.00000 0.36853 0.00000
0.12165 0.37177 0.00000
0.20875 0.37633 0.00000
0.28503 0.38088 0.00000
0.35428 0.38362 0.00000
0.42107 0.38694 0.00000
0.47980 0.39423 0.00000
0.54323 0.39192 0.00000
0.60402 0.38545 0.00000
0.65734 0.37873 0.00000
0.70724 0.37096 0.00000
0.75388 0.36276 0.00000
0.79676 0.35387 0.00000
0.83658 0.34469 0.00000
0.87171 0.33506 0.00000
0.90393 0.32485 0.00000
0.93474 0.31594 0.00000
0.96163 0.30896 0.00000
0.98734 0.29852 0.00000
1.00000 0.28649 0.00000
1.00000 0.27689 0.00000
1.00000 0.27074 0.00000
1.00000 0.26635 0.00000
1.00000 0.26368 0.00000
1.00000 0.26133 0.00000
1.00000 0.26041 0.00000
0.00000 0.41248 0.00000
0.00000 0.41323 0.00000
0.00000 0.41413 0.00000
0.00000 0.41556 0.00000
0.00000 0.41755 0.00000
0.00000 0.42090 0.00000
0.00000 0.42572 0.00000
0.00000 0.42919 0.00000
0.16044 0.42992 0.00000
0.25597 0.43001 0.00000
0.33105 0.43366 0.00000
0.40808 0.44012 0.00000
0.46850 0.44476 0.00000
0.52689 0.44502 0.00000
0.59157 0.44185 0.00000
0.64849 0.43772 0.00000
0.69974 0.43215 0.00000
0.74781 0.42538 0.00000
0.79236 0.41940 0.00000
0.83276 0.41208 0.00000
0.86893 0.40387 0.00000
0.90174 0.39378 0.00000
0.93280 0.38471 0.00000
0.96169 0.37651 0.00000
0.98792 0.36563 0.00000
1.00000 0.35183 0.00000
1.00000 0.33845 0.00000
1.00000 0.32982 0.00000
1.00000 0.32613 0.00000
1.00000 0.32358 0.00000
1.00000 0.32110 0.00000
1.00000 0.31939 0.00000
0.00000 0.46361 0.00000
0.00000 0.46488 0.00000
0.00000 0.46634 0.00000
0.00000 0.46845 0.00000
0.00000 0.47113 0.00000
0.00000 0.47364 0.00000
0.00000 0.47565 0.00000
0.00000 0.47832 0.00000
0.09065 0.48093 0.00000
0.23113 0.48128 0.00000
0.31574 0.48196 0.00000
0.39452 0.48928 0.00000
0.45617 0.49375 0.00000
0.51420 0.49476 0.00000
0.57852 0.49408 0.00000
0.63677 0.49420 0.00000
0.68899 0.49357 0.00000
0.73719 0.49028 0.00000
0.78336 0.48417 0.00000
0.82506 0.47670 0.00000
0.86338 0.46822 0.00000
0.89758 0.45891 0.00000
0.92864 0.45014 0.00000
0.95904 0.44096 0.00000
0.98649 0.43138 0.00000
1.00000 0.42035 0.00000
1.00000 0.40976 0.00000
1.00000 0.40099 0.00000
1.00000 0.39314 0.00000
1.00000 0.38800 0.00000
1.00000 0.38329 0.00000
1.00000 0.37952 0.00000
0.00000 0.51944 0.00000
0.00000 0.52036 0.00000
0.00000 0.52134 0.00000
0.00000 0.52272 0.00000
0.00000 0.52444 0.00000
0.00000 0.52614 0.00000
0.00000 0.52715 0.00000
0.00000 0.52832 0.00000
0.00000 0.52946 0.00000
0.17466 0.53042 0.00000
0.27656 0.53331 0.00000
0.36263 0.53575 0.00000
0.43796 0.53765 0.00000
0.50442 0.53976 0.00000
0.56196 0.54243 0.00000
0.62184 0.54455 0.00000
0.67846 0.54568 0.00000
0.72681 0.54545 0.00000
0.77313 0.54174 0.00000
0.81500 0.53627 0.00000
0.85417 0.52923 0.00000
0.89041 0.52138 0.00000
0.92256 0.51288 0.00000
0.95362 0.50465 0.00000
0.98193 0.49553 0.00000
1.00000 0.48567 0.00000
1.00000 0.47517 0.00000
1.00000 0.46522 0.00000
1.00000 0.45672 0.00000
1.00000 0.44931 0.00000
1.00000 0.44173 0.00000
1.00000 0.43525 0.00000
0.00000 0.56776 0.00000
0.00000 0.56846 0.00000
0.00000 0.56924 0.00000
0.00000 0.57029 0.00000
0.00000 0.57151 0.00000
0.00000 0.57281 0.00000
0.00000 0.57418 0.00000
0.00000 0.57555 0.00000
0.00000 0.57719 0.00000
0.02114 0.57954 0.00000
0.22515 0.58128 0.00000
0.32175 0.58344 0.00000
0.41272 0.58486 0.00000
0.48549 0.58676 0.00000
0.54395 0.58957 0.00000
0.60406 0.59181 0.00000
0.66307 0.59390 0.00000
0.71522 0.59481 0.00000
0.76227 0.59352 0.00000
0.80435 0.59043 0.00000
0.84335 0.58596 0.00000
0.87986 0.57995 0.00000
0.91417 0.57283 0.00000
0.94556 0.56494 0.00000
0.97442 0.55740 0.00000
1.00000 0.54884 0.00000
1.00000 0.53850 0.00000
1.00000 0.52766 0.00000
1.00000 0.51847 0.00000
1.00000 0.51068 0.00000
1.00000 0.50246 0.00000
1.00000 0.49478 0.00000
0.00000 0.61534 0.00000
0.00000 0.61598 0.00000
0.00000 0.61668 0.00000
0.00000 0.61768 0.00000
0.00000 0.61891 0.00000
0.00000 0.62032 0.00000
0.00000 0.62170 0.00000
0.00000 0.62328 0.00000
0.00000 0.62453 0.00000
0.00000 0.62665 0.00000
0.15556 0.62833 0.00000
0.27779 0.63045 0.00000
0.37622 0.63189 0.00000
0.46075 0.63280 0.00000
0.52650 0.63427 0.00000
0.58651 0.63600 0.00000
0.64436 0.63812 0.00000
0.69906 0.64025 0.00000
0.74875 0.64084 0.00000
0.79268 0.64020 0.00000
0.83180 0.63810 0.00000
0.86790 0.63488 0.00000
0.90295 0.62972 0.00000
0.93499 0.62330 0.00000
0.96469 0.61655 0.00000
0.99229 0.60844 0.00000
1.00000 0.59983 0.00000
1.00000 0.58887 0.00000
1.00000 0.57877 0.00000
1.00000 0.56941 0.00000
1.00000 0.56045 0.00000
1.00000 0.55311 0.00000
0.00000 0.66061 0.00000
0.00000 0.66116 0.00000
0.00000 0.66179 0.00000
0.00000 0.66265 0.00000
0.00000 0.66378 0.00000
0.00000 0.66504 0.00000
0.00000 0.66644 0.00000
0.00000 0.66776 0.00000
0.00000 0.66974 0.00000
0.00000 0.67152 0.00000
0.04952 0.67307 0.00000
0.22867 0.67534 0.00000
0.33127 0.67705 0.00000
0.43080 0.67740 0.00000
0.50500 0.67822 0.00000
0.56824 0.67902 0.00000
0.62550 0.67991 0.00000
0.68129 0.68123 0.00000
0.73271 0.68283 0.00000
0.77891 0.68386 0.00000
0.82124 0.68437 0.00000
0.85745 0.68355 0.00000
0.89257 0.68071 0.00000
0.92398 0.67629 0.00000
0.95401 0.67006 0.00000
0.98153 0.66319 0.00000
1.00000 0.65492 0.00000
1.00000 0.64689 0.00000
1.00000 0.63639 0.00000
1.00000 0.62683 0.00000
1.00000 0.61806 0.00000
1.00000 0.61039 0.00000
0.00000 0.70428 0.00000
0.00000 0.70480 0.00000
0.00000 0.70540 0.00000
0.00000 0.70622 0.00000
0.00000 0.70719 0.00000
0.00000 0.70833 0.00000
0.00000 0.70955 0.00000
0.00000 0.71062 0.00000
0.00000 0.71231 0.00000
0.00000 0.71365 0.00000
0.00000 0.71503 0.00000
0.16180 0.71626 0.00000
0.29712 0.71797 0.00000
0.39640 0.71891 0.00000
0.48026 0.71921 0.00000
0.54987 0.71934 0.00000
0.60870 0.71950 0.00000
0.66411 0.71978 0.00000
0.71572 0.72117 0.00000
0.76409 0.72386 0.00000
0.80888 0.72589 0.00000
0.84871 0.72709 0.00000
0.88309 0.72593 0.00000
0.91374 0.72279 0.00000
0.94357 0.71766 0.00000
0.97095 0.71175 0.00000
0.99285 0.70567 0.00000
1.00000 0.69783 0.00000
1.00000 0.69033 0.00000
1.00000 0.68106 0.00000
1.00000 0.67136 0.00000
1.00000 0.66373 0.00000
0.00000 0.74460 0.00000
0.00000 0.74510 0.00000
0.00000 0.74564 0.00000
0.00000 0.74635 0.00000
0.00000 0.74727 0.00000
0.00000 0.74839 0.00000
0.00000 0.74937 0.00000
0.00000 0.75066 0.00000
0.00000 0.75163 0.00000
0.00000 0.75264 0.00000
0.00000 0.75430 0.00000
0.00000 0.75519 0.00000
0.24423 0.75679 0.00000
0.35404 0.75802 0.00000
0.44918 0.75756 0.00000
0.52723 0.75676 0.00000
0.59125 0.75605 0.00000
0.64951 0.75548 0.00000
0.70069 0.75646 0.00000
0.74903 0.75895 0.00000
0.79510 0.76220 0.00000
0.83727 0.76525 0.00000
0.87286 0.76598 0.00000
0.90369 0.76366 0.00000
0.93302 0.75979 0.00000
0.96012 0.75523 0.00000
0.98226 0.75022 0.00000
0.99856 0.74463 0.00000
1.00000 0.73710 0.00000
1.00000 0.72971 0.00000
1.00000 0.72121 0.00000
1.00000 0.71259 0.00000
0.00000 0.78174 0.00000
0.00000 0.78211 0.00000
0.00000 0.78254 0.00000
0.00000 0.78314 0.00000
0.00000 0.78391 0.00000
0.00000 0.78468 0.00000
0.00000 0.78552 0.00000
0.00000 0.78681 0.00000
0.00000 0.78749 0.00000
0.00000 0.78783 0.00000
0.00000 0.78940 0.00000
0.00000 0.79049 0.00000
0.17091 0.79158 0.00000
0.30400 0.79301 0.00000
0.41259 0.79241 0.00000
0.50042 0.79121 0.00000
0.57171 0.79014 0.00000
0.63421 0.78938 0.00000
0.68686 0.78964 0.00000
0.73521 0.79101 0.00000
0.78047 0.79320 0.00000
0.82285 0.79541 0.00000
0.86029 0.79727 0.00000
0.89255 0.79684 0.00000
0.92265 0.79489 0.00000
0.95058 0.79231 0.00000
0.97439 0.78901 0.00000
0.99062 0.78383 0.00000
1.00000 0.77855 0.00000
1.00000 0.77151 0.00000
1.00000 0.76465 0.00000
1.00000 0.75840 0.00000
0.00000 0.81392 0.00000
0.00000 0.81433 0.00000
0.00000 0.81476 0.00000
0.00000 0.81537 0.00000
0.00000 0.81604 0.00000
0.00000 0.81685 0.00000
0.00000 0.81823 0.00000
0.00000 0.81920 0.00000
0.00000 0.82029 0.00000
0.00000 0.82118 0.00000
0.00000 0.82212 0.00000
0.00000 0.82344 0.00000
0.00000 0.82404 0.00000
0.24683 0.82514 0.00000
0.37144 0.82471 0.00000
0.46995 0.82318 0.00000
0.54945 0.82146 0.00000
0.61779 0.81998 0.00000
0.67362 0.81949 0.00000
0.72201 0.81978 0.00000
0.76545 0.82075 0.00000
0.80687 0.82245 0.00000
0.84423 0.82433 0.00000
0.87863 0.82570 0.00000
0.91050 0.82581 0.00000
0.93888 0.82503 0.00000
0.96266 0.82254 0.00000
0.98143 0.81931 0.00000
0.99258 0.81497 0.00000
0.99673 0.81015 0.00000
0.99782 0.80321 0.00000
0.99854 0.79815 0.00000
0.00000 0.84335 0.00000
0.00000 0.84372 0.00000
0.00000 0.84409 0.00000
0.00000 0.84459 0.00000
0.00000 0.84526 0.00000
0.00000 0.84632 0.00000
0.00000 0.84750 0.00000
0.00000 0.84835 0.00000
0.00000 0.84901 0.00000
0.00000 0.85031 0.00000
0.00000 0.85094 0.00000
0.00000 0.85256 0.00000
0.00000 0.85334 0.00000
0.18348 0.85456 0.00000
0.32998 0.85501 0.00000
0.43787 0.85372 0.00000
0.52400 0.85193 0.00000
0.59763 0.84968 0.00000
0.65842 0.84786 0.00000
0.70905 0.84704 0.00000
0.75192 0.84725 0.00000
0.79227 0.84795 0.00000
0.82921 0.84937 0.00000
0.86404 0.85129 0.00000
0.89716 0.85299 0.00000
0.92607 0.85330 0.00000
0.95181 0.85247 0.00000
0.97203 0.85076 0.00000
0.98495 0.84818 0.00000
0.99002 0.84432 0.00000
0.99135 0.83932 0.00000
0.99297 0.83222 0.00000
0.00000 0.87009 0.00000
0.00000 0.87034 0.00000
0.00000 0.87062 0.00000
0.00000 0.87112 0.00000
0.00000 0.87196 0.00000
0.00000 0.87295 0.00000
0.00000 0.87369 0.00000
0.00000 0.87457 0.00000
0.00000 0.87513 0.00000
0.00000 0.87667 0.00000
0.00000 0.87740 0.00000
0.00000 0.87861 0.00000
0.00000 0.88011 0.00000
0.09094 0.88144 0.00000
0.28856 0.88253 0.00000
0.40503 0.88191 0.00000
0.49755 0.88020 0.00000
0.57559 0.87774 0.00000
0.64086 0.87525 0.00000
0.69514 0.87364 0.00000
0.73926 0.87321 0.00000
0.77979 0.87350 0.00000
0.81549 0.87470 0.00000
0.85012 0.87643 0.00000
0.88346 0.87775 0.00000
0.91361 0.87881 0.00000
0.94161 0.87961 0.00000
0.96281 0.87948 0.00000
0.97668 0.87831 0.00000
0.98475 0.87637 0.00000
0.98788 0.87233 0.00000
0.98854 0.86692 0.00000
0.00000 0.89523 0.00000
0.00000 0.89549 0.00000
0.00000 0.89582 0.00000
0.00000 0.89635 0.00000
0.00000 0.89698 0.00000
0.00000 0.89747 0.00000
0.00000 0.89812 0.00000
0.00000 0.89893 0.00000
0.00000 0.89978 0.00000
0.00000 0.90090 0.00000
0.00000 0.90214 0.00000
0.00000 0.90337 0.00000
0.00000 0.90505 0.00000
0.00000 0.90643 0.00000
0.24403 0.90775 0.00000
0.37213 0.90823 0.00000
0.47042 0.90732 0.00000
0.55191 0.90517 0.00000
0.62063 0.90229 0.00000
0.67876 0.89979 0.00000
0.72618 0.89845 0.00000
0.76771 0.89805 0.00000
0.80344 0.89876 0.00000
0.83743 0.89986 0.00000
0.86979 0.90153 0.00000
0.90042 0.90395 0.00000
0.92950 0.90607 0.00000
0.95261 0.90725 0.00000
0.96848 0.90743 0.00000
0.97837 0.90661 0.00000
0.98317 0.90468 0.00000
0.98363 0.89870 0.00000
0.00000 0.91978 0.00000
0.00000 0.92014 0.00000
0.00000 0.92056 0.00000
0.00000 0.92101 0.00000
0.00000 0.92151 0.00000
0.00000 0.92223 0.00000
0.00000 0.92310 0.00000
0.00000 0.92359 0.00000
0.00000 0.92501 0.00000
0.00000 0.92549 0.00000
0.00000 0.92679 0.00000
0.00000 0.92712 0.00000
0.00000 0.92801 0.00000
0.00000 0.92890 0.00000
0.19460 0.92992 0.00000
0.34067 0.93086 0.00000
0.44443 0.93101 0.00000
0.52731 0.93018 0.00000
0.59800 0.92785 0.00000
0.65947 0.92539 0.00000
0.71047 0.92386 0.00000
0.75380 0.92334 0.00000
0.79063 0.92353 0.00000
0.82485 0.92449 0.00000
0.85711 0.92630 0.00000
0.88773 0.92834 0.00000
0.91655 0.93068 0.00000
0.93931 0.93265 0.00000
0.95816 0.93337 0.00000
0.96968 0.93312 0.00000
0.97404 0.93139 0.00000
0.97405 0.92849 0.00000
0.00000 0.94225 0.00000
0.00000 0.94247 0.00000
0.00000 0.94274 0.00000
0.00000 0.94315 0.00000
0.00000 0.94375 0.00000
0.00000 0.94444 0.00000
0.00000 0.94490 0.00000
0.00000 0.94551 0.00000
0.00000 0.94621 0.00000
0.00000 0.94629 0.00000
0.00000 0.94713 0.00000
0.00000 0.94739 0.00000
0.00000 0.94818 0.00000
0.00000 0.94899 0.00000
0.11840 0.94985 0.00000
0.30460 0.95068 0.00000
0.41703 0.95124 0.00000
0.50245 0.95123 0.00000
0.57502 0.95030 0.00000
0.63927 0.94840 0.00000
0.69351 0.94692 0.00000
0.73874 0.94703 0.03277
0.77711 0.94783 0.02169
0.81233 0.94842 0.00000
0.84438 0.94976 0.00000
0.87394 0.95241 0.00000
0.90149 0.95403 0.00000
0.92235 0.95576 0.00000
0.93908 0.95731 0.00000
0.95187 0.95787 0.00000
0.95743 0.95570 0.00000
0.95856 0.95141 0.00000
0.00000 0.95894 0.00000
0.00000 0.95915 0.00000
0.00000 0.95941 0.00000
0.00000 0.95979 0.00000
0.00000 0.96026 0.00000
0.00000 0.96077 0.00000
0.00000 0.96106 0.00000
0.00000 0.96185 0.00000
0.00000 0.96194 0.00000
0.00000 0.96194 0.00000
0.00000 0.96243 0.00000
0.00000 0.96268 0.00000
0.00000 0.96350 0.00000
0.00000 0.96439 0.00000
0.00000 0.96538 0.00000
0.27424 0.96636 0.00000
0.39422 0.96753 0.00000
0.48105 0.96805 0.00000
0.55457 0.96747 0.00000
0.61953 0.96727 0.00000
0.67389 0.96823 0.00000
0.71911 0.96909 0.07232
0.75766 0.96971 0.07214
0.79283 0.97101 0.02097
0.82478 0.97252 0.00000
0.85295 0.97415 0.00000
0.87729 0.97622 0.00000
0.89644 0.97802 0.00000
0.91184 0.97879 0.00000
0.92369 0.97775 0.00000
0.93140 0.97468 0.00000
0.93701 0.96997 0.00000
0.00000 0.97180 0.00000
0.00000 0.97187 0.00000
0.00000 0.97194 0.00000
0.00000 0.97196 0.00000
0.00000 0.97200 0.00000
0.00000 0.97262 0.00000
0.00000 0.97342 0.00000
0.00000 0.97367 0.00000
0.00000 0.97441 0.00000
0.00000 0.97537 0.00000
0.00000 0.97615 0.00000
0.00000 0.97705 0.00000
0.00000 0.97840 0.00000
0.00000 0.97984 0.00000
0.09658 0.98061 0.00000
0.28758 0.98162 0.00000
0.39413 0.98339 0.00000
0.47560 0.98442 0.00000
0.54363 0.98501 0.00000
0.60211 0.98628 0.00000
0.65271 0.98732 0.05245
0.69480 0.98890 0.10261
0.73149 0.99059 0.11202
0.76606 0.99228 0.10671
0.79669 0.99356 0.10031
0.82262 0.99526 0.09388
0.84601 0.99650 0.09028
0.86582 0.99678 0.09189
0.88132 0.99600 0.09936
0.89388 0.99392 0.11074
0.90478 0.99020 0.12373
0.91488 0.98450 0.14396
0.00000 0.98865 0.00000
0.00000 0.98887 0.00000
0.00000 0.98916 0.00000
0.00000 0.98958 0.00000
