fuji-film/cube-lut/srgb/srgb-provia.cube
LUT_3D_SIZE 5
DOMAIN_MIN 0.000000 0.000000 0.000000
DOMAIN_MAX 0.903226 0.903226 0.903226
0.00000 0.00000 0.00000
0.24766 0.00033 0.00000
0.70278 0.00000 0.00000
1.00000 0.00000 0.00000
1.00000 0.00000 0.00000
0.00000 0.19632 0.00000
0.19735 0.21241 0.00000
0.69960 0.18857 0.00000
1.00000 0.08122 0.00000
1.00000 0.00000 0.00000
0.00000 0.58463 0.00000
0.00000 0.58892 0.00000
0.56443 0.59471 0.00000
0.95398 0.57467 0.00000
1.00000 0.51115 0.00000
0.00000 0.86602 0.00000
0.00000 0.86748 0.00000
0.16020 0.85831 0.00000
0.80526 0.84706 0.00000
1.00000 0.83123 0.00000
0.00000 0.99892 0.00000
0.00000 0.99920 0.00000
0.00000 1.00000 0.00000
0.64809 1.00000 0.00000
0.86708 1.00000 0.00000
0.02025 0.00989 0.24868
0.28785 0.02695 0.27659
0.71616 0.02457 0.31638
1.00000 0.00000 0.36592
1.00000 0.00000 0.29887
0.00000 0.23505 0.22956
0.24792 0.24859 0.24816
0.69295 0.27279 0.29320
1.00000 0.23968 0.30778
1.00000 0.07209 0.17974
0.00000 0.60333 0.15169
0.00000 0.60398 0.15840
0.56771 0.60886 0.21768
0.94021 0.61059 0.22025
1.00000 0.54833 0.12225
0.00000 0.86746 0.05432
0.00000 0.86735 0.03809
0.25865 0.85716 0.13315
0.82041 0.85195 0.16471
1.00000 0.84440 0.14112
0.00000 1.00000 0.12691
0.00000 1.00000 0.12904
0.00000 1.00000 0.18808
0.66154 1.00000 0.23166
0.87041 1.00000 0.29285
0.07492 0.00000 0.71692
0.33200 0.00000 0.74406
0.75923 0.02382 0.76403
1.00000 0.11420 0.76223
1.00000 0.18906 0.74152
0.06911 0.30953 0.69049
0.36031 0.32381 0.69306
0.72300 0.34926 0.69499
0.99889 0.37251 0.71820
1.00000 0.40375 0.72924
0.00000 0.62182 0.61278
0.00000 0.62061 0.61498
0.62101 0.62060 0.62018
0.93411 0.62928 0.64157
1.00000 0.66049 0.67260
0.00000 0.85961 0.56045
0.00000 0.85597 0.56070
0.42763 0.84845 0.56512
0.83315 0.85053 0.58844
1.00000 0.85635 0.64640
0.00000 1.00000 0.53420
0.00000 1.00000 0.53595
0.24467 1.00000 0.54357
0.68817 1.00000 0.55926
0.87943 1.00000 0.58137
0.18749 0.00000 0.99546
0.39084 0.00000 1.00000
0.76233 0.00000 1.00000
1.00000 0.13541 1.00000
1.00000 0.29987 0.99405
0.16008 0.30029 0.99749
0.40504 0.31244 0.99768
0.76086 0.34561 0.99657
1.00000 0.43416 0.98608
1.00000 0.47961 0.97609
0.00000 0.66171 0.92812
0.35032 0.66342 0.92237
0.68326 0.67055 0.91918
0.93743 0.68674 0.91677
1.00000 0.71676 0.91811
0.00000 0.86510 0.85917
0.00000 0.86227 0.85824
0.53636 0.85905 0.85860
0.86180 0.86169 0.86174
1.00000 0.86136 0.86609
0.00000 1.00000 0.79996
0.00000 1.00000 0.80042
0.45757 1.00000 0.80256
0.73213 1.00000 0.80867
0.90611 1.00000 0.81466
0.30783 0.12481 1.00000
0.46730 0.11932 1.00000
0.77610 0.10515 1.00000
1.00000 0.14778 1.00000
1.00000 0.33170 1.00000
0.30465 0.32216 1.00000
0.47071 0.32310 1.00000
0.77389 0.33193 1.00000
1.00000 0.39594 1.00000
1.00000 0.51794 1.00000
0.40556 0.71159 1.00000
0.56197 0.72677 1.00000
0.76273 0.72378 1.00000
0.95276 0.74731 1.00000
1.00000 0.77737 1.00000
0.25679 0.86990 1.00000
0.42082 0.86905 1.00000
0.66639 0.87096 1.00000
0.88135 0.88628 1.00000
1.00000 0.89012 1.00000
0.36017 0.99917 0.96272
0.44102 1.00000 0.96409
0.61085 1.00000 0.96750
0.80102 0.99715 0.97518
0.97895 0.97905 0.97901
