fuji-film/cube-lut/srgb/srgb-provia.cube
LUT_3D_SIZE 32
0.00000 0.00000 0.00000
0.01692 0.00224 0.00000
0.03556 0.00161 0.00083
0.06208 0.00318 0.00138
0.09412 0.00150 0.00062
0.13645 0.00129 0.00000
0.18704 0.00460 0.00000
0.24766 0.00033 0.00000
0.30889 0.00000 0.00000
0.37315 0.00000 0.00000
0.44003 0.00000 0.00000
0.50704 0.00000 0.00000
0.57267 0.00000 0.00000
0.63940 0.00000 0.00000
0.70278 0.00000 0.00000
0.76162 0.00000 0.00000
0.81796 0.00000 0.00000
0.86870 0.00000 0.00000
0.91640 0.00000 0.00000
0.95783 0.00000 0.00000
0.99673 0.00000 0.00000
1.00000 0.00000 0.00000
1.00000 0.00000 0.00000
1.00000 0.00000 0.00000
1.00000 0.00000 0.00000
1.00000 0.00000 0.00000
1.00000 0.00000 0.00000
1.00000 0.00000 0.00000
1.00000 0.00000 0.00000
1.00000 0.00000 0.00000
1.00000 0.00000 0.00000
1.00000 0.00000 0.00000
0.00000 0.01432 0.00000
0.01442 0.01462 0.00196
0.03186 0.01762 0.00000
0.05926 0.01482 0.00000
0.09109 0.01467 0.00000
0.13248 0.01724 0.00000
0.18639 0.01672 0.00000
0.24643 0.01432 0.00000
0.30821 0.01271 0.00000
0.37354 0.00190 0.00000
0.44059 0.00000 0.00000
0.50867 0.00000 0.00000
0.57342 0.00000 0.00000
0.64007 0.00000 0.00000
0.70350 0.00000 0.00000
0.76259 0.00000 0.00000
0.81864 0.00000 0.00000
0.86940 0.00000 0.00000
0.91702 0.00000 0.00000
0.95838 0.00000 0.00000
0.99726 0.00000 0.00000
1.00000 0.00000 0.00000
1.00000 0.00000 0.00000
1.00000 0.00000 0.00000
1.00000 0.00000 0.00000
1.00000 0.00000 0.00000
1.00000 0.00000 0.00000
1.00000 0.00000 0.00000
1.00000 0.00000 0.00000
1.00000 0.00000 0.00000
1.00000 0.00000 0.00000
1.00000 0.00000 0.00000
0.00000 0.02813 0.00000
0.00794 0.02876 0.00061
0.02638 0.03130 0.00042
0.05388 0.03081 0.00000
0.08740 0.03195 0.00000
0.13005 0.03248 0.00000
0.18404 0.03162 0.00000
0.24528 0.02939 0.00000
0.30784 0.02707 0.00000
0.37384 0.01572 0.00000
0.44108 0.00252 0.00000
0.51018 0.00000 0.00000
0.57437 0.00000 0.00000
0.64085 0.00000 0.00000
0.70425 0.00000 0.00000
0.76362 0.00000 0.00000
0.81937 0.00000 0.00000
0.87016 0.00000 0.00000
0.91769 0.00000 0.00000
0.95899 0.00000 0.00000
0.99787 0.00000 0.00000
1.00000 0.00000 0.00000
1.00000 0.00000 0.00000
1.00000 0.00000 0.00000
1.00000 0.00000 0.00000
1.00000 0.00000 0.00000
1.00000 0.00000 0.00000
1.00000 0.00000 0.00000
1.00000 0.00000 0.00000
1.00000 0.00000 0.00000
1.00000 0.00000 0.00000
1.00000 0.00000 0.00000
0.00000 0.04713 0.00032
0.00033 0.04679 0.00265
0.01734 0.04842 0.00258
0.04618 0.04902 0.00325
0.08271 0.05213 0.00000
0.12470 0.05433 0.00000
0.18109 0.05265 0.00000
0.24232 0.05343 0.00000
0.30702 0.04718 0.00000
0.37383 0.03719 0.00000
0.44105 0.02541 0.00000
0.51104 0.00716 0.00000
0.57563 0.00000 0.00000
0.64193 0.00000 0.00000
0.70518 0.00000 0.00000
0.76506 0.00000 0.00000
0.82025 0.00000 0.00000
0.87111 0.00000 0.00000
0.91857 0.00000 0.00000
0.95982 0.00000 0.00000
0.99872 0.00000 0.00000
1.00000 0.00000 0.00000
1.00000 0.00000 0.00000
1.00000 0.00000 0.00000
1.00000 0.00000 0.00000
1.00000 0.00000 0.00000
1.00000 0.00000 0.00000
1.00000 0.00000 0.00000
1.00000 0.00000 0.00000
1.00000 0.00000 0.00000
1.00000 0.00000 0.00000
1.00000 0.00000 0.00000
0.00000 0.07166 0.00397
0.00000 0.07191 0.00437
0.00289 0.07377 0.00375
0.03025 0.07537 0.00270
0.07103 0.07803 0.00177
0.11718 0.08243 0.00000
0.17408 0.08366 0.00000
0.23714 0.08279 0.00000
0.30325 0.07908 0.00000
0.37123 0.06929 0.00000
0.43978 0.06063 0.00000
0.51030 0.04582 0.00000
0.57650 0.03545 0.00000
0.64309 0.01353 0.00000
0.70609 0.00000 0.00000
0.76652 0.00000 0.00000
0.82126 0.00000 0.00000
0.87227 0.00000 0.00000
0.91962 0.00000 0.00000
0.96085 0.00000 0.00000
1.00000 0.00000 0.00000
1.00000 0.00000 0.00000
1.00000 0.00000 0.00000
1.00000 0.00000 0.00000
1.00000 0.00000 0.00000
1.00000 0.00000 0.00000
1.00000 0.00000 0.00000
1.00000 0.00000 0.00000
1.00000 0.00000 0.00000
1.00000 0.00000 0.00000
1.00000 0.00000 0.00000
1.00000 0.00000 0.00000
0.00000 0.10591 0.00265
0.00000 0.10648 0.00170
0.00000 0.10775 0.00223
0.00104 0.10996 0.00068
0.04551 0.11153 0.00191
0.10224 0.11455 0.00276
0.16222 0.11803 0.00040
0.22746 0.12108 0.00000
0.29605 0.11906 0.00000
0.36588 0.11228 0.00000
0.43605 0.10433 0.00000
0.50981 0.09270 0.00000
0.57607 0.08748 0.00000
0.64370 0.07146 0.00000
0.70657 0.05399 0.00000
0.76736 0.02640 0.00000
0.82189 0.00000 0.00000
0.87318 0.00000 0.00000
0.92059 0.00000 0.00000
0.96214 0.00000 0.00000
1.00000 0.00000 0.00000
1.00000 0.00000 0.00000
1.00000 0.00000 0.00000
1.00000 0.00000 0.00000
1.00000 0.00000 0.00000
1.00000 0.00000 0.00000
1.00000 0.00000 0.00000
1.00000 0.00000 0.00000
1.00000 0.00000 0.00000
1.00000 0.00000 0.00000
1.00000 0.00000 0.00000
1.00000 0.00000 0.00000
0.00000 0.14725 0.00000
0.00000 0.14726 0.00000
0.00000 0.14856 0.00000
0.00000 0.15131 0.00000
0.00348 0.15221 0.00000
0.07281 0.15574 0.00000
0.14160 0.15968 0.00000
0.21404 0.16392 0.00000
0.28655 0.16529 0.00000
0.35824 0.16199 0.00000
0.42890 0.15821 0.00000
0.50599 0.14933 0.00000
0.57358 0.14268 0.00000
0.64190 0.12973 0.00000
0.70522 0.11908 0.00000
0.76628 0.10604 0.00000
0.82133 0.08918 0.00000
0.87324 0.07167 0.00000
0.92135 0.04111 0.00000
0.96360 0.00396 0.00000
1.00000 0.00000 0.00000
1.00000 0.00000 0.00000
1.00000 0.00000 0.00000
1.00000 0.00000 0.00000
1.00000 0.00000 0.00000
1.00000 0.00000 0.00000
1.00000 0.00000 0.00000
1.00000 0.00000 0.00000
1.00000 0.00000 0.00000
1.00000 0.00000 0.00000
1.00000 0.00000 0.00000
1.00000 0.00000 0.00000
0.00000 0.19632 0.00000
0.00000 0.19745 0.00000
0.00000 0.19929 0.00000
0.00000 0.20141 0.00000
0.00000 0.20284 0.00000
0.01492 0.20554 0.00000
0.11555 0.20846 0.00000
0.19735 0.21241 0.00000
0.27351 0.21563 0.00000
0.34651 0.21816 0.00000
0.41873 0.21689 0.00000
0.49432 0.21442 0.00000
0.56457 0.20639 0.00000
0.63483 0.19398 0.00000
0.69960 0.18857 0.00000
0.76167 0.17833 0.00000
0.81837 0.16569 0.00000
0.87172 0.14771 0.00000
0.92097 0.13128 0.00000
0.96387 0.11816 0.00000
1.00000 0.10227 0.00000
1.00000 0.08122 0.00000
1.00000 0.06456 0.00000
1.00000 0.02675 0.00000
1.00000 0.00000 0.00000
1.00000 0.00000 0.00000
1.00000 0.00000 0.00000
1.00000 0.00000 0.00000
1.00000 0.00000 0.00000
1.00000 0.00000 0.00000
1.00000 0.00000 0.00000
1.00000 0.00000 0.00000
0.00000 0.25142 0.00000
0.00000 0.25250 0.00000
0.00000 0.25381 0.00000
0.00000 0.25539 0.00000
0.00000 0.25699 0.00000
0.00000 0.25884 0.00000
0.08688 0.26171 0.00000
0.17938 0.26507 0.00000
0.25549 0.26887 0.00000
0.32988 0.27252 0.00000
0.40529 0.27494 0.00000
0.47991 0.27524 0.00000
0.54895 0.27321 0.00000
0.62241 0.26442 0.00000
0.69010 0.25602 0.00000
0.75369 0.24749 0.00000
0.81261 0.23647 0.00000
0.86701 0.22356 0.00000
0.91758 0.20759 0.00000
0.96178 0.19529 0.00000
1.00000 0.18410 0.00000
1.00000 0.16488 0.00000
1.00000 0.14204 0.00000
1.00000 0.12624 0.00000
1.00000 0.11161 0.00000
1.00000 0.09175 0.00000
1.00000 0.06340 0.00000
1.00000 0.03843 0.00000
1.00000 0.04128 0.00000
1.00000 0.05569 0.00000
1.00000 0.06210 0.00000
1.00000 0.06994 0.00000
0.00000 0.30956 0.00000
0.00000 0.31013 0.00000
0.00000 0.31075 0.00000
0.00000 0.31160 0.00000
0.00000 0.31265 0.00000
0.00000 0.31405 0.00000
0.00000 0.31612 0.00000
0.14142 0.31898 0.00000
0.22966 0.32311 0.00000
0.30649 0.32698 0.00000
0.38424 0.32923 0.00000
0.46104 0.33123 0.00000
0.53178 0.33198 0.00000
0.60649 0.32890 0.00000
0.67607 0.32307 0.00000
0.74230 0.31712 0.00000
0.80331 0.30463 0.00000
0.85972 0.28911 0.00000
0.91117 0.27604 0.00000
0.95592 0.26646 0.00000
0.99631 0.25612 0.00000
1.00000 0.24249 0.00000
1.00000 0.22651 0.00000
1.00000 0.21050 0.00000
1.00000 0.19805 0.00000
1.00000 0.18662 0.00000
1.00000 0.17636 0.00000
1.00000 0.16946 0.00000
1.00000 0.16694 0.00000
1.00000 0.16743 0.00000
1.00000 0.16736 0.00000
1.00000 0.16845 0.00000
0.00000 0.36735 0.00000
0.00000 0.36790 0.00000
0.00000 0.36851 0.00000
0.00000 0.36936 0.00000
0.00000 0.37049 0.00000
0.00000 0.37186 0.00000
0.00000 0.37362 0.00000
0.05580 0.37596 0.00000
0.19251 0.37869 0.00000
0.28270 0.38083 0.00000
0.36038 0.38411 0.00000
0.43831 0.38632 0.00000
0.51372 0.38420 0.00000
0.58804 0.38699 0.00000
0.65830 0.38624 0.00000
0.72636 0.37914 0.00000
0.78939 0.36981 0.00000
0.84667 0.36054 0.00000
0.89998 0.34914 0.00000
0.94534 0.33870 0.00000
0.98713 0.32746 0.00000
1.00000 0.31622 0.00000
1.00000 0.30282 0.00000
1.00000 0.28981 0.00000
1.00000 0.27889 0.00000
1.00000 0.26870 0.00000
1.00000 0.25850 0.00000
1.00000 0.24769 0.00000
1.00000 0.23997 0.00000
1.00000 0.23635 0.00000
1.00000 0.23315 0.00000
1.00000 0.23286 0.00000
0.00000 0.42471 0.00000
0.00000 0.42494 0.00000
0.00000 0.42517 0.00000
0.00000 0.42549 0.00000
0.00000 0.42583 0.00000
0.00000 0.42622 0.00000
0.00000 0.42732 0.00000
0.00000 0.43047 0.00000
0.14104 0.43413 0.00000
0.25064 0.43668 0.00000
0.33754 0.43709 0.00000
0.41374 0.43850 0.00000
0.49092 0.44125 0.00000
0.56599 0.44467 0.00000
0.63699 0.44555 0.00000
0.70496 0.44215 0.00000
0.76867 0.43595 0.00000
0.82917 0.42701 0.00000
0.88349 0.41735 0.00000
0.93045 0.40702 0.00000
0.97390 0.39561 0.00000
1.00000 0.38355 0.00000
1.00000 0.37044 0.00000
1.00000 0.35730 0.00000
1.00000 0.34618 0.00000
1.00000 0.33692 0.00000
1.00000 0.32734 0.00000
1.00000 0.31717 0.00000
1.00000 0.30897 0.00000
1.00000 0.30454 0.00000
1.00000 0.30102 0.00000
1.00000 0.29990 0.00000
0.00000 0.48072 0.00000
0.00000 0.48139 0.00000
0.00000 0.48213 0.00000
0.00000 0.48316 0.00000
0.00000 0.48447 0.00000
0.00000 0.48590 0.00000
0.00000 0.48752 0.00000
0.00000 0.48883 0.00000
0.02010 0.49039 0.00000
0.20526 0.49184 0.00000
0.30577 0.49271 0.00000
0.38290 0.49437 0.00000
0.46716 0.49563 0.00000
0.54356 0.49571 0.00000
0.61544 0.49599 0.00000
0.68221 0.49755 0.00000
0.74580 0.49505 0.00000
0.80553 0.48944 0.00000
0.86147 0.48133 0.00000
0.91062 0.47240 0.00000
0.95607 0.46233 0.00000
0.99674 0.45177 0.00000
1.00000 0.44069 0.00000
1.00000 0.42841 0.00000
1.00000 0.41768 0.00000
1.00000 0.40905 0.00000
1.00000 0.39912 0.00000
1.00000 0.38920 0.00000
1.00000 0.37897 0.00000
1.00000 0.36996 0.00000
1.00000 0.36237 0.00000
1.00000 0.35840 0.00000
0.00000 0.53426 0.00000
0.00000 0.53458 0.00000
0.00000 0.53491 0.00000
0.00000 0.53536 0.00000
0.00000 0.53588 0.00000
0.00000 0.53652 0.00000
0.00000 0.53718 0.00000
0.00000 0.53872 0.00000
0.00000 0.54115 0.00000
0.13918 0.54405 0.00000
0.26404 0.54625 0.00000
0.35753 0.54697 0.00000
0.44292 0.54698 0.00000
0.51848 0.54706 0.00000
0.59140 0.54668 0.00000
0.65886 0.54623 0.00000
0.72169 0.54539 0.00000
0.78090 0.54304 0.00000
0.83686 0.53844 0.00000
0.88691 0.53245 0.00000
0.93423 0.52462 0.00000
0.97657 0.51599 0.00000
1.00000 0.50629 0.00000
1.00000 0.49537 0.00000
1.00000 0.48580 0.00000
1.00000 0.47644 0.00000
1.00000 0.46621 0.00000
1.00000 0.45450 0.00000
1.00000 0.44331 0.00000
1.00000 0.43403 0.00000
1.00000 0.42698 0.00000
1.00000 0.42233 0.00000
0.00000 0.58463 0.00000
0.00000 0.58494 0.00000
0.00000 0.58528 0.00000
0.00000 0.58578 0.00000
0.00000 0.58641 0.00000
0.00000 0.58712 0.00000
0.00000 0.58795 0.00000
0.00000 0.58892 0.00000
0.00000 0.58997 0.00000
0.00598 0.59133 0.00000
0.22265 0.59242 0.00000
0.32742 0.59343 0.00000
0.41638 0.59371 0.00000
0.49079 0.59438 0.00000
0.56443 0.59471 0.00000
0.63220 0.59525 0.00000
0.69600 0.59495 0.00000
0.75571 0.59335 0.00000
0.81213 0.59037 0.00000
0.86248 0.58654 0.00000
0.91005 0.58129 0.00000
0.95398 0.57467 0.00000
0.99382 0.56693 0.00000
1.00000 0.55766 0.00000
1.00000 0.54884 0.00000
1.00000 0.53977 0.00000
1.00000 0.53052 0.00000
1.00000 0.52138 0.00000
1.00000 0.51115 0.00000
1.00000 0.50076 0.00000
1.00000 0.49125 0.00000
1.00000 0.48429 0.00000
0.00000 0.63236 0.00000
0.00000 0.63270 0.00000
0.00000 0.63308 0.00000
0.00000 0.63360 0.00000
0.00000 0.63425 0.00000
0.00000 0.63503 0.00000
0.00000 0.63590 0.00000
0.00000 0.63675 0.00000
0.00000 0.63755 0.00000
0.00000 0.63801 0.00000
0.14119 0.63837 0.00000
0.27951 0.63848 0.00000
0.38377 0.63803 0.00000
0.46028 0.63857 0.00000
0.53764 0.63879 0.00000
0.60760 0.63906 0.00000
0.67186 0.63904 0.00000
0.73147 0.63863 0.00000
0.78795 0.63715 0.00000
0.83835 0.63522 0.00000
0.88624 0.63204 0.00000
0.92991 0.62787 0.00000
0.97021 0.62245 0.00000
1.00000 0.61534 0.00000
1.00000 0.60726 0.00000
1.00000 0.59872 0.00000
1.00000 0.59040 0.00000
1.00000 0.58135 0.00000
1.00000 0.57169 0.00000
1.00000 0.56201 0.00000
1.00000 0.55227 0.00000
1.00000 0.54395 0.00000
0.00000 0.67671 0.00000
0.00000 0.67696 0.00000
0.00000 0.67723 0.00000
0.00000 0.67760 0.00000
0.00000 0.67807 0.00000
0.00000 0.67860 0.00000
0.00000 0.67915 0.00000
0.00000 0.67959 0.00000
0.00000 0.68015 0.00000
0.00000 0.68055 0.00000
0.00000 0.68120 0.00000
0.21701 0.68118 0.00000
0.34310 0.68092 0.00000
0.42656 0.68146 0.00000
0.50827 0.68140 0.00000
0.58079 0.68137 0.00000
0.64623 0.68152 0.00000
0.70663 0.68129 0.00000
0.76343 0.68091 0.00000
0.81425 0.68004 0.00000
0.86219 0.67841 0.00000
0.90584 0.67605 0.00000
0.94577 0.67255 0.00000
0.98401 0.66736 0.00000
1.00000 0.66086 0.00000
1.00000 0.65345 0.00000
1.00000 0.64565 0.00000
1.00000 0.63716 0.00000
1.00000 0.62831 0.00000
1.00000 0.61878 0.00000
1.00000 0.60961 0.00000
1.00000 0.60130 0.00000
0.00000 0.71914 0.00000
0.00000 0.71935 0.00000
0.00000 0.71959 0.00000
0.00000 0.71993 0.00000
0.00000 0.72036 0.00000
0.00000 0.72090 0.00000
0.00000 0.72145 0.00000
0.00000 0.72201 0.00000
0.00000 0.72253 0.00000
0.00000 0.72298 0.00000
0.00000 0.72362 0.00000
0.09506 0.72386 0.00000
0.28408 0.72341 0.00000
0.38572 0.72325 0.00000
0.47318 0.72278 0.00000
0.55077 0.72206 0.00000
0.61915 0.72135 0.00000
0.68160 0.72076 0.00000
0.73981 0.72030 0.00000
0.79137 0.71995 0.00000
0.83951 0.71897 0.00000
0.88330 0.71758 0.00000
0.92300 0.71542 0.00000
0.96164 0.71182 0.00000
0.99661 0.70688 0.00000
1.00000 0.70076 0.00000
1.00000 0.69343 0.00000
1.00000 0.68516 0.00000
1.00000 0.67713 0.00000
1.00000 0.66911 0.00000
1.00000 0.66106 0.00000
1.00000 0.65428 0.00000
0.00000 0.76068 0.00000
0.00000 0.76089 0.00000
0.00000 0.76112 0.00000
0.00000 0.76145 0.00000
0.00000 0.76186 0.00000
0.00000 0.76235 0.00000
0.00000 0.76283 0.00000
0.00000 0.76338 0.00000
0.00000 0.76378 0.00000
0.00000 0.76403 0.00000
0.00000 0.76423 0.00000
0.00000 0.76390 0.00000
0.19080 0.76280 0.00000
0.33032 0.76182 0.00000
0.43200 0.76057 0.00000
0.51799 0.75919 0.00000
0.59116 0.75821 0.00000
0.65660 0.75776 0.00000
0.71646 0.75754 0.00000
0.76905 0.75734 0.00000
0.81779 0.75670 0.00000
0.86197 0.75558 0.00000
0.90182 0.75375 0.00000
0.94031 0.75099 0.00000
0.97551 0.74730 0.00000
1.00000 0.74246 0.00000
1.00000 0.73625 0.00000
1.00000 0.72898 0.00000
1.00000 0.72159 0.00000
1.00000 0.71454 0.00000
1.00000 0.70742 0.00000
1.00000 0.70032 0.00000
0.00000 0.80032 0.00000
0.00000 0.80061 0.00000
0.00000 0.80093 0.00000
0.00000 0.80140 0.00000
0.00000 0.80204 0.00000
0.00000 0.80276 0.00000
0.00000 0.80345 0.00000
0.00000 0.80394 0.00000
0.00000 0.80417 0.00000
0.00000 0.80388 0.00000
0.00000 0.80327 0.00000
0.00000 0.80190 0.00000
0.00000 0.79992 0.00000
0.24059 0.79820 0.00000
0.37636 0.79604 0.00000
0.47669 0.79393 0.00000
0.55915 0.79241 0.00000
0.63049 0.79156 0.00000
0.69392 0.79108 0.00000
0.74834 0.79100 0.00000
0.79788 0.79053 0.00000
0.84252 0.78904 0.00000
0.88260 0.78724 0.00000
0.92088 0.78482 0.00000
0.95569 0.78196 0.00000
0.98527 0.77826 0.00000
1.00000 0.77337 0.00000
1.00000 0.76766 0.00000
1.00000 0.76143 0.00000
1.00000 0.75516 0.00000
1.00000 0.74893 0.00000
1.00000 0.74249 0.00000
0.00000 0.83649 0.00000
0.00000 0.83669 0.00000
0.00000 0.83691 0.00000
0.00000 0.83721 0.00000
0.00000 0.83756 0.00000
0.00000 0.83791 0.00000
0.00000 0.83816 0.00000
0.00000 0.83816 0.00000
0.00000 0.83801 0.00000
0.00000 0.83736 0.00000
0.00000 0.83652 0.00000
0.00000 0.83503 0.00000
0.00000 0.83298 0.00000
0.00000 0.83103 0.00000
0.29124 0.82841 0.00000
0.42117 0.82586 0.00000
0.52081 0.82352 0.00000
0.60173 0.82202 0.00000
0.67051 0.82124 0.00000
0.72780 0.82068 0.00000
0.77877 0.82005 0.00000
0.82382 0.81931 0.00000
0.86420 0.81802 0.00000
0.90221 0.81640 0.00000
0.93661 0.81431 0.00000
0.96570 0.81162 0.00000
0.98961 0.80794 0.00000
1.00000 0.80330 0.00000
1.00000 0.79796 0.00000
1.00000 0.79233 0.00000
1.00000 0.78616 0.00000
1.00000 0.78066 0.00000
0.00000 0.86602 0.00000
0.00000 0.86618 0.00000
0.00000 0.86637 0.00000
0.00000 0.86662 0.00000
0.00000 0.86694 0.00000
0.00000 0.86721 0.00000
0.00000 0.86743 0.00000
0.00000 0.86748 0.00000
0.00000 0.86743 0.00000
0.00000 0.86694 0.00000
0.00000 0.86607 0.00000
0.00000 0.86486 0.00000
0.00000 0.86313 0.00000
0.00000 0.86092 0.00000
0.16020 0.85831 0.00000
0.35196 0.85574 0.00000
0.47395 0.85314 0.00000
0.56632 0.85101 0.00000
0.64332 0.84935 0.00000
0.70543 0.84839 0.00000
0.75890 0.84767 0.00000
0.80526 0.84706 0.00000
0.84631 0.84646 0.00000
0.88445 0.84541 0.00000
0.91903 0.84381 0.00000
0.94821 0.84172 0.00000
0.97312 0.83884 0.00000
0.99262 0.83528 0.00000
1.00000 0.83123 0.00000
1.00000 0.82669 0.00000
1.00000 0.82187 0.00000
1.00000 0.81730 0.00000
0.00000 0.89322 0.00000
0.00000 0.89335 0.00000
0.00000 0.89349 0.00000
0.00000 0.89368 0.00000
0.00000 0.89392 0.00000
0.00000 0.89416 0.00000
0.00000 0.89436 0.00000
0.00000 0.89443 0.00000
0.00000 0.89445 0.00000
0.00000 0.89403 0.00000
0.00000 0.89325 0.00000
0.00000 0.89222 0.00000
0.00000 0.89058 0.00000
0.00000 0.88836 0.00000
0.00000 0.88574 0.00000
0.26411 0.88331 0.00000
0.42006 0.88042 0.00000
0.52560 0.87788 0.00000
0.61164 0.87557 0.00000
0.68073 0.87409 0.00000
0.73793 0.87353 0.00000
0.78686 0.87304 0.00000
0.82914 0.87269 0.00000
0.86778 0.87219 0.00000
0.90266 0.87111 0.00000
0.93230 0.86946 0.00000
0.95817 0.86728 0.00000
0.97905 0.86463 0.00000
0.99506 0.86144 0.00000
1.00000 0.85770 0.00000
1.00000 0.85385 0.00000
1.00000 0.85025 0.00000
0.00000 0.91790 0.00000
0.00000 0.91800 0.00000
0.00000 0.91811 0.00000
0.00000 0.91826 0.00000
0.00000 0.91845 0.00000
0.00000 0.91863 0.00000
0.00000 0.91886 0.00000
0.00000 0.91900 0.00000
0.00000 0.91910 0.00000
0.00000 0.91882 0.00000
0.00000 0.91817 0.00000
0.00000 0.91731 0.00000
0.00000 0.91581 0.00000
0.00000 0.91365 0.00000
0.00000 0.91119 0.00000
0.12301 0.90871 0.00000
0.35524 0.90572 0.00000
0.47800 0.90314 0.00000
0.57456 0.90068 0.00000
0.65234 0.89873 0.00000
0.71535 0.89755 0.00000
0.76790 0.89711 0.00000
0.81194 0.89729 0.00000
0.85117 0.89754 0.00000
0.88646 0.89726 0.00000
0.91711 0.89668 0.00000
0.94424 0.89559 0.00000
0.96625 0.89384 0.00000
0.98448 0.89130 0.00000
0.99800 0.88837 0.00000
1.00000 0.88536 0.00000
1.00000 0.88219 0.00000
0.00000 0.94086 0.00000
0.00000 0.94097 0.00000
0.00000 0.94110 0.00000
0.00000 0.94127 0.00000
0.00000 0.94148 0.00000
0.00000 0.94170 0.00000
0.00000 0.94187 0.00000
0.00000 0.94195 0.00000
0.00000 0.94199 0.00000
0.00000 0.94165 0.00000
0.00000 0.94102 0.00000
0.00000 0.94015 0.00000
0.00000 0.93873 0.00000
0.00000 0.93659 0.00000
0.00000 0.93434 0.00000
0.00000 0.93169 0.00000
0.27277 0.92883 0.00000
0.42412 0.92631 0.00000
0.53241 0.92413 0.00000
0.61941 0.92257 0.00000
0.68838 0.92192 0.00000
0.74555 0.92198 0.00000
0.79260 0.92252 0.00000
0.83383 0.92338 0.00000
0.87104 0.92400 0.00000
0.90355 0.92428 0.00000
0.93135 0.92381 0.00000
0.95409 0.92264 0.00000
0.97426 0.92089 0.00000
0.98989 0.91924 0.00000
1.00000 0.91719 0.00000
1.00000 0.91346 0.00000
0.00000 0.96066 0.00000
0.00000 0.96077 0.00000
0.00000 0.96091 0.00000
0.00000 0.96110 0.00000
0.00000 0.96132 0.00000
0.00000 0.96156 0.00000
0.00000 0.96169 0.00000
0.00000 0.96172 0.00000
0.00000 0.96163 0.00000
0.00000 0.96120 0.00000
0.00000 0.96045 0.00000
0.00000 0.95955 0.00000
0.00000 0.95821 0.00000
0.00000 0.95622 0.00000
0.00000 0.95438 0.00000
0.00000 0.95197 0.00000
0.14938 0.94959 0.00000
0.36294 0.94753 0.00000
0.48850 0.94604 0.00000
0.58550 0.94535 0.00000
0.66094 0.94542 0.00000
0.72227 0.94644 0.00000
0.77243 0.94737 0.00000
0.81613 0.94854 0.00000
0.85490 0.94945 0.00000
0.88902 0.94976 0.00000
0.91756 0.94941 0.00000
0.93997 0.94868 0.00000
0.96138 0.94788 0.00000
0.97992 0.94756 0.00000
0.98897 0.94417 0.00000
0.98964 0.93891 0.00000
0.00000 0.97475 0.00000
0.00000 0.97475 0.00000
0.00000 0.97474 0.00000
0.00000 0.97471 0.00000
0.00000 0.97465 0.00000
0.00000 0.97452 0.00000
0.00000 0.97430 0.00000
0.00000 0.97399 0.00000
0.00000 0.97350 0.00000
0.00000 0.97276 0.00000
0.00000 0.97181 0.00000
0.00000 0.97094 0.00000
0.00000 0.96995 0.00000
0.00000 0.96868 0.00000
0.00000 0.96791 0.00000
0.00000 0.96688 0.00000
0.00000 0.96618 0.00000
0.32602 0.96615 0.00000
0.46155 0.96627 0.00000
0.56091 0.96667 0.00000
0.63654 0.96758 0.00000
0.69843 0.96853 0.00000
0.74894 0.96980 0.00000
0.79283 0.97118 0.00000
0.83249 0.97190 0.00000
0.86541 0.97222 0.00000
0.89231 0.97267 0.00000
0.91469 0.97260 0.00000
0.93531 0.97153 0.00000
0.95023 0.96910 0.00000
0.95928 0.96432 0.00000
0.96536 0.95848 0.00000
0.00000 0.98478 0.00000
0.00000 0.98471 0.00000
0.00000 0.98463 0.00000
0.00000 0.98450 0.00000
0.00000 0.98432 0.00000
0.00000 0.98420 0.00000
0.00000 0.98398 0.00000
0.00000 0.98369 0.00000
0.00000 0.98346 0.00000
0.00000 0.98323 0.00000
0.00000 0.98290 0.00000
0.00000 0.98302 0.00000
0.00000 0.98294 0.00000
0.00000 0.98332 0.00000
0.00000 0.98319 0.00000
0.00000 0.98370 0.00000
0.16117 0.98418 0.00000
0.34840 0.98482 0.00000
0.46166 0.98548 0.00000
0.54694 0.98684 0.00000
0.61566 0.98793 0.00000
0.67336 0.98912 0.00000
0.72192 0.99068 0.00000
0.76367 0.99175 0.00000
0.80064 0.99302 0.00000
0.83267 0.99283 0.00000
0.85965 0.99264 0.00000
0.88156 0.99179 0.00000
0.89995 0.98969 0.00000
0.91550 0.98602 0.00000
0.92846 0.98147 0.00000
0.93989 0.97484 0.00000
0.00000 0.99892 0.00000
0.00000 0.99896 0.00000
0.00000 0.99895 0.00000
0.00000 0.99891 0.00000
