fuji-film/cube-lut/srgb/srgb-astia.cube
LUT_3D_SIZE 5
DOMAIN_MIN 0.000000 0.000000 0.000000
DOMAIN_MAX 0.903226 0.903226 0.903226
0.00000 0.00000 0.00000
0.23465 0.00534 0.00000
0.70739 0.00000 0.00000
1.00000 0.00000 0.10890
1.00000 0.00000 0.00000
0.00000 0.18617 0.00000
0.21776 0.21261 0.00000
0.70941 0.20509 0.00000
1.00000 0.00000 0.00000
1.00000 0.00000 0.00000
0.00000 0.60854 0.00000
0.00000 0.61535 0.00000
0.59380 0.61995 0.00000
0.93316 0.58754 0.00000
1.00000 0.50220 0.00000
0.00000 0.84825 0.00000
0.00000 0.85381 0.00000
0.39217 0.85612 0.00000
0.81880 0.85271 0.00000
1.00000 0.84494 0.00000
0.00000 0.98795 0.00000
0.00000 0.99174 0.00000
0.27117 1.00000 0.00000
0.69279 1.00000 0.00000
0.87264 1.00000 0.11668
0.00000 0.00230 0.27220
0.25668 0.01588 0.27164
0.71702 0.00000 0.29999
1.00000 0.00000 0.41743
1.00000 0.00000 0.34609
0.00000 0.22652 0.24631
0.24015 0.24025 0.23978
0.70114 0.25941 0.27001
0.99205 0.18494 0.35457
1.00000 0.03002 0.32083
0.00000 0.60882 0.19110
0.00000 0.61668 0.16214
0.60456 0.62888 0.19939
0.91578 0.62015 0.25135
1.00000 0.53128 0.24465
0.00000 0.83957 0.19928
0.00000 0.84605 0.15870
0.45835 0.85063 0.15979
0.82639 0.85166 0.20782
1.00000 0.84485 0.25581
0.00000 0.98910 0.29953
0.00000 0.99296 0.28253
0.31571 1.00000 0.27478
0.70143 1.00000 0.29015
0.87625 1.00000 0.31878
0.00000 0.00000 0.85080
0.23062 0.00000 0.84478
0.73498 0.00000 0.79051
0.99268 0.00825 0.77647
1.00000 0.09454 0.76105
0.00000 0.29220 0.80483
0.30613 0.31913 0.75979
0.70716 0.33965 0.70360
0.96277 0.35332 0.71915
1.00000 0.35236 0.74882
0.00000 0.60963 0.71648
0.00000 0.61520 0.68144
0.62849 0.62797 0.62817
0.90767 0.63297 0.63469
1.00000 0.65004 0.67021
0.00000 0.82270 0.67031
0.00000 0.82701 0.63819
0.52113 0.83469 0.58249
0.83612 0.84325 0.58576
1.00000 0.84397 0.64091
0.00000 0.98958 0.62446
0.00000 0.99417 0.61246
0.42052 1.00000 0.58960
0.72074 1.00000 0.57906
0.88320 1.00000 0.58765
0.00000 0.00000 1.00000
0.12732 0.00000 1.00000
0.67866 0.00000 1.00000
0.98486 0.05490 1.00000
1.00000 0.24601 0.98551
0.00000 0.28854 1.00000
0.18833 0.30767 1.00000
0.69653 0.34190 0.99876
0.96389 0.42516 0.97500
1.00000 0.43523 0.95571
0.00000 0.64203 0.99568
0.24971 0.65164 0.98147
0.64929 0.66981 0.92947
0.90460 0.68252 0.89536
1.00000 0.69834 0.88837
0.00000 0.83144 0.96393
0.00000 0.83559 0.94290
0.55583 0.84129 0.89043
0.84778 0.84761 0.84780
1.00000 0.84765 0.84303
0.00000 0.98504 0.85133
0.21166 0.98815 0.84467
0.52085 0.99894 0.82785
0.74833 1.00000 0.81384
0.90863 1.00000 0.80961
0.00000 0.16648 1.00000
0.00000 0.15098 1.00000
0.61531 0.12521 1.00000
0.94540 0.00000 1.00000
1.00000 0.29540 1.00000
0.00000 0.33724 1.00000
0.00000 0.33020 1.00000
0.63297 0.33964 1.00000
0.93838 0.38010 1.00000
1.00000 0.49024 1.00000
0.26824 0.69800 1.00000
0.46526 0.71063 1.00000
0.68798 0.71134 1.00000
0.90058 0.73772 1.00000
1.00000 0.75771 1.00000
0.15419 0.83497 1.00000
0.37033 0.83874 1.00000
0.63236 0.84819 1.00000
0.84908 0.86805 1.00000
1.00000 0.87540 1.00000
0.40524 0.96455 0.98653
0.47488 0.96787 0.98568
0.62415 0.97645 0.98368
0.80027 0.98451 0.98198
0.97691 0.97701 0.97695
