fuji-film/cube-lut/srgb/srgb-velvia.cube
LUT_3D_SIZE 32
0.00000 0.00000 0.00000
0.00051 0.00003 0.00000
0.00770 0.00000 0.00000
0.02596 0.00000 0.00000
0.05759 0.00000 0.00000
0.09362 0.00000 0.00000
0.14400 0.00000 0.00000
0.21264 0.00000 0.00000
0.29720 0.00000 0.00000
0.38657 0.00000 0.00000
0.47761 0.00000 0.00000
0.56141 0.00000 0.00000
0.63875 0.00000 0.00000
0.71326 0.00000 0.00000
0.78024 0.00000 0.00000
0.84142 0.00000 0.00000
0.89689 0.00000 0.00000
0.94810 0.00000 0.00000
0.99518 0.00000 0.00000
1.00000 0.00000 0.00000
1.00000 0.00000 0.00000
1.00000 0.00000 0.00000
1.00000 0.00000 0.03493
1.00000 0.00000 0.08679
1.00000 0.00000 0.12471
1.00000 0.00000 0.13866
1.00000 0.00000 0.13235
1.00000 0.00000 0.06422
1.00000 0.00000 0.00000
1.00000 0.00000 0.00000
1.00000 0.00000 0.00000
1.00000 0.00000 0.00000
0.00000 0.00136 0.00000
0.00051 0.00065 0.00000
0.00358 0.00086 0.00000
0.01685 0.00149 0.00000
0.04354 0.00203 0.00000
0.08302 0.00210 0.00000
0.13835 0.00002 0.00000
0.20955 0.00000 0.00000
0.29756 0.00000 0.00000
0.38882 0.00000 0.00000
0.47912 0.00000 0.00000
0.56403 0.00000 0.00000
0.64102 0.00000 0.00000
0.71448 0.00000 0.00000
0.78145 0.00000 0.00000
0.84198 0.00000 0.00000
0.89734 0.00000 0.00000
0.94868 0.00000 0.00000
0.99620 0.00000 0.00000
1.00000 0.00000 0.00000
1.00000 0.00000 0.00000
1.00000 0.00000 0.00000
1.00000 0.00000 0.00000
1.00000 0.00000 0.05441
1.00000 0.00000 0.09525
1.00000 0.00000 0.12098
1.00000 0.00000 0.10594
1.00000 0.00000 0.00340
1.00000 0.00000 0.00000
1.00000 0.00000 0.00000
1.00000 0.00000 0.00000
1.00000 0.00000 0.00000
0.00000 0.00384 0.00000
0.00194 0.00284 0.00000
0.00581 0.00419 0.00000
0.01634 0.00676 0.00000
0.04008 0.00874 0.00000
0.08039 0.00861 0.00000
0.13667 0.00910 0.00000
0.20943 0.00810 0.00000
0.29909 0.00000 0.00000
0.39144 0.00000 0.00000
0.48095 0.00000 0.00000
0.56681 0.00000 0.00000
0.64338 0.00000 0.00000
0.71594 0.00000 0.00000
0.78232 0.00000 0.00000
0.84235 0.00000 0.00000
0.89768 0.00000 0.00000
0.94924 0.00000 0.00000
0.99737 0.00000 0.00000
1.00000 0.00000 0.00000
1.00000 0.00000 0.00000
1.00000 0.00000 0.00000
1.00000 0.00000 0.00000
1.00000 0.00000 0.00000
1.00000 0.00000 0.05681
1.00000 0.00000 0.08210
1.00000 0.00000 0.06068
1.00000 0.00000 0.00000
1.00000 0.00000 0.00000
1.00000 0.00000 0.00000
1.00000 0.00000 0.00000
1.00000 0.00000 0.00000
0.00000 0.02077 0.00000
0.00000 0.02003 0.00000
0.00000 0.02002 0.00000
0.01147 0.02070 0.00000
0.03916 0.02218 0.00000
0.08175 0.02359 0.00000
0.13854 0.02390 0.00000
0.21221 0.02421 0.00000
0.30174 0.02025 0.00000
0.39435 0.01077 0.00000
0.48330 0.00201 0.00000
0.57027 0.00000 0.00000
0.64584 0.00000 0.00000
0.71777 0.00000 0.00000
0.78270 0.00000 0.00000
0.84243 0.00000 0.00000
0.89779 0.00000 0.00000
0.94988 0.00000 0.00000
0.99898 0.00000 0.00000
1.00000 0.00000 0.00000
1.00000 0.00000 0.00000
1.00000 0.00000 0.00000
1.00000 0.00000 0.00000
1.00000 0.00000 0.00000
1.00000 0.00000 0.00000
1.00000 0.00000 0.00520
1.00000 0.00000 0.00000
1.00000 0.00000 0.00000
1.00000 0.00000 0.00000
1.00000 0.00000 0.00000
1.00000 0.00000 0.00000
1.00000 0.00000 0.00000
0.00000 0.05558 0.00000
0.00000 0.05325 0.00000
0.00000 0.05148 0.00000
0.00000 0.05042 0.00000
0.03275 0.04989 0.00000
0.08200 0.04951 0.00000
0.13868 0.05175 0.00000
0.21411 0.05323 0.00000
0.30236 0.05499 0.00000
0.39640 0.05479 0.00000
0.48578 0.05322 0.00000
0.57391 0.04145 0.00000
0.64742 0.03298 0.00000
0.71823 0.00000 0.00000
0.78183 0.00000 0.00000
0.84142 0.00000 0.00000
0.89708 0.00000 0.00000
0.95038 0.00000 0.00000
1.00000 0.00000 0.00000
1.00000 0.00000 0.00000
1.00000 0.00000 0.00000
1.00000 0.00000 0.00000
1.00000 0.00000 0.00000
1.00000 0.00000 0.00000
1.00000 0.00000 0.00000
1.00000 0.00000 0.00000
1.00000 0.00000 0.00000
1.00000 0.00000 0.00000
1.00000 0.00000 0.00000
1.00000 0.00000 0.00000
1.00000 0.00000 0.00000
1.00000 0.00000 0.00000
0.00000 0.09146 0.00000
0.00000 0.08961 0.00000
0.00000 0.08809 0.00000
0.00000 0.08679 0.00000
0.00957 0.08568 0.00000
0.06549 0.08513 0.00000
0.12917 0.08765 0.00000
0.20878 0.09225 0.00000
0.29953 0.10006 0.00000
0.39846 0.10410 0.00000
0.48709 0.11048 0.00000
0.57411 0.10799 0.00000
0.64657 0.09503 0.00000
0.71500 0.09462 0.00000
0.77822 0.08272 0.00000
0.83796 0.05855 0.00000
0.89464 0.00607 0.00000
0.95014 0.00000 0.00000
1.00000 0.00000 0.00000
1.00000 0.00000 0.00000
1.00000 0.00000 0.00000
1.00000 0.00000 0.00000
1.00000 0.00000 0.00000
1.00000 0.00000 0.00000
1.00000 0.00000 0.00000
1.00000 0.00000 0.00000
1.00000 0.00000 0.00000
1.00000 0.00000 0.00000
1.00000 0.00000 0.00000
1.00000 0.00000 0.00000
1.00000 0.00000 0.00000
1.00000 0.00000 0.00000
0.00000 0.13958 0.00000
0.00000 0.13850 0.00000
0.00000 0.13757 0.00000
0.00000 0.13653 0.00000
0.00000 0.13500 0.00000
0.00243 0.13466 0.00000
0.10372 0.14028 0.00000
0.20863 0.14738 0.00000
0.30156 0.16183 0.00000
0.39933 0.16263 0.00000
0.48575 0.16624 0.00000
0.57019 0.16208 0.00000
0.63931 0.16585 0.00000
0.70699 0.16372 0.00000
0.76999 0.15803 0.00000
0.83018 0.14756 0.00000
0.88887 0.13026 0.00000
0.94737 0.09945 0.00000
1.00000 0.04273 0.00000
1.00000 0.00000 0.00000
1.00000 0.00000 0.00000
1.00000 0.00000 0.00000
1.00000 0.00000 0.00000
1.00000 0.00000 0.00000
1.00000 0.00000 0.00000
1.00000 0.00000 0.00000
1.00000 0.00000 0.00000
1.00000 0.00000 0.00000
1.00000 0.00000 0.00000
1.00000 0.00000 0.00000
1.00000 0.00000 0.00000
1.00000 0.00000 0.00000
0.00000 0.20841 0.00000
0.00000 0.20824 0.00000
0.00000 0.20819 0.00000
0.00000 0.20841 0.00000
0.00000 0.20911 0.00000
0.00000 0.21077 0.00000
0.11375 0.21599 0.00000
0.21323 0.22217 0.00000
0.30710 0.22288 0.00000
0.39417 0.22876 0.00000
0.47659 0.23155 0.00000
0.55815 0.23039 0.00000
0.62629 0.23062 0.00000
0.69360 0.22923 0.00000
0.75613 0.22893 0.00000
0.81651 0.22633 0.00000
0.87878 0.20872 0.00000
0.94045 0.18164 0.00000
0.99516 0.15388 0.00000
1.00000 0.11587 0.00000
1.00000 0.06761 0.00000
1.00000 0.00324 0.00000
1.00000 0.00000 0.00000
1.00000 0.00000 0.00000
1.00000 0.00000 0.00000
1.00000 0.00000 0.00000
1.00000 0.00000 0.00000
1.00000 0.00000 0.00000
1.00000 0.00000 0.00000
1.00000 0.00000 0.00000
1.00000 0.00000 0.00000
1.00000 0.00000 0.00000
0.00000 0.28019 0.00000
0.00000 0.28102 0.00000
0.00000 0.28199 0.00000
0.00000 0.28337 0.00000
0.00000 0.28543 0.00000
0.00000 0.28828 0.00000
0.07849 0.29161 0.00000
0.20127 0.29479 0.00000
0.29171 0.29726 0.00000
0.37782 0.29808 0.00000
0.45899 0.29807 0.00000
0.53938 0.29771 0.00000
0.60634 0.30107 0.00000
0.67446 0.29884 0.00000
0.73789 0.29420 0.00000
0.79999 0.28936 0.00000
0.86311 0.27895 0.00000
0.92527 0.26249 0.00000
0.98203 0.24004 0.00000
1.00000 0.21207 0.00000
1.00000 0.18791 0.00000
1.00000 0.16504 0.00000
1.00000 0.14031 0.00000
1.00000 0.11725 0.00000
1.00000 0.09802 0.00000
1.00000 0.08218 0.00000
1.00000 0.06791 0.00000
1.00000 0.05407 0.00000
1.00000 0.03699 0.00000
1.00000 0.02079 0.00000
1.00000 0.00544 0.00000
1.00000 0.02250 0.00000
0.00000 0.35317 0.00000
0.00000 0.35414 0.00000
0.00000 0.35530 0.00000
0.00000 0.35703 0.00000
0.00000 0.35929 0.00000
0.00000 0.36201 0.00000
0.00000 0.36494 0.00000
0.13903 0.36779 0.00000
0.25839 0.36725 0.00000
0.35059 0.36559 0.00000
0.43321 0.36397 0.00000
0.51437 0.36357 0.00000
0.58236 0.36502 0.00000
0.65187 0.36411 0.00000
0.71553 0.36199 0.00000
0.77885 0.35742 0.00000
0.84207 0.34947 0.00000
0.90455 0.33564 0.00000
0.96335 0.31507 0.00000
1.00000 0.29432 0.00000
1.00000 0.27546 0.00000
1.00000 0.25724 0.00000
1.00000 0.23973 0.00000
1.00000 0.22430 0.00000
1.00000 0.21054 0.00000
1.00000 0.19724 0.00000
1.00000 0.18607 0.00000
1.00000 0.17623 0.00000
1.00000 0.16840 0.00000
1.00000 0.16080 0.00000
1.00000 0.15445 0.00000
1.00000 0.16065 0.00000
0.00000 0.42208 0.00000
0.00000 0.42289 0.00000
0.00000 0.42373 0.00000
0.00000 0.42492 0.00000
0.00000 0.42632 0.00000
0.00000 0.42787 0.00000
0.00000 0.42930 0.00000
0.01578 0.43031 0.00000
0.21044 0.43021 0.00000
0.31269 0.43005 0.00000
0.39814 0.43017 0.00000
0.48230 0.42990 0.00000
0.55323 0.42922 0.00000
0.62562 0.42647 0.00000
0.69145 0.42301 0.00000
0.75611 0.41702 0.00000
0.82017 0.40812 0.00000
0.88211 0.39575 0.00000
0.94153 0.38008 0.00000
0.99406 0.36529 0.00000
1.00000 0.35078 0.00000
1.00000 0.33483 0.00000
1.00000 0.31787 0.00000
1.00000 0.30138 0.00000
1.00000 0.28646 0.00000
1.00000 0.27337 0.00000
1.00000 0.26280 0.00000
1.00000 0.25421 0.00000
1.00000 0.24762 0.00000
1.00000 0.24165 0.00000
1.00000 0.23766 0.00000
1.00000 0.24096 0.00000
0.00000 0.48595 0.00000
0.00000 0.48647 0.00000
0.00000 0.48703 0.00000
0.00000 0.48774 0.00000
0.00000 0.48849 0.00000
0.00000 0.48901 0.00000
0.00000 0.48926 0.00000
0.00000 0.48888 0.00000
0.13251 0.48791 0.00000
0.26628 0.48652 0.00000
0.36049 0.48527 0.00000
0.45013 0.48376 0.00000
0.52376 0.48312 0.00000
0.59786 0.48170 0.00000
0.66529 0.47899 0.00000
0.73093 0.47430 0.00000
0.79552 0.46720 0.00000
0.85714 0.45762 0.00000
0.91503 0.44690 0.00000
0.96885 0.43566 0.00000
1.00000 0.42392 0.00000
1.00000 0.41020 0.00000
1.00000 0.39515 0.00000
1.00000 0.37939 0.00000
1.00000 0.36366 0.00000
1.00000 0.34945 0.00000
1.00000 0.33701 0.00000
1.00000 0.32593 0.00000
1.00000 0.31726 0.00000
1.00000 0.30967 0.00000
1.00000 0.30510 0.00000
1.00000 0.30776 0.00000
0.00000 0.54021 0.00000
0.00000 0.54048 0.00000
0.00000 0.54072 0.00000
0.00000 0.54103 0.00000
0.00000 0.54114 0.00000
0.00000 0.54130 0.00000
0.00000 0.54149 0.00000
0.00000 0.54091 0.00000
0.00000 0.54037 0.00000
0.20475 0.53925 0.00000
0.31431 0.53843 0.00000
0.41227 0.53678 0.00000
0.49012 0.53536 0.00000
0.56744 0.53297 0.00000
0.63698 0.53027 0.00000
0.70371 0.52640 0.00000
0.76885 0.52060 0.00000
0.83040 0.51350 0.00000
0.88781 0.50557 0.00000
0.94232 0.49675 0.00000
0.99084 0.48751 0.00000
1.00000 0.47653 0.00000
1.00000 0.46387 0.00000
1.00000 0.44995 0.00000
1.00000 0.43537 0.00000
1.00000 0.42114 0.00000
1.00000 0.40850 0.00000
1.00000 0.39785 0.00000
1.00000 0.38798 0.00000
1.00000 0.37917 0.00000
1.00000 0.37397 0.00000
1.00000 0.37516 0.00000
0.00000 0.58842 0.00000
0.00000 0.58857 0.00000
0.00000 0.58864 0.00000
0.00000 0.58870 0.00000
0.00000 0.58897 0.00000
0.00000 0.58902 0.00000
0.00000 0.58895 0.00000
0.00000 0.58856 0.00000
0.00000 0.58800 0.00000
0.11229 0.58674 0.00000
0.26137 0.58576 0.00000
0.37132 0.58403 0.00000
0.45337 0.58276 0.00000
0.53412 0.58068 0.00000
0.60610 0.57829 0.00000
0.67459 0.57471 0.00000
0.74022 0.57008 0.00000
0.80186 0.56496 0.00000
0.86010 0.55917 0.00000
0.91482 0.55271 0.00000
0.96544 0.54603 0.00000
1.00000 0.53805 0.00000
1.00000 0.52761 0.00000
1.00000 0.51542 0.00000
1.00000 0.50243 0.00000
1.00000 0.48930 0.00000
1.00000 0.47635 0.00000
1.00000 0.46423 0.00000
1.00000 0.45327 0.00000
1.00000 0.44396 0.00000
1.00000 0.43809 0.00000
1.00000 0.43799 0.00000
0.00000 0.63453 0.00000
0.00000 0.63456 0.00000
0.00000 0.63473 0.00000
0.00000 0.63483 0.00000
0.00000 0.63488 0.00000
0.00000 0.63499 0.00000
0.00000 0.63471 0.00000
0.00000 0.63438 0.00000
0.00000 0.63379 0.00000
0.00000 0.63284 0.00000
0.18516 0.63175 0.00000
0.32183 0.63002 0.00000
0.41171 0.62857 0.00000
0.49868 0.62580 0.00000
0.57442 0.62250 0.00000
0.64492 0.61887 0.00000
0.71117 0.61545 0.00000
0.77301 0.61199 0.00000
0.83237 0.60800 0.00000
0.88796 0.60371 0.00000
0.94084 0.59948 0.00000
0.98871 0.59361 0.00000
1.00000 0.58528 0.00000
1.00000 0.57520 0.00000
1.00000 0.56390 0.00000
1.00000 0.55203 0.00000
1.00000 0.54017 0.00000
1.00000 0.52836 0.00000
1.00000 0.51713 0.00000
1.00000 0.50750 0.00000
1.00000 0.50099 0.00000
1.00000 0.50019 0.00000
0.00000 0.67985 0.00000
0.00000 0.67989 0.00000
0.00000 0.67988 0.00000
0.00000 0.68014 0.00000
0.00000 0.68026 0.00000
0.00000 0.68010 0.00000
0.00000 0.67985 0.00000
0.00000 0.67943 0.00000
0.00000 0.67853 0.00000
0.00000 0.67766 0.00000
0.02500 0.67605 0.00000
0.26054 0.67392 0.00000
0.36786 0.67170 0.00000
0.46217 0.66841 0.00000
0.54147 0.66496 0.00000
0.61391 0.66165 0.00000
0.68139 0.65842 0.00000
0.74479 0.65518 0.00000
0.80595 0.65195 0.00000
0.86236 0.64921 0.00000
0.91577 0.64609 0.00000
0.96540 0.64174 0.00000
1.00000 0.63539 0.00000
1.00000 0.62751 0.00000
1.00000 0.61837 0.00000
1.00000 0.60868 0.00000
1.00000 0.59861 0.00000
1.00000 0.58867 0.00000
1.00000 0.57870 0.00000
1.00000 0.56961 0.00000
1.00000 0.56295 0.00000
1.00000 0.56165 0.00000
0.00000 0.72269 0.00000
0.00000 0.72279 0.00000
0.00000 0.72288 0.00000
0.00000 0.72276 0.00000
0.00000 0.72255 0.00000
0.00000 0.72226 0.00000
0.00000 0.72178 0.00000
0.00000 0.72100 0.00000
0.00000 0.71959 0.00000
0.00000 0.71828 0.00000
0.00000 0.71621 0.00000
0.18296 0.71378 0.00000
0.31910 0.71132 0.00000
0.42240 0.70825 0.00000
0.50597 0.70507 0.00000
0.58184 0.70171 0.00000
0.65201 0.69847 0.00000
0.71739 0.69563 0.00000
0.77932 0.69324 0.00000
0.83612 0.69140 0.00000
0.88991 0.68870 0.00000
0.93925 0.68514 0.00000
0.98368 0.68010 0.00000
1.00000 0.67393 0.00000
1.00000 0.66688 0.00000
1.00000 0.65954 0.00000
1.00000 0.65154 0.00000
1.00000 0.64261 0.00000
1.00000 0.63446 0.00000
1.00000 0.62724 0.00000
1.00000 0.62162 0.00000
1.00000 0.61998 0.00000
0.00000 0.76202 0.00000
0.00000 0.76189 0.00000
0.00000 0.76172 0.00000
0.00000 0.76149 0.00000
0.00000 0.76117 0.00000
0.00000 0.76070 0.00000
0.00000 0.76003 0.00000
0.00000 0.75897 0.00000
0.00000 0.75767 0.00000
0.00000 0.75601 0.00000
0.00000 0.75384 0.00000
0.00418 0.75140 0.00000
0.25777 0.74876 0.00000
0.37835 0.74558 0.00000
0.46939 0.74242 0.00000
0.54974 0.73919 0.00000
0.62270 0.73616 0.00000
0.69017 0.73359 0.00000
0.75268 0.73176 0.00000
0.80992 0.73013 0.00000
0.86387 0.72803 0.00000
0.91272 0.72519 0.00000
0.95784 0.72119 0.00000
0.99451 0.71622 0.00000
1.00000 0.71043 0.00000
1.00000 0.70427 0.00000
1.00000 0.69770 0.00000
1.00000 0.69083 0.00000
1.00000 0.68433 0.00000
1.00000 0.67861 0.00000
1.00000 0.67452 0.00000
1.00000 0.67293 0.00000
0.00000 0.79704 0.00000
0.00000 0.79693 0.00000
0.00000 0.79680 0.00000
0.00000 0.79660 0.00000
0.00000 0.79629 0.00000
0.00000 0.79588 0.00000
0.00000 0.79523 0.00000
0.00000 0.79416 0.00000
0.00000 0.79323 0.00000
0.00000 0.79159 0.00000
0.00000 0.78951 0.00000
0.00000 0.78732 0.00000
0.17065 0.78481 0.00000
0.32587 0.78195 0.00000
0.42750 0.77927 0.00000
0.51320 0.77676 0.00000
0.58925 0.77457 0.00000
0.65940 0.77247 0.00000
0.72380 0.77056 0.00000
0.78212 0.76872 0.00000
0.83717 0.76647 0.00000
0.88612 0.76389 0.00000
0.93133 0.76040 0.00000
0.96926 0.75607 0.00000
0.99687 0.75121 0.00000
1.00000 0.74588 0.00000
1.00000 0.74040 0.00000
1.00000 0.73524 0.00000
1.00000 0.73043 0.00000
1.00000 0.72611 0.00000
1.00000 0.72304 0.00000
1.00000 0.72177 0.00000
0.00000 0.83111 0.00000
0.00000 0.83103 0.00000
0.00000 0.83094 0.00000
0.00000 0.83078 0.00000
0.00000 0.83057 0.00000
0.00000 0.83022 0.00000
0.00000 0.82964 0.00000
0.00000 0.82885 0.00000
0.00000 0.82804 0.00000
0.00000 0.82669 0.00000
0.00000 0.82487 0.00000
0.00000 0.82308 0.00000
0.00000 0.82090 0.00000
0.25247 0.81851 0.00000
0.37442 0.81628 0.00000
0.46940 0.81426 0.00000
0.55097 0.81246 0.00000
0.62505 0.81065 0.00000
0.69211 0.80880 0.00000
0.75241 0.80697 0.00000
0.80866 0.80482 0.00000
0.85764 0.80254 0.00000
0.90279 0.79944 0.00000
0.94147 0.79563 0.00000
0.97103 0.79135 0.00000
0.99251 0.78660 0.00000
1.00000 0.78171 0.00000
1.00000 0.77702 0.00000
1.00000 0.77272 0.00000
1.00000 0.76934 0.00000
1.00000 0.76734 0.00000
1.00000 0.76677 0.00000
0.00000 0.86487 0.00000
0.00000 0.86485 0.00000
0.00000 0.86483 0.00000
0.00000 0.86479 0.00000
0.00000 0.86469 0.00000
0.00000 0.86447 0.00000
0.00000 0.86402 0.00000
0.00000 0.86371 0.00000
0.00000 0.86303 0.00000
0.00000 0.86207 0.00000
0.00000 0.86068 0.00000
0.00000 0.85944 0.00000
0.00000 0.85779 0.00000
0.11975 0.85604 0.00000
0.30311 0.85442 0.00000
0.41533 0.85286 0.00000
0.50541 0.85138 0.00000
0.58506 0.84979 0.00000
0.65573 0.84807 0.00000
0.71841 0.84628 0.00000
0.77561 0.84417 0.00000
0.82559 0.84181 0.00000
0.87111 0.83883 0.00000
0.91088 0.83520 0.00000
0.94292 0.83124 0.00000
0.96858 0.82698 0.00000
0.98742 0.82271 0.00000
1.00000 0.81866 0.00000
1.00000 0.81511 0.00000
1.00000 0.81275 0.00000
1.00000 0.81167 0.00000
1.00000 0.81183 0.00000
0.00000 0.89816 0.00000
0.00000 0.89818 0.00000
0.00000 0.89820 0.00000
0.00000 0.89820 0.00000
0.00000 0.89817 0.00000
0.00000 0.89802 0.00000
0.00000 0.89779 0.00000
0.00000 0.89773 0.00000
0.00000 0.89720 0.00000
0.00000 0.89649 0.00000
0.00000 0.89547 0.00000
0.00000 0.89451 0.00000
0.00000 0.89316 0.00000
0.00000 0.89175 0.00000
0.19239 0.89053 0.00000
0.34522 0.88930 0.00000
0.44981 0.88819 0.00000
0.53780 0.88701 0.00000
0.61329 0.88575 0.00000
0.67983 0.88409 0.00000
0.73899 0.88205 0.00000
0.79138 0.87947 0.00000
0.83787 0.87637 0.00000
0.87967 0.87274 0.00000
0.91519 0.86893 0.00000
0.94430 0.86516 0.00000
0.96720 0.86163 0.00000
0.98393 0.85858 0.00000
0.99572 0.85631 0.00000
1.00000 0.85500 0.00000
1.00000 0.85479 0.00000
1.00000 0.85516 0.00000
0.00000 0.92771 0.00000
0.00000 0.92774 0.00000
0.00000 0.92777 0.00000
0.00000 0.92781 0.00000
0.00000 0.92780 0.00000
0.00000 0.92771 0.00000
0.00000 0.92768 0.00000
0.00000 0.92767 0.00000
0.00000 0.92733 0.00000
0.00000 0.92686 0.00000
0.00000 0.92613 0.00000
0.00000 0.92546 0.00000
0.00000 0.92448 0.00000
0.00000 0.92338 0.00000
0.00000 0.92239 0.00000
0.24007 0.92148 0.00000
0.37652 0.92075 0.00000
0.48006 0.91993 0.00000
0.56487 0.91896 0.00000
0.63871 0.91735 0.00000
0.70219 0.91507 0.00000
0.75772 0.91227 0.00000
0.80642 0.90916 0.00000
0.85106 0.90566 0.00000
0.89000 0.90213 0.00000
0.92273 0.89900 0.00000
0.94989 0.89649 0.00000
0.97041 0.89491 0.00000
0.98525 0.89422 0.00000
0.99560 0.89422 0.00000
1.00000 0.89453 0.00000
1.00000 0.89471 0.00000
0.00000 0.95094 0.00000
0.00000 0.95093 0.00000
0.00000 0.95092 0.00000
0.00000 0.95089 0.00000
0.00000 0.95081 0.00000
0.00000 0.95063 0.00000
0.00000 0.95041 0.00000
0.00000 0.95035 0.00000
0.00000 0.94991 0.00000
0.00000 0.94943 0.00000
0.00000 0.94871 0.00000
0.00000 0.94814 0.00000
0.00000 0.94750 0.00000
0.00000 0.94671 0.00000
0.00000 0.94612 0.00000
0.00000 0.94595 0.00000
0.26776 0.94579 0.00000
0.40743 0.94576 0.00000
0.51029 0.94560 0.00000
0.59545 0.94504 0.00000
0.66436 0.94379 0.00000
0.72462 0.94166 0.00000
0.77687 0.93890 0.00000
0.82495 0.93578 0.00000
0.86803 0.93287 0.00000
0.90542 0.93074 0.00000
0.93684 0.92982 0.00000
0.96002 0.93010 0.00000
0.97636 0.93082 0.00000
0.98559 0.93197 0.00000
0.98963 0.93289 0.00000
0.99133 0.93345 0.00000
0.00000 0.96593 0.00000
0.00000 0.96590 0.00000
0.00000 0.96587 0.00000
0.00000 0.96581 0.00000
0.00000 0.96572 0.00000
0.00000 0.96556 0.00000
0.00000 0.96529 0.00000
0.00000 0.96497 0.00000
0.00000 0.96484 0.00000
0.00000 0.96442 0.00000
0.00000 0.96400 0.00000
0.00000 0.96345 0.00000
0.00000 0.96325 0.00000
0.00000 0.96315 0.00000
0.00000 0.96289 0.00000
0.00000 0.96282 0.00000
0.00044 0.96292 0.00000
0.31932 0.96322 0.00000
0.45321 0.96355 0.00000
0.55166 0.96402 0.00000
0.62992 0.96360 0.00000
0.69700 0.96231 0.00000
0.75415 0.96038 0.00000
0.80690 0.95834 0.00000
0.85493 0.95688 0.00000
0.89656 0.95731 0.00000
0.93108 0.95831 0.00000
0.95485 0.95950 0.00000
0.96739 0.96150 0.00000
0.97147 0.96356 0.00000
0.97193 0.96543 0.00000
0.97212 0.96604 0.00000
0.00000 0.97493 0.00000
0.00000 0.97485 0.00000
0.00000 0.97476 0.00000
0.00000 0.97462 0.00000
0.00000 0.97444 0.00000
0.00000 0.97422 0.00000
0.00000 0.97393 0.00000
0.00000 0.97354 0.00000
0.00000 0.97301 0.00000
0.00000 0.97265 0.00000
0.00000 0.97214 0.00000
0.00000 0.97152 0.00000
0.00000 0.97071 0.00000
0.00000 0.97022 0.00000
0.00000 0.96981 0.00000
0.00000 0.96970 0.00000
0.00000 0.97021 0.00000
0.24273 0.97094 0.00000
0.41127 0.97226 0.00000
0.52239 0.97364 0.00000
0.60810 0.97429 0.00000
0.68028 0.97462 0.00000
0.74043 0.97528 0.00000
0.79713 0.97576 0.00000
0.84848 0.97770 0.00000
0.89540 0.98001 0.00000
0.92859 0.98236 0.00000
0.94180 0.98595 0.00000
0.94519 0.98920 0.00000
0.94583 0.99193 0.00000
0.94616 0.99330 0.00000
0.94696 0.99328 0.00000
0.00000 0.98004 0.00000
0.00000 0.97991 0.00000
0.00000 0.97975 0.00000
0.00000 0.97952 0.00000
0.00000 0.97921 0.00000
0.00000 0.97883 0.00000
0.00000 0.97834 0.00000
0.00000 0.97772 0.00000
0.00000 0.97690 0.00000
0.00000 0.97620 0.00000
0.00000 0.97536 0.00000
0.00000 0.97440 0.00000
0.00000 0.97339 0.00000
0.00000 0.97291 0.00000
0.00000 0.97273 0.00000
0.00000 0.97336 0.00000
0.00000 0.97496 0.00000
0.22880 0.97733 0.00000
0.40531 0.97974 0.00000
0.51732 0.98171 0.00000
0.60078 0.98486 0.00000
0.67200 0.98708 0.00000
0.73037 0.99167 0.00000
0.78599 0.99473 0.00000
0.83430 0.99859 0.00000
0.87200 1.00000 0.00000
0.89237 1.00000 0.00000
0.90132 1.00000 0.00000
0.90649 1.00000 0.00000
0.91035 1.00000 0.00000
0.91444 1.00000 0.00000
0.91914 1.00000 0.00000
0.00000 0.98666 0.00000
0.00000 0.98653 0.00000
0.00000 0.98639 0.00000
0.00000 0.98620 0.00000
0.00000 0.98591 0.00000
0.00000 0.98553 0.00000
0.00000 0.98502 0.00000
0.00000 0.98468 0.00000
0.00000 0.98426 0.00000
0.00000 0.98372 0.00000
0.00000 0.98330 0.00000
0.00000 0.98298 0.00000
0.00000 0.98318 0.00000
0.00000 0.98361 0.00000
0.00000 0.98506 0.00000
0.00000 0.98705 0.00000
0.00000 0.98924 0.00000
0.30545 0.99208 0.00000
0.43339 0.99517 0.00000
0.52738 0.99820 0.00000
0.59834 1.00000 0.00000
0.65893 1.00000 0.00000
0.71008 1.00000 0.00000
0.75523 1.00000 0.00000
0.79245 1.00000 0.00000
0.82013 1.00000 0.00000
0.84064 1.00000 0.00000
0.85586 1.00000 0.00000
0.86698 1.00000 0.00000
0.87599 1.00000 0.00000
0.88468 1.00000 0.00000
0.89392 1.00000 0.00000
0.00000 0.99988 0.00000
0.00000 0.99986 0.00000
0.00000 0.99984 0.00000
0.00000 0.99981 0.00000
