fuji-film/cube-lut/srgb/srgb-velvia.cube
LUT_3D_SIZE 5
DOMAIN_MIN 0.000000 0.000000 0.000000
DOMAIN_MAX 0.903226 0.903226 0.903226
0.00000 0.00000 0.00000
0.21264 0.00000 0.00000
0.78024 0.00000 0.00000
1.00000 0.00000 0.00000
1.00000 0.00000 0.00000
0.00000 0.20841 0.00000
0.21323 0.22217 0.00000
0.75613 0.22893 0.00000
1.00000 0.00324 0.00000
1.00000 0.00000 0.00000
0.00000 0.63453 0.00000
0.00000 0.63438 0.00000
0.57442 0.62250 0.00000
0.98871 0.59361 0.00000
1.00000 0.51713 0.00000
0.00000 0.89816 0.00000
0.00000 0.89773 0.00000
0.19239 0.89053 0.00000
0.79138 0.87947 0.00000
0.99572 0.85631 0.00000
0.00000 0.99988 0.00000
0.00000 0.99989 0.00000
0.00000 1.00000 0.00000
0.63225 1.00000 0.00000
0.83118 1.00000 0.00000
0.01212 0.00000 0.29401
0.28544 0.00000 0.31309
0.79156 0.00000 0.36137
1.00000 0.00000 0.40248
1.00000 0.00000 0.37372
0.00000 0.23418 0.23813
0.23370 0.23351 0.23294
0.74709 0.22739 0.25653
1.00000 0.19502 0.26935
1.00000 0.00000 0.08308
0.00000 0.64498 0.12815
0.00000 0.64050 0.06299
0.56323 0.62577 0.13061
0.98810 0.61326 0.10421
1.00000 0.54413 0.00000
0.00000 0.91162 0.04511
0.00000 0.91021 0.00000
0.19376 0.89671 0.00000
0.80609 0.88687 0.00000
1.00000 0.86950 0.00000
0.00000 1.00000 0.19386
0.00000 1.00000 0.17760
0.00000 1.00000 0.15456
0.63953 1.00000 0.15125
0.83465 1.00000 0.20335
0.17358 0.00000 0.91811
0.41454 0.00000 0.93734
0.79024 0.00000 0.89352
1.00000 0.07403 0.81857
1.00000 0.05995 0.84031
0.01250 0.26982 0.84067
0.38918 0.27831 0.81691
0.74889 0.28992 0.79050
1.00000 0.32555 0.76333
1.00000 0.34395 0.76751
0.00000 0.63599 0.65643
0.00000 0.62434 0.63970
0.61093 0.61033 0.61012
0.97433 0.60336 0.59939
1.00000 0.61527 0.61402
0.00000 0.91498 0.52554
0.00000 0.90871 0.50907
0.31435 0.88844 0.47739
0.83914 0.87872 0.46499
1.00000 0.87621 0.50905
0.00000 1.00000 0.52194
0.00000 1.00000 0.51707
0.14905 1.00000 0.50663
0.65727 1.00000 0.50427
0.84228 1.00000 0.52483
0.26220 0.00000 0.98036
0.43613 0.00000 0.99284
0.77095 0.00000 1.00000
1.00000 0.07995 1.00000
1.00000 0.18300 1.00000
0.22745 0.20310 0.99752
0.45698 0.19679 0.99780
0.77548 0.22708 0.99943
1.00000 0.35497 1.00000
1.00000 0.39273 0.98799
0.00000 0.62891 0.99902
0.35190 0.62518 0.99593
0.67958 0.62165 0.98117
0.97526 0.62214 0.98348
1.00000 0.64963 0.93198
0.00000 0.89693 0.92861
0.00000 0.89179 0.92444
0.46870 0.87664 0.89996
0.86888 0.86856 0.86832
1.00000 0.85401 0.85963
0.00000 1.00000 0.80087
0.00000 1.00000 0.79830
0.39238 1.00000 0.79314
0.70461 1.00000 0.79277
0.88591 1.00000 0.79676
0.39771 0.00000 0.99320
0.53731 0.00000 0.99605
0.80533 0.00000 0.99942
1.00000 0.00000 1.00000
1.00000 0.11033 1.00000
0.40428 0.20771 0.99681
0.53566 0.18490 0.99745
0.79958 0.17581 0.99863
1.00000 0.24450 0.99960
1.00000 0.39891 1.00000
0.44318 0.64960 0.99598
0.57405 0.66580 0.99589
0.77165 0.65103 0.99607
0.98543 0.66466 1.00000
1.00000 0.69595 1.00000
0.09587 0.87739 0.99891
0.34615 0.87510 1.00000
0.62397 0.87345 1.00000
0.88337 0.87503 1.00000
1.00000 0.86302 1.00000
0.23236 1.00000 0.97261
0.34987 1.00000 0.97402
0.56317 1.00000 0.97936
0.78938 1.00000 0.98947
0.99238 0.99264 0.99261
