fuji-film/cube-lut/srgb/srgb-eterna.cube
LUT_3D_SIZE 32
0.00000 0.00000 0.00000
0.02750 0.01375 0.01173
0.05590 0.01081 0.01073
0.08728 0.01134 0.00850
0.12366 0.00928 0.00640
0.16157 0.01029 0.00047
0.20165 0.00945 0.00000
0.24209 0.00777 0.00000
0.28427 0.00756 0.00000
0.33146 0.00459 0.00000
0.38126 0.00480 0.00000
0.43264 0.00000 0.00000
0.47760 0.00000 0.00000
0.53320 0.00000 0.00000
0.57746 0.00000 0.00000
0.62380 0.00000 0.00000
0.66410 0.00000 0.00000
0.70516 0.00000 0.00000
0.74243 0.00000 0.00000
0.77727 0.00000 0.00000
0.81145 0.00000 0.00000
0.84303 0.00000 0.00000
0.87317 0.00000 0.00000
0.90099 0.00000 0.00000
0.92604 0.00000 0.00000
0.94999 0.00000 0.00000
0.96712 0.00000 0.06086
0.97866 0.00000 0.12773
0.98506 0.00000 0.17016
0.98904 0.03985 0.19813
0.99202 0.06952 0.21655
0.99474 0.09623 0.22609
0.00692 0.02397 0.01156
0.02494 0.02616 0.01391
0.05317 0.03160 0.01066
0.09137 0.02800 0.00940
0.12619 0.02839 0.00713
0.16440 0.03010 0.00221
0.20290 0.03170 0.00000
0.24340 0.02566 0.00000
0.28626 0.02001 0.00000
0.33341 0.01564 0.00000
0.38298 0.01514 0.00000
0.43386 0.00468 0.00000
0.47851 0.00797 0.00000
0.53481 0.00000 0.00000
0.57896 0.00000 0.00000
0.62463 0.00000 0.00000
0.66500 0.00000 0.00000
0.70624 0.00000 0.00000
0.74343 0.00000 0.00000
0.77814 0.00000 0.00000
0.81233 0.00000 0.00000
0.84398 0.00000 0.00000
0.87397 0.00000 0.00000
0.90174 0.00000 0.00000
0.92664 0.00000 0.00000
0.95059 0.00000 0.00000
0.96761 0.00000 0.06577
0.97895 0.00000 0.13011
0.98526 0.00000 0.17170
0.98920 0.04203 0.19938
0.99215 0.07096 0.21748
0.99481 0.09821 0.22673
0.00000 0.04892 0.01201
0.01894 0.05223 0.01384
0.05025 0.05643 0.01380
0.08783 0.05607 0.01141
0.12352 0.06109 0.00814
0.16447 0.05909 0.00452
0.20392 0.05708 0.00020
0.24455 0.04809 0.00000
0.28840 0.03690 0.00000
0.33514 0.03360 0.00000
0.38475 0.02998 0.00000
0.43544 0.02067 0.00000
0.47964 0.02368 0.00000
0.53602 0.00853 0.00000
0.58056 0.00489 0.00000
0.62560 0.00000 0.00000
0.66602 0.00000 0.00000
0.70750 0.00000 0.00000
0.74452 0.00000 0.00000
0.77919 0.00000 0.00000
0.81332 0.00000 0.00000
0.84508 0.00000 0.00000
0.87489 0.00000 0.00000
0.90254 0.00000 0.00000
0.92744 0.00000 0.00000
0.95128 0.00000 0.00000
0.96817 0.00000 0.07110
0.97928 0.00000 0.13275
0.98551 0.00237 0.17341
0.98940 0.04460 0.20075
0.99231 0.07270 0.21850
0.99490 0.10059 0.22742
0.00000 0.08009 0.01087
0.00584 0.08168 0.01275
0.03805 0.08275 0.01337
0.08363 0.08854 0.01237
0.12195 0.08994 0.00944
0.16234 0.08990 0.00898
0.20370 0.08734 0.00497
0.24501 0.07955 0.00000
0.28916 0.07229 0.00000
0.33687 0.06635 0.00000
0.38652 0.06182 0.00000
0.43806 0.05338 0.00000
0.48240 0.05430 0.00000
0.53741 0.03330 0.00000
0.58288 0.02725 0.00000
0.62701 0.01406 0.00000
0.66760 0.00347 0.00000
0.70936 0.00000 0.00000
0.74620 0.00000 0.00000
0.78089 0.00000 0.00000
0.81490 0.00000 0.00000
0.84670 0.00000 0.00000
0.87628 0.00000 0.00000
0.90371 0.00000 0.00000
0.92860 0.00000 0.00000
0.95228 0.00000 0.00000
0.96901 0.00000 0.07817
0.97978 0.00000 0.13635
0.98587 0.00957 0.17577
0.98970 0.04858 0.20262
0.99256 0.07545 0.21988
0.99503 0.10431 0.22837
0.00000 0.11258 0.00949
0.00000 0.11440 0.01300
0.02492 0.11554 0.01518
0.07266 0.11772 0.01420
0.11410 0.12327 0.01306
0.16069 0.12463 0.01198
0.20122 0.12300 0.00940
0.24298 0.12257 0.00455
0.28744 0.11406 0.00020
0.33723 0.10979 0.00000
0.38802 0.10358 0.00000
0.44181 0.09597 0.00000
0.48732 0.09227 0.00000
0.53905 0.07870 0.00000
0.58568 0.06890 0.00000
0.62923 0.05597 0.00000
0.67047 0.04210 0.00000
0.71197 0.01851 0.00000
0.74871 0.00000 0.00000
0.78339 0.00000 0.00000
0.81700 0.00000 0.00000
0.84904 0.00000 0.00000
0.87816 0.00000 0.00000
0.90541 0.00000 0.00000
0.93022 0.00000 0.00000
0.95366 0.00000 0.01177
0.97013 0.00000 0.08628
0.98051 0.00000 0.14067
0.98642 0.02011 0.17885
0.99016 0.05467 0.20491
0.99290 0.07983 0.22154
0.99522 0.11001 0.22952
0.00000 0.15067 0.01044
0.00000 0.15179 0.01044
0.00000 0.15214 0.01161
0.05113 0.15395 0.01455
0.10387 0.15569 0.01401
0.15060 0.15869 0.01315
0.19581 0.16099 0.01356
0.23851 0.16107 0.00994
0.28496 0.15921 0.00392
0.33518 0.15442 0.00041
0.38775 0.14863 0.00000
0.44333 0.14186 0.00000
0.49151 0.13731 0.00000
0.54087 0.12747 0.00000
0.58877 0.11739 0.00000
0.63226 0.10604 0.00000
0.67469 0.09450 0.00000
0.71548 0.07765 0.00000
0.75238 0.05172 0.00000
0.78713 0.01445 0.00000
0.82002 0.00000 0.00000
0.85185 0.00000 0.00000
0.88070 0.00000 0.00000
0.90772 0.00000 0.00000
0.93246 0.00000 0.00000
0.95545 0.00000 0.03275
0.97159 0.00000 0.09454
0.98151 0.00000 0.14526
0.98735 0.03364 0.18208
0.99084 0.06405 0.20739
0.99336 0.08790 0.22330
0.99546 0.11880 0.23076
0.00000 0.18494 0.00710
0.00000 0.18532 0.00866
0.00000 0.18644 0.01086
0.01664 0.18827 0.01488
0.08698 0.18896 0.01550
0.13882 0.19103 0.01373
0.18618 0.19417 0.01614
0.23318 0.19727 0.02034
0.28078 0.19865 0.00669
0.33290 0.19569 0.00000
0.38569 0.19331 0.00000
0.44181 0.18767 0.00000
0.49378 0.18263 0.00000
0.54199 0.17915 0.00000
0.59087 0.16966 0.00000
0.63497 0.15924 0.00000
0.67950 0.14670 0.00000
0.71974 0.13183 0.00000
0.75705 0.11355 0.00000
0.79218 0.09340 0.00000
0.82380 0.07369 0.00000
0.85542 0.04820 0.00000
0.88378 0.01568 0.00000
0.91086 0.00000 0.00000
0.93567 0.00000 0.00840
0.95756 0.00000 0.05111
0.97357 0.00000 0.10146
0.98289 0.02604 0.14945
0.98863 0.05562 0.18515
0.99185 0.07838 0.20973
0.99383 0.10553 0.22468
0.99578 0.13227 0.23185
0.00000 0.22001 0.00347
0.00000 0.22079 0.00342
0.00000 0.22253 0.00412
0.00000 0.22461 0.01038
0.06252 0.22641 0.01555
0.12526 0.22807 0.01521
0.17387 0.23006 0.01298
0.22365 0.23266 0.01760
0.27486 0.23573 0.01652
0.32790 0.23826 0.00000
0.38105 0.23666 0.00000
0.43593 0.23516 0.00000
0.49380 0.23062 0.00000
0.54173 0.22618 0.00000
0.59156 0.21810 0.00000
0.63703 0.21050 0.00000
0.68258 0.19980 0.00000
0.72337 0.18715 0.00000
0.76160 0.17245 0.00000
0.79752 0.15646 0.00000
0.82941 0.14152 0.00000
0.85978 0.12552 0.00000
0.88799 0.10708 0.00000
0.91423 0.08797 0.00686
0.93954 0.06865 0.02631
0.96023 0.05699 0.06237
0.97630 0.05877 0.10582
0.98513 0.06879 0.15263
0.99049 0.08398 0.18741
0.99295 0.10681 0.21102
0.99445 0.13080 0.22535
0.99615 0.15260 0.23234
0.00000 0.25901 0.00000
0.00000 0.26020 0.00122
0.00000 0.26169 0.00424
0.00000 0.26376 0.00820
0.00207 0.26610 0.01049
0.09831 0.26840 0.01066
0.15709 0.27020 0.00839
0.20912 0.27246 0.00614
0.26435 0.27504 0.00995
0.31891 0.27758 0.00157
0.37668 0.28015 0.00000
0.42920 0.28017 0.00000
0.49189 0.27991 0.00000
0.54025 0.27220 0.00000
0.59071 0.26753 0.00000
0.63642 0.26204 0.00000
0.68341 0.25365 0.00000
0.72503 0.24374 0.00000
0.76467 0.23158 0.00000
0.80114 0.21837 0.00000
0.83459 0.20473 0.00000
0.86467 0.19123 0.00000
0.89294 0.17433 0.00169
0.91879 0.15616 0.01646
0.94404 0.13609 0.03634
0.96461 0.11982 0.06825
0.98001 0.11060 0.10819
0.98791 0.11956 0.15319
0.99223 0.13432 0.18681
0.99397 0.14967 0.21026
0.99513 0.16502 0.22467
0.99681 0.17899 0.23200
0.00000 0.30196 0.00000
0.00000 0.30289 0.00000
0.00000 0.30416 0.00000
0.00000 0.30591 0.00000
0.00000 0.30799 0.00078
0.04871 0.31011 0.00137
0.13199 0.31196 0.00000
0.19127 0.31387 0.00000
0.24968 0.31624 0.00000
0.30700 0.32043 0.00000
0.36647 0.32215 0.00000
0.42424 0.32896 0.00000
0.48526 0.32807 0.00000
0.54040 0.32457 0.00000
0.59007 0.31654 0.00000
0.63676 0.31060 0.00000
0.68353 0.30205 0.00000
0.72659 0.29339 0.00000
0.76654 0.28319 0.00000
0.80278 0.27276 0.00000
0.83770 0.26066 0.00000
0.86859 0.24877 0.00000
0.89750 0.23553 0.00000
0.92384 0.22084 0.01301
0.94753 0.20656 0.03181
0.96818 0.19395 0.06134
0.98255 0.18637 0.10191
0.99002 0.18587 0.14837
0.99370 0.19079 0.18300
0.99503 0.19839 0.20704
0.99597 0.20738 0.22195
0.99741 0.21620 0.22986
0.00000 0.34793 0.00000
0.00000 0.34862 0.00000
0.00000 0.34964 0.00000
0.00000 0.35117 0.00000
0.00000 0.35339 0.00000
0.00000 0.35610 0.00000
0.08525 0.35882 0.00000
0.16483 0.36137 0.00000
0.23118 0.36306 0.00000
0.29412 0.36428 0.00000
0.35911 0.36727 0.00000
0.41564 0.37094 0.00000
0.47658 0.37647 0.00000
0.53464 0.37884 0.00000
0.58440 0.37767 0.00000
0.63519 0.37038 0.00000
0.68070 0.36409 0.00000
0.72349 0.35486 0.00000
0.76488 0.34447 0.00000
0.80245 0.33410 0.00000
0.83855 0.32230 0.00000
0.87090 0.31050 0.00000
0.89969 0.29836 0.00000
0.92710 0.28451 0.00037
0.95023 0.27150 0.01751
0.97068 0.25896 0.04661
0.98486 0.24931 0.09154
0.99184 0.24378 0.14057
0.99577 0.24145 0.17715
0.99725 0.24150 0.20237
0.99807 0.24314 0.21861
0.99905 0.24843 0.22736
0.00000 0.39535 0.00000
0.00000 0.39640 0.00000
0.00000 0.39763 0.00000
0.00000 0.39942 0.00000
0.00000 0.40163 0.00000
0.00000 0.40424 0.00000
0.00000 0.40652 0.00000
0.12339 0.40823 0.00000
0.19949 0.41121 0.00000
0.26619 0.41506 0.00000
0.33799 0.41658 0.00000
0.40326 0.41842 0.00000
0.46612 0.42365 0.00000
0.52860 0.42935 0.00000
0.58050 0.43007 0.00000
0.63036 0.42706 0.00000
0.67806 0.42286 0.00000
0.72060 0.41533 0.00000
0.76205 0.40773 0.00000
0.80093 0.39756 0.00000
0.83731 0.38714 0.00000
0.87011 0.37659 0.00000
0.89993 0.36497 0.00000
0.92679 0.35292 0.00000
0.95077 0.33969 0.00000
0.97075 0.32721 0.01622
0.98444 0.31674 0.07142
0.99194 0.30859 0.12679
0.99598 0.30312 0.16636
0.99743 0.30006 0.19314
0.99807 0.29891 0.21075
0.99879 0.30113 0.22075
0.00000 0.44734 0.00000
0.00000 0.44787 0.00000
0.00000 0.44842 0.00000
0.00000 0.44917 0.00000
0.00000 0.45022 0.00000
0.00000 0.45155 0.00000
0.00000 0.45329 0.00000
0.03168 0.45673 0.00000
0.15902 0.46032 0.00000
0.24383 0.46324 0.00000
0.31072 0.46650 0.00000
0.38996 0.46977 0.00000
0.45105 0.47420 0.00000
0.51720 0.47730 0.00000
0.57238 0.48051 0.00000
0.62490 0.48191 0.00000
0.67151 0.47843 0.00000
0.71669 0.47383 0.00000
0.75593 0.46786 0.00000
0.79579 0.46001 0.00000
0.83168 0.45055 0.00000
0.86561 0.44024 0.00000
0.89716 0.42952 0.00000
0.92398 0.41864 0.00000
0.94831 0.40654 0.00000
0.96811 0.39364 0.00000
0.98238 0.38176 0.03846
0.99007 0.37199 0.10789
0.99477 0.36418 0.15182
0.99673 0.35848 0.18124
0.99767 0.35426 0.20082
0.99864 0.35310 0.21245
0.00000 0.49569 0.00000
0.00000 0.49634 0.00000
0.00000 0.49711 0.00000
0.00000 0.49832 0.00000
0.00000 0.50006 0.00000
0.00000 0.50221 0.00000
0.00000 0.50406 0.00000
0.00000 0.50583 0.00000
0.09621 0.50748 0.00000
0.21375 0.50963 0.00000
0.28764 0.51363 0.00000
0.37092 0.51656 0.00000
0.44041 0.52105 0.00000
0.50188 0.52568 0.00000
0.55879 0.52882 0.00000
0.61234 0.53168 0.00000
0.66149 0.53282 0.00000
0.70693 0.53022 0.00000
0.74764 0.52739 0.00000
0.78636 0.52232 0.00000
0.82323 0.51530 0.00000
0.85634 0.50691 0.00000
0.88873 0.49720 0.00000
0.91681 0.48693 0.00000
0.94188 0.47455 0.00000
0.96242 0.46195 0.00000
0.97724 0.44909 0.00000
0.98650 0.43725 0.07845
0.99220 0.42770 0.13158
0.99459 0.41949 0.16489
0.99590 0.41224 0.18762
0.99722 0.40774 0.20161
0.00000 0.54015 0.00000
0.00000 0.54078 0.00000
0.00000 0.54160 0.00000
0.00000 0.54287 0.00000
0.00000 0.54476 0.00000
0.00000 0.54740 0.00000
0.00000 0.55033 0.00000
0.00000 0.55291 0.00000
0.00000 0.55510 0.00000
0.15405 0.55727 0.00000
0.26027 0.56086 0.00000
0.33948 0.56502 0.00000
0.41785 0.56835 0.00000
0.48372 0.57157 0.00000
0.54512 0.57432 0.00000
0.59993 0.57689 0.00000
0.65006 0.57883 0.00000
0.69644 0.57968 0.00000
0.73834 0.57934 0.00000
0.77729 0.57778 0.00000
0.81332 0.57369 0.00000
0.84749 0.56681 0.00000
0.87711 0.55934 0.00000
0.90702 0.54881 0.00000
0.93274 0.53815 0.00000
0.95498 0.52537 0.00000
0.97142 0.51355 0.00000
0.98121 0.50226 0.03141
0.98738 0.49094 0.10103
0.98991 0.48193 0.14362
0.99142 0.47363 0.17001
0.99311 0.46726 0.18622
0.00000 0.58791 0.00000
0.00000 0.58852 0.00000
0.00000 0.58922 0.00000
0.00000 0.59023 0.00000
0.00000 0.59180 0.00000
0.00000 0.59417 0.00000
0.00000 0.59646 0.00000
0.00000 0.59867 0.00000
0.00000 0.60066 0.00000
0.00363 0.60328 0.00000
0.22154 0.60522 0.00000
0.30742 0.60881 0.00000
0.39584 0.61175 0.00000
0.46437 0.61507 0.00000
0.52895 0.61737 0.00000
0.58640 0.61926 0.00000
0.63827 0.62072 0.00000
0.68495 0.62206 0.00000
0.72824 0.62396 0.00000
0.76730 0.62514 0.00000
0.80358 0.62330 0.00000
0.83786 0.61927 0.00000
0.86850 0.61251 0.00000
0.89702 0.60472 0.00000
0.92380 0.59499 0.00000
0.94734 0.58358 0.00000
0.96559 0.57240 0.00000
0.97510 0.56244 0.00000
0.98149 0.55320 0.06594
0.98436 0.54250 0.11300
0.98610 0.53290 0.14626
0.98812 0.52537 0.16936
0.00000 0.63154 0.00000
0.00000 0.63207 0.00000
0.00000 0.63268 0.00000
0.00000 0.63362 0.00000
0.00000 0.63506 0.00000
0.00000 0.63696 0.00000
0.00000 0.63913 0.00000
0.00000 0.64130 0.00000
0.00000 0.64348 0.00000
0.00000 0.64562 0.00000
0.16210 0.64733 0.00000
0.28088 0.64919 0.00000
0.37140 0.65109 0.00000
0.44363 0.65454 0.00000
0.51197 0.65728 0.00000
0.57220 0.65847 0.00000
0.62596 0.65942 0.00000
0.67164 0.66168 0.00000
0.71674 0.66416 0.00000
0.75759 0.66589 0.00000
0.79417 0.66670 0.00000
0.82947 0.66281 0.00000
0.86030 0.65830 0.00000
0.88833 0.65299 0.00000
0.91410 0.64699 0.00000
0.93894 0.63807 0.00000
0.95763 0.62813 0.00000
0.96971 0.61781 0.00000
0.97639 0.60715 0.00000
0.97871 0.59921 0.07827
0.98048 0.58876 0.11931
0.98289 0.57935 0.14766
0.00000 0.67116 0.00000
0.00000 0.67160 0.00000
0.00000 0.67214 0.00000
0.00000 0.67299 0.00000
0.00000 0.67429 0.00000
0.00000 0.67601 0.00000
0.00000 0.67799 0.00000
0.00000 0.68001 0.00000
0.00000 0.68256 0.00000
0.00000 0.68395 0.00000
0.03633 0.68595 0.00000
0.24164 0.68759 0.00000
0.34164 0.68995 0.00000
0.42320 0.69221 0.00000
0.49639 0.69363 0.00000
0.55742 0.69518 0.00000
0.61315 0.69574 0.00000
0.66036 0.69671 0.00000
0.70596 0.69836 0.00000
0.74781 0.70073 0.00000
0.78563 0.70233 0.00000
0.82010 0.70200 0.00000
0.85163 0.69853 0.00000
0.87959 0.69543 0.00000
0.90524 0.69086 0.00000
0.93014 0.68567 0.00000
0.95027 0.67714 0.00000
0.96324 0.66605 0.00000
0.97196 0.65743 0.00000
0.97401 0.64804 0.02212
0.97523 0.63963 0.08896
0.97745 0.63031 0.12472
0.00000 0.70871 0.00000
0.00000 0.70919 0.00000
0.00000 0.70972 0.00000
0.00000 0.71051 0.00000
0.00000 0.71155 0.00000
0.00000 0.71281 0.00000
0.00000 0.71412 0.00000
0.00000 0.71578 0.00000
0.00000 0.71759 0.00000
0.00000 0.71930 0.00000
0.00000 0.72167 0.00000
0.19419 0.72314 0.00000
0.31108 0.72476 0.00000
0.40342 0.72582 0.00000
0.47994 0.72724 0.00000
0.54375 0.72912 0.00000
0.60066 0.72988 0.00000
0.65036 0.72992 0.00000
0.69532 0.73056 0.00000
0.73702 0.73174 0.00000
0.77620 0.73334 0.00000
0.81101 0.73463 0.00000
0.84412 0.73428 0.00000
0.87220 0.73230 0.00000
0.89866 0.72920 0.00000
0.92158 0.72465 0.00000
0.94267 0.71948 0.00000
0.95602 0.71021 0.00000
0.96549 0.70103 0.00000
0.96898 0.69314 0.00000
0.97029 0.68402 0.06184
0.97226 0.67586 0.10517
0.00000 0.74257 0.00000
0.00000 0.74292 0.00000
0.00000 0.74331 0.00000
0.00000 0.74386 0.00000
0.00000 0.74459 0.00000
0.00000 0.74544 0.00000
0.00000 0.74645 0.00000
0.00000 0.74818 0.00000
0.00000 0.74942 0.00000
0.00000 0.75091 0.00000
0.00000 0.75240 0.00000
0.13913 0.75384 0.00000
0.27891 0.75523 0.00000
0.37964 0.75630 0.00000
0.46116 0.75729 0.00000
0.52905 0.75879 0.00000
0.58600 0.76025 0.00000
0.63898 0.76043 0.00000
0.68424 0.76072 0.00000
0.72539 0.76148 0.00000
0.76469 0.76264 0.00000
0.80067 0.76422 0.00000
0.83561 0.76559 0.00000
0.86430 0.76512 0.00000
0.89098 0.76262 0.00000
0.91513 0.75954 0.00000
0.93517 0.75473 0.00000
0.95127 0.74893 0.00000
0.96021 0.74081 0.00000
0.96407 0.73318 0.00000
0.96583 0.72442 0.03446
0.96821 0.71574 0.07103
0.00000 0.77295 0.00000
0.00000 0.77328 0.00000
0.00000 0.77366 0.00000
0.00000 0.77420 0.00000
0.00000 0.77486 0.00000
0.00000 0.77567 0.00000
0.00000 0.77676 0.00000
0.00000 0.77783 0.00000
0.00000 0.77853 0.00000
0.00000 0.77973 0.00000
0.00000 0.78028 0.00000
0.02389 0.78120 0.00000
0.24263 0.78244 0.00000
0.35697 0.78333 0.00000
0.44173 0.78477 0.00000
0.51311 0.78634 0.00000
0.57110 0.78772 0.00000
0.62651 0.78841 0.00000
0.67366 0.78863 0.00000
0.71473 0.78870 0.00000
0.75419 0.78893 0.00000
0.79015 0.79053 0.00000
0.82458 0.79209 0.00000
0.85560 0.79324 0.00000
0.88375 0.79249 0.00000
0.90869 0.79041 0.00000
0.92885 0.78660 0.00000
0.94422 0.78053 0.00000
0.95679 0.77560 0.00000
0.95956 0.76841 0.00000
0.96211 0.76073 0.00000
0.96400 0.75274 0.08288
0.00000 0.80013 0.00000
0.00000 0.80042 0.00000
0.00000 0.80074 0.00000
0.00000 0.80116 0.00000
0.00000 0.80174 0.00000
0.00000 0.80255 0.00000
0.00000 0.80371 0.00000
0.00000 0.80461 0.00000
0.00000 0.80551 0.00000
0.00000 0.80649 0.00000
0.00000 0.80662 0.00000
0.00000 0.80706 0.00000
0.20485 0.80790 0.00000
0.33187 0.80886 0.00000
0.42182 0.80999 0.00000
0.49617 0.81164 0.00000
0.55676 0.81360 0.00000
0.61369 0.81439 0.00000
0.66299 0.81481 0.00175
0.70463 0.81502 0.00000
0.74378 0.81509 0.00000
0.77976 0.81532 0.00000
0.81369 0.81658 0.00000
0.84628 0.81823 0.00000
0.87605 0.81933 0.00000
0.90185 0.81834 0.00000
0.92328 0.81597 0.00000
0.94043 0.81164 0.00000
0.95144 0.80518 0.00000
0.95563 0.80074 0.00000
0.95717 0.79355 0.00000
0.95843 0.78704 0.01966
0.00000 0.82451 0.00000
0.00000 0.82472 0.00000
0.00000 0.82496 0.00000
0.00000 0.82532 0.00000
0.00000 0.82585 0.00000
0.00000 0.82660 0.00000
0.00000 0.82713 0.00000
0.00000 0.82777 0.00000
0.00000 0.82882 0.00000
0.00000 0.82945 0.00000
0.00000 0.83032 0.00000
0.00000 0.83148 0.00000
0.15374 0.83242 0.00000
0.30149 0.83354 0.00000
0.39804 0.83480 0.00000
0.47651 0.83624 0.00000
0.54148 0.83766 0.00000
0.59956 0.83887 0.00000
0.64996 0.83973 0.00233
0.69380 0.84000 0.01147
0.73292 0.84004 0.01462
0.77028 0.84000 0.00000
0.80378 0.84055 0.00000
0.83648 0.84163 0.00000
0.86659 0.84261 0.00000
0.89434 0.84348 0.00000
0.91716 0.84279 0.00000
0.93451 0.83950 0.00000
0.94648 0.83509 0.00000
0.95129 0.82891 0.00000
0.95286 0.82404 0.00000
0.95462 0.81762 0.01172
0.00000 0.84735 0.00000
0.00000 0.84751 0.00000
0.00000 0.84770 0.00000
0.00000 0.84804 0.00000
0.00000 0.84849 0.00000
0.00000 0.84888 0.00000
0.00000 0.84921 0.00000
0.00000 0.84988 0.00000
0.00000 0.85121 0.00000
0.00000 0.85183 0.00000
0.00000 0.85272 0.00000
0.00000 0.85397 0.00000
0.06108 0.85515 0.00000
0.26653 0.85663 0.00000
0.37274 0.85806 0.00000
0.45603 0.85924 0.00000
0.52440 0.86062 0.00000
0.58439 0.86197 0.00000
0.63636 0.86293 0.00751
0.68227 0.86374 0.04228
0.72128 0.86448 0.04447
0.76005 0.86427 0.05648
0.79348 0.86416 0.03126
0.82581 0.86434 0.00000
0.85635 0.86480 0.00000
0.88417 0.86548 0.00000
0.90829 0.86591 0.00000
0.92768 0.86503 0.00000
0.94177 0.86209 0.00000
0.94871 0.85765 0.00000
0.95083 0.85108 0.00000
0.95367 0.84738 0.00808
0.00000 0.86831 0.00000
0.00000 0.86852 0.00000
0.00000 0.86876 0.00000
0.00000 0.86910 0.00000
0.00000 0.86942 0.00000
0.00000 0.86968 0.00000
0.00000 0.87011 0.00000
0.00000 0.87089 0.00000
0.00000 0.87211 0.00000
0.00000 0.87290 0.00000
0.00000 0.87377 0.00000
0.00000 0.87510 0.01164
0.00000 0.87630 0.00903
0.22860 0.87781 0.00000
0.34819 0.87924 0.00000
0.43519 0.88087 0.00000
0.50639 0.88246 0.00000
0.56751 0.88383 0.00000
0.62072 0.88522 0.00000
0.66880 0.88633 0.04358
0.70914 0.88730 0.03735
0.74923 0.88710 0.06585
0.78357 0.88697 0.08114
0.81623 0.88659 0.06678
0.84687 0.88631 0.04238
0.87474 0.88622 0.00000
0.89979 0.88651 0.00000
0.92118 0.88650 0.00000
0.93625 0.88536 0.00000
0.94400 0.88210 0.00000
0.94798 0.87830 0.00000
0.95250 0.87581 0.00000
0.00000 0.88801 0.00000
0.00000 0.88822 0.00000
0.00000 0.88844 0.00000
0.00000 0.88861 0.00000
0.00000 0.88882 0.00000
0.00000 0.88912 0.00000
0.00000 0.88948 0.00000
0.00000 0.89044 0.00000
0.00000 0.89115 0.00000
0.00000 0.89209 0.01426
0.00000 0.89318 0.04659
0.00000 0.89465 0.06315
0.00000 0.89595 0.06609
0.18205 0.89727 0.05653
0.32044 0.89895 0.02978
0.41221 0.90069 0.00000
0.48771 0.90218 0.00000
0.55107 0.90372 0.00000
0.60589 0.90533 0.00000
0.65642 0.90615 0.04740
0.69902 0.90710 0.08906
0.73665 0.90836 0.07757
0.77183 0.90843 0.10861
0.80517 0.90799 0.10756
0.83637 0.90737 0.09095
0.86531 0.90711 0.07469
0.89194 0.90725 0.03068
0.91345 0.90761 0.00000
0.92811 0.90686 0.00000
0.93563 0.90470 0.00000
0.94155 0.90139 0.00000
0.94597 0.89761 0.11151
0.00000 0.90611 0.01140
0.00000 0.90625 0.00504
0.00000 0.90640 0.00000
0.00000 0.90661 0.00000
0.00000 0.90690 0.00000
0.00000 0.90724 0.00000
0.00000 0.90773 0.00000
0.00000 0.90849 0.00000
0.00000 0.90889 0.00649
0.00000 0.90989 0.04334
0.00000 0.91119 0.07006
0.00000 0.91259 0.08313
0.00000 0.91395 0.08877
0.11111 0.91520 0.08729
0.29036 0.91696 0.07672
0.39056 0.91852 0.05612
0.47147 0.91968 0.02569
0.53640 0.92146 0.00221
0.59151 0.92322 0.00000
0.64209 0.92447 0.06057
0.68474 0.92609 0.10453
0.72237 0.92773 0.08534
0.75607 0.92874 0.03913
0.79144 0.92795 0.10973
0.82464 0.92720 0.14430
0.85399 0.92695 0.16020
0.87997 0.92709 0.15725
0.90092 0.92684 0.13717
0.91521 0.92578 0.11792
0.92382 0.92346 0.14764
0.93022 0.91994 0.18824
0.93457 0.91544 0.20855
0.00000 0.92268 0.06328
0.00000 0.92284 0.06102
0.00000 0.92300 0.05855
0.00000 0.92319 0.05520
0.00000 0.92354 0.05152
0.00000 0.92415 0.04959
0.00000 0.92488 0.05152
0.00000 0.92528 0.06004
0.00000 0.92609 0.07453
0.00000 0.92721 0.09022
0.00000 0.92871 0.11075
0.00000 0.92978 0.12897
0.00000 0.93078 0.13903
0.12921 0.93213 0.14099
0.29199 0.93381 0.13629
0.38598 0.93530 0.12845
0.46293 0.93658 0.12206
0.52580 0.93833 0.12490
0.57844 0.94002 0.13555
0.62695 0.94131 0.14678
0.66939 0.94261 0.15370
0.70802 0.94379 0.16514
0.74422 0.94444 0.17857
0.77852 0.94469 0.19305
0.81033 0.94468 0.20521
0.83775 0.94463 0.21359
0.86151 0.94421 0.21791
0.88022 0.94323 0.22566
0.89435 0.94140 0.24179
0.90443 0.93870 0.25960
0.91302 0.93496 0.27598
0.92003 0.93043 0.29535
0.00000 0.93888 0.16958
0.00000 0.93904 0.17018
0.00000 0.93919 0.17085
0.00000 0.93940 0.17183
