fuji-film/cube-lut/srgb/srgb-eterna.cube
LUT_3D_SIZE 5
DOMAIN_MIN 0.000000 0.000000 0.000000
DOMAIN_MAX 0.903226 0.903226 0.903226
0.00000 0.00000 0.00000
0.24209 0.00777 0.00000
0.57746 0.00000 0.00000
0.84303 0.00000 0.00000
0.98506 0.00000 0.17016
0.00000 0.22001 0.00347
0.22365 0.23266 0.01760
0.59156 0.21810 0.00000
0.85978 0.12552 0.00000
0.99049 0.08398 0.18741
0.00000 0.54015 0.00000
0.00000 0.55291 0.00000
0.54512 0.57432 0.00000
0.84749 0.56681 0.00000
0.98738 0.49094 0.10103
0.00000 0.80013 0.00000
0.00000 0.80461 0.00000
0.42182 0.80999 0.00000
0.77976 0.81532 0.00000
0.95144 0.80518 0.00000
0.00000 0.93888 0.16958
0.00000 0.94167 0.17978
0.32559 0.94947 0.19666
0.69652 0.95800 0.23266
0.87115 0.95462 0.31006
0.01930 0.02569 0.24674
0.27146 0.06459 0.27548
0.59779 0.09371 0.29145
0.86487 0.01120 0.23619
0.99010 0.07942 0.22785
0.00000 0.25171 0.24265
0.26582 0.26550 0.26535
0.60053 0.29561 0.30390
0.87259 0.25937 0.23656
0.99310 0.13692 0.22488
0.00000 0.56324 0.25417
0.03514 0.57446 0.27106
0.58191 0.59541 0.30417
0.84539 0.60221 0.26018
0.98817 0.53107 0.13461
0.00000 0.80161 0.30748
0.00000 0.80515 0.30502
0.50469 0.81251 0.34483
0.79943 0.81993 0.33021
0.95452 0.81682 0.22648
0.00000 0.93975 0.32759
0.00000 0.94304 0.33490
0.39513 0.95085 0.34853
0.71096 0.96050 0.36331
0.87498 0.95844 0.39967
0.04216 0.07615 0.60053
0.28081 0.08051 0.63185
0.64921 0.13776 0.67617
0.89525 0.17618 0.65863
1.00000 0.21731 0.59012
0.15387 0.32770 0.59284
0.35566 0.34386 0.61376
0.65409 0.37282 0.63986
0.88367 0.39717 0.65444
1.00000 0.40885 0.63627
0.00000 0.60256 0.57283
0.25941 0.60696 0.59016
0.61950 0.61924 0.61882
0.85561 0.63303 0.63614
0.99170 0.65656 0.62896
0.00000 0.80641 0.57423
0.00000 0.80940 0.59021
0.57105 0.81753 0.62453
0.82054 0.82829 0.64286
0.96592 0.83453 0.65786
0.00000 0.94339 0.56831
0.11259 0.94652 0.57600
0.50788 0.95437 0.59100
0.74101 0.96531 0.59995
0.88446 0.96625 0.61075
0.03765 0.14344 0.86747
0.28145 0.14062 0.89181
0.64219 0.14144 0.93598
0.90387 0.22759 0.95013
1.00000 0.31565 0.89480
0.09560 0.33711 0.84420
0.33754 0.35335 0.86429
0.67237 0.38966 0.89245
0.89928 0.45973 0.89929
1.00000 0.47315 0.88029
0.24328 0.65242 0.80897
0.41278 0.65787 0.82001
0.66459 0.67040 0.83672
0.86802 0.68939 0.85321
0.99077 0.70494 0.85443
0.00000 0.82302 0.78425
0.31079 0.82606 0.79601
0.61531 0.83205 0.82020
0.83995 0.83973 0.83936
0.98527 0.84154 0.84572
0.28136 0.94797 0.75463
0.39172 0.95055 0.76221
0.58920 0.95804 0.78010
0.77723 0.96820 0.80153
0.91172 0.97152 0.81629
0.00000 0.20558 0.98823
0.28239 0.20051 1.00000
0.61493 0.20574 1.00000
0.87425 0.22492 1.00000
1.00000 0.35910 1.00000
0.10480 0.36808 0.96985
0.31357 0.37213 0.98566
0.63921 0.38129 1.00000
0.87870 0.42588 1.00000
1.00000 0.51593 1.00000
0.41404 0.69893 0.93328
0.55372 0.71790 0.95045
0.71750 0.72037 0.98289
0.87559 0.74115 0.99313
0.98414 0.76346 0.98767
0.42697 0.83081 0.91763
0.51568 0.83401 0.92750
0.68479 0.84420 0.94870
0.85264 0.86783 0.96849
0.98330 0.87928 0.97819
0.50378 0.94647 0.88094
0.55402 0.94944 0.88796
0.67531 0.95710 0.90828
0.82447 0.96787 0.93892
0.96986 0.96993 0.96990
