fuji-film/cube-lut/srgb/srgb-velvia.cube
LUT_3D_SIZE 8
DOMAIN_MIN 0.000000 0.000000 0.000000
DOMAIN_MAX 0.903226 0.903226 0.903226
0.00000 0.00000 0.00000
0.05759 0.00000 0.00000
0.29720 0.00000 0.00000
0.63875 0.00000 0.00000
0.89689 0.00000 0.00000
1.00000 0.00000 0.00000
1.00000 0.00000 0.12471
1.00000 0.00000 0.00000
0.00000 0.05558 0.00000
0.03275 0.04989 0.00000
0.30236 0.05499 0.00000
0.64742 0.03298 0.00000
0.89708 0.00000 0.00000
1.00000 0.00000 0.00000
1.00000 0.00000 0.00000
1.00000 0.00000 0.00000
0.00000 0.28019 0.00000
0.00000 0.28543 0.00000
0.29171 0.29726 0.00000
0.60634 0.30107 0.00000
0.86311 0.27895 0.00000
1.00000 0.18791 0.00000
1.00000 0.09802 0.00000
1.00000 0.03699 0.00000
0.00000 0.54021 0.00000
0.00000 0.54114 0.00000
0.00000 0.54037 0.00000
0.49012 0.53536 0.00000
0.76885 0.52060 0.00000
0.99084 0.48751 0.00000
1.00000 0.43537 0.00000
1.00000 0.38798 0.00000
0.00000 0.72269 0.00000
0.00000 0.72255 0.00000
0.00000 0.71959 0.00000
0.31910 0.71132 0.00000
0.65201 0.69847 0.00000
0.88991 0.68870 0.00000
1.00000 0.66688 0.00000
1.00000 0.63446 0.00000
0.00000 0.86487 0.00000
0.00000 0.86469 0.00000
0.00000 0.86303 0.00000
0.00000 0.85779 0.00000
0.50541 0.85138 0.00000
0.77561 0.84417 0.00000
0.94292 0.83124 0.00000
1.00000 0.81511 0.00000
0.00000 0.96593 0.00000
0.00000 0.96572 0.00000
0.00000 0.96484 0.00000
0.00000 0.96325 0.00000
0.00044 0.96292 0.00000
0.62992 0.96360 0.00000
0.85493 0.95688 0.00000
0.96739 0.96150 0.00000
0.00000 0.99988 0.00000
0.00000 0.99982 0.00000
0.00000 1.00000 0.00000
0.00000 1.00000 0.00000
0.22205 1.00000 0.00000
0.58206 1.00000 0.00000
0.74635 1.00000 0.00000
0.83118 1.00000 0.00000
0.00000 0.00000 0.08068
0.05487 0.00073 0.05740
0.31020 0.00000 0.09448
0.65390 0.00000 0.13507
0.90228 0.00000 0.15132
1.00000 0.00000 0.19705
1.00000 0.00000 0.26191
1.00000 0.00000 0.18551
0.00000 0.04403 0.04438
0.05139 0.05071 0.05210
0.32478 0.05272 0.05539
0.65956 0.01061 0.05688
0.90041 0.00000 0.01836
1.00000 0.00000 0.08260
1.00000 0.00000 0.17935
1.00000 0.00000 0.00000
0.00000 0.29016 0.00000
0.00000 0.29640 0.00000
0.27448 0.30333 0.00000
0.60603 0.30140 0.00000
0.85209 0.28797 0.00000
1.00000 0.20350 0.00000
1.00000 0.11664 0.00000
1.00000 0.06670 0.00000
0.00000 0.54877 0.00000
0.00000 0.54876 0.00000
0.00000 0.54575 0.00000
0.48077 0.53923 0.00000
0.75956 0.52870 0.00000
0.98843 0.50031 0.00000
1.00000 0.44621 0.00000
1.00000 0.39530 0.00000
0.00000 0.72793 0.00000
0.00000 0.72747 0.00000
0.00000 0.72280 0.00000
0.30543 0.71283 0.00000
0.64762 0.70030 0.00000
0.88901 0.69246 0.00000
1.00000 0.67193 0.00000
1.00000 0.64176 0.00000
0.00000 0.86971 0.00000
0.00000 0.86941 0.00000
0.00000 0.86732 0.00000
0.00000 0.86072 0.00000
0.50587 0.85386 0.00000
0.78019 0.84700 0.00000
0.95034 0.83476 0.00000
1.00000 0.81973 0.00000
0.00000 0.96910 0.00000
0.00000 0.96871 0.00000
0.00000 0.96747 0.00000
0.00000 0.96580 0.00000
0.02306 0.96573 0.00000
0.63844 0.96770 0.00000
0.86113 0.96135 0.00000
0.97141 0.96730 0.00000
0.00000 1.00000 0.00000
0.00000 1.00000 0.00000
0.00000 1.00000 0.00000
0.00000 1.00000 0.00000
0.23984 1.00000 0.00000
0.58691 1.00000 0.00000
0.74925 1.00000 0.00000
0.83255 1.00000 0.00000
0.01808 0.00000 0.39781
0.15463 0.00000 0.40374
0.39227 0.00000 0.43146
0.68258 0.00000 0.45401
0.89253 0.00000 0.44658
1.00000 0.00000 0.47171
1.00000 0.00000 0.48503
1.00000 0.00000 0.44919
0.00000 0.06480 0.38179
0.11745 0.06369 0.39222
0.37981 0.06898 0.40101
0.66564 0.02694 0.41203
0.87073 0.05179 0.42840
1.00000 0.03811 0.44384
1.00000 0.00000 0.45038
1.00000 0.00000 0.38066
0.00000 0.30819 0.32363
0.00000 0.30884 0.31603
0.30702 0.30713 0.30685
0.61015 0.30165 0.30386
0.83143 0.30013 0.33195
1.00000 0.30978 0.34953
1.00000 0.24097 0.32948
1.00000 0.17306 0.21328
0.00000 0.55636 0.24443
0.00000 0.55430 0.23365
0.00000 0.54686 0.21258
0.49032 0.53637 0.20593
0.74882 0.53202 0.22815
0.97044 0.52631 0.25137
1.00000 0.50113 0.24185
1.00000 0.43471 0.09202
0.00000 0.73508 0.19598
0.00000 0.73317 0.18287
0.00000 0.72207 0.16335
0.30625 0.70709 0.16587
0.64451 0.69893 0.18653
0.87956 0.69641 0.18566
1.00000 0.68325 0.15487
1.00000 0.66438 0.07894
0.00000 0.88059 0.16590
0.00000 0.88024 0.15461
0.00000 0.87627 0.12826
0.00000 0.86381 0.10547
0.51597 0.85470 0.12836
0.78993 0.85003 0.10933
0.96633 0.84209 0.07178
1.00000 0.83051 0.00000
0.00000 0.97455 0.13561
0.00000 0.97358 0.11887
0.00000 0.97114 0.06574
0.00000 0.96874 0.00000
0.17687 0.96988 0.00000
0.65876 0.97364 0.00000
0.87823 0.96883 0.00000
0.97723 0.97822 0.00000
0.00000 1.00000 0.24886
0.00000 1.00000 0.24433
0.00000 1.00000 0.23441
0.00000 1.00000 0.22313
0.28555 1.00000 0.21794
0.59530 1.00000 0.21053
0.75463 1.00000 0.22053
0.83554 1.00000 0.25164
0.10271 0.00000 0.77120
0.23419 0.00000 0.78073
0.43447 0.00000 0.80318
0.69279 0.00000 0.79491
0.87758 0.00000 0.74928
1.00000 0.00000 0.72334
1.00000 0.05739 0.72595
1.00000 0.12082 0.74219
0.00000 0.03876 0.75957
0.20736 0.05276 0.76405
0.42931 0.08167 0.77479
0.67169 0.10086 0.74825
0.86156 0.13948 0.71695
1.00000 0.16822 0.70191
1.00000 0.19697 0.70418
1.00000 0.21879 0.71480
0.00000 0.32087 0.67783
0.00000 0.32007 0.66821
0.36634 0.32166 0.64413
0.61593 0.32253 0.62828
0.82221 0.33544 0.63029
1.00000 0.34566 0.63342
1.00000 0.35920 0.63727
1.00000 0.36948 0.63038
0.00000 0.55050 0.56564
0.00000 0.54560 0.55877
0.16107 0.53562 0.54329
0.52791 0.52707 0.52673
0.75364 0.52442 0.51708
0.95887 0.52109 0.52303
1.00000 0.52271 0.53964
1.00000 0.52639 0.53603
0.00000 0.72528 0.49271
0.00000 0.72082 0.48566
0.00000 0.71070 0.46869
0.35897 0.69891 0.45209
0.66127 0.68991 0.44430
0.88259 0.68733 0.44731
1.00000 0.68133 0.45940
1.00000 0.68572 0.47438
0.00000 0.88103 0.42609
0.00000 0.87950 0.41941
0.00000 0.87307 0.40332
0.00000 0.85930 0.38299
0.54059 0.84773 0.37467
0.80050 0.84409 0.37421
0.97858 0.84260 0.38824
1.00000 0.84020 0.40698
0.00000 0.97453 0.39073
0.00000 0.97274 0.38534
0.00000 0.96856 0.37204
0.00000 0.96714 0.35117
0.35015 0.97025 0.33610
0.69046 0.97119 0.34087
0.89637 0.97735 0.34471
0.97566 0.98693 0.37843
0.00000 1.00000 0.43123
0.00000 1.00000 0.42892
0.00000 1.00000 0.42394
0.00000 1.00000 0.41717
0.35178 1.00000 0.41217
0.60635 1.00000 0.41032
0.75863 1.00000 0.41934
0.83893 1.00000 0.43629
0.16769 0.00000 1.00000
0.27205 0.00000 1.00000
0.45416 0.00000 1.00000
0.68136 0.00000 1.00000
0.86922 0.00000 0.97178
1.00000 0.09828 0.92150
1.00000 0.00861 0.96113
1.00000 0.11504 0.90345
0.12263 0.00000 1.00000
0.25437 0.00000 1.00000
0.45731 0.00000 1.00000
0.68592 0.00000 0.99570
0.86480 0.14449 0.94475
1.00000 0.22469 0.90487
1.00000 0.19292 0.93311
1.00000 0.23881 0.87975
0.12580 0.33550 0.92349
0.26849 0.34322 0.91459
0.46391 0.34596 0.89654
0.65844 0.34798 0.88122
0.83667 0.36117 0.86437
1.00000 0.38116 0.85329
1.00000 0.38033 0.84922
1.00000 0.41242 0.81867
0.00000 0.54242 0.80814
0.00000 0.54020 0.80153
0.33399 0.53586 0.78833
0.56546 0.53129 0.77184
0.76876 0.53178 0.75945
0.95880 0.53404 0.76544
1.00000 0.53757 0.75534
1.00000 0.56127 0.74708
0.00000 0.71314 0.72593
0.00000 0.70968 0.72085
0.00000 0.70195 0.70969
0.43710 0.69192 0.69522
0.68460 0.68383 0.68366
0.89619 0.67982 0.67694
1.00000 0.67460 0.68236
1.00000 0.68575 0.68771
0.00000 0.86961 0.65697
0.00000 0.86735 0.65236
0.00000 0.85998 0.64022
0.12881 0.84878 0.62249
0.56400 0.84074 0.60844
0.80772 0.83437 0.60202
0.98513 0.83109 0.61202
1.00000 0.83053 0.63145
0.00000 0.97280 0.61148
0.00000 0.97191 0.60773
0.00000 0.96981 0.59872
0.00000 0.96724 0.58514
0.43792 0.96477 0.57278
0.72043 0.96832 0.56640
0.91478 0.97607 0.56495
0.97765 0.97694 0.59524
0.00000 1.00000 0.61146
0.00000 1.00000 0.60996
0.00000 1.00000 0.60615
0.00000 1.00000 0.60040
0.40854 1.00000 0.59467
0.62210 1.00000 0.59417
0.76387 1.00000 0.60036
0.84877 1.00000 0.60923
0.23066 0.00000 0.98716
0.31068 0.00000 0.98985
0.47056 0.00000 0.99920
0.67395 0.00000 1.00000
0.85939 0.00000 1.00000
1.00000 0.06029 1.00000
1.00000 0.15329 1.00000
1.00000 0.14814 1.00000
0.21233 0.00000 0.98518
0.29805 0.00000 0.99111
0.47700 0.00000 0.99869
0.68155 0.00000 1.00000
0.85873 0.00000 1.00000
1.00000 0.22385 1.00000
1.00000 0.26645 1.00000
1.00000 0.25988 0.99452
0.20496 0.29827 0.99638
0.32721 0.30799 0.99685
0.50648 0.32033 0.99707
0.68188 0.31568 0.99791
0.84704 0.35155 0.99497
1.00000 0.39515 0.99117
1.00000 0.42063 0.98913
1.00000 0.42127 0.96254
0.15825 0.55328 0.99187
0.27664 0.55379 0.99125
0.44144 0.55192 0.98929
0.61911 0.54807 0.98003
0.79831 0.54322 0.96238
0.96699 0.54915 0.96611
1.00000 0.56037 0.94337
1.00000 0.57952 0.91626
0.00000 0.70421 0.95352
0.00000 0.70219 0.94852
0.27579 0.69758 0.93720
0.52409 0.69046 0.92499
0.72457 0.68524 0.92484
0.90862 0.68236 0.91488
1.00000 0.68405 0.89177
1.00000 0.70420 0.87771
0.00000 0.85823 0.87932
0.00000 0.85714 0.87874
0.00000 0.85337 0.87701
0.32357 0.84534 0.87020
0.61554 0.83650 0.85175
0.83292 0.83160 0.83213
0.99232 0.82718 0.83482
1.00000 0.82679 0.83006
0.00000 0.97176 0.82897
0.00000 0.97084 0.82588
0.00000 0.96882 0.81799
0.00000 0.96590 0.80427
0.50145 0.96551 0.78948
0.73782 0.96885 0.78017
0.90825 0.96632 0.78043
0.98059 0.96008 0.78499
0.00000 1.00000 0.76559
0.00000 1.00000 0.76444
0.00000 1.00000 0.76173
0.19380 1.00000 0.75782
0.47679 1.00000 0.75473
0.65577 1.00000 0.75444
0.78481 1.00000 0.75758
0.87585 1.00000 0.76038
0.31810 0.00000 0.98734
0.37725 0.00000 0.98948
0.50897 0.00000 0.99398
0.68348 0.00000 0.99900
0.86146 0.00000 1.00000
1.00000 0.00000 1.00000
1.00000 0.00000 1.00000
1.00000 0.21315 1.00000
0.30881 0.00000 0.99057
0.37413 0.00000 0.99233
0.51221 0.00000 0.99529
0.68855 0.00000 0.99889
0.86161 0.00000 1.00000
1.00000 0.11486 1.00000
1.00000 0.19565 1.00000
1.00000 0.31502 1.00000
0.30298 0.26771 0.99633
0.38159 0.26260 0.99645
0.52783 0.25855 0.99670
0.69316 0.23242 0.99755
0.85389 0.29501 0.99808
1.00000 0.37615 1.00000
1.00000 0.41232 1.00000
1.00000 0.47345 1.00000
0.32526 0.54495 0.99516
0.40648 0.55279 0.99526
0.53910 0.56095 0.99574
0.67736 0.54895 0.99583
0.82050 0.54623 0.99830
0.97780 0.56943 1.00000
1.00000 0.59103 1.00000
1.00000 0.61781 0.99747
0.18768 0.70529 0.99527
0.28349 0.70433 0.99529
0.43365 0.70181 0.99596
0.59267 0.70065 1.00000
0.75184 0.70045 1.00000
0.91483 0.70518 1.00000
1.00000 0.71340 1.00000
1.00000 0.72639 0.98947
0.00000 0.85055 1.00000
0.00000 0.84911 1.00000
0.13633 0.84550 1.00000
0.44488 0.83985 1.00000
0.65552 0.83475 1.00000
0.85563 0.83088 1.00000
1.00000 0.83018 0.98969
1.00000 0.83089 0.96963
0.00000 0.97388 0.98994
0.00000 0.97312 0.98655
0.00000 0.97059 0.97815
0.29116 0.96656 0.96614
0.57593 0.96264 0.95442
0.78589 0.95986 0.94997
0.95168 0.95163 0.95099
1.00000 0.94031 0.94153
0.00000 1.00000 0.89299
0.00000 1.00000 0.89267
0.12797 1.00000 0.89198
0.38357 1.00000 0.89131
0.56169 1.00000 0.89169
0.71559 1.00000 0.89433
0.84203 1.00000 0.89769
0.92881 1.00000 0.89787
0.39771 0.00000 0.99320
0.45538 0.00000 0.99435
0.56992 0.00000 0.99665
0.72090 0.00000 0.99842
0.88598 0.00000 1.00000
1.00000 0.00000 1.00000
1.00000 0.00000 1.00000
1.00000 0.11033 1.00000
0.40670 0.00762 0.99508
0.46280 0.00000 0.99616
0.57256 0.00000 0.99745
0.72204 0.00000 0.99846
0.88587 0.00000 0.99977
1.00000 0.00000 1.00000
1.00000 0.00000 1.00000
1.00000 0.25849 1.00000
0.40043 0.26656 0.99688
0.45313 0.26248 0.99706
0.56665 0.25122 0.99739
0.71784 0.24739 0.99803
0.87539 0.27453 0.99829
1.00000 0.31193 0.99915
1.00000 0.37478 1.00000
1.00000 0.44824 1.00000
0.42328 0.52683 0.99567
0.48116 0.53462 0.99571
0.59559 0.55246 0.99623
0.71922 0.55019 0.99691
0.85403 0.54382 0.99777
0.98602 0.56404 0.99846
1.00000 0.61157 1.00000
1.00000 0.62847 1.00000
0.42884 0.72449 0.99521
0.47743 0.72661 0.99528
0.57134 0.72970 0.99532
0.68482 0.72778 0.99555
0.80965 0.72362 0.99674
0.93106 0.73109 1.00000
1.00000 0.74584 1.00000
1.00000 0.75207 1.00000
0.23017 0.84605 0.99664
0.30653 0.84442 0.99698
0.43643 0.84241 0.99811
0.58019 0.84284 1.00000
0.72726 0.84387 1.00000
0.86485 0.84826 1.00000
0.98511 0.85042 1.00000
1.00000 0.84331 1.00000
0.00000 0.96023 1.00000
0.10253 0.95970 1.00000
0.31569 0.95868 1.00000
0.49101 0.95738 1.00000
0.65577 0.95541 1.00000
0.80633 0.95262 1.00000
0.94320 0.94181 1.00000
1.00000 0.92211 1.00000
0.23236 1.00000 0.97261
0.28219 1.00000 0.97311
0.37635 1.00000 0.97448
0.49771 1.00000 0.97749
0.62846 1.00000 0.98160
0.75610 1.00000 0.98767
0.88299 1.00000 0.99284
0.99238 0.99264 0.99261
