fuji-film/cube-lut/srgb/srgb-pro-neg-hi.cube
LUT_3D_SIZE 8
DOMAIN_MIN 0.000000 0.000000 0.000000
DOMAIN_MAX 0.903226 0.903226 0.903226
0.00000 0.00000 0.00000
0.03199 0.00001 0.00000
0.19894 0.00366 0.00000
0.47280 0.00000 0.00000
0.69657 0.00000 0.00000
0.87172 0.00000 0.00000
1.00000 0.00000 0.00000
1.00000 0.00000 0.00000
0.00000 0.03616 0.00000
0.04167 0.04160 0.00000
0.23179 0.05709 0.00000
0.49812 0.03520 0.00000
0.71707 0.00000 0.00000
0.88484 0.00000 0.00000
1.00000 0.00000 0.00000
1.00000 0.00000 0.00000
0.00000 0.21975 0.00000
0.00000 0.22951 0.00000
0.24880 0.25275 0.00000
0.52841 0.26660 0.00000
0.74991 0.22268 0.00000
0.91563 0.18837 0.00000
1.00000 0.14148 0.00000
1.00000 0.10056 0.00000
0.00000 0.46578 0.00000
0.00000 0.47024 0.00000
0.17526 0.48096 0.00000
0.48971 0.49139 0.00000
0.72145 0.49395 0.00000
0.91916 0.47110 0.00000
1.00000 0.44298 0.00000
1.00000 0.40679 0.00000
0.00000 0.65265 0.00000
0.00000 0.65596 0.00000
0.00000 0.66298 0.00000
0.37699 0.66890 0.00000
0.66514 0.67341 0.00000
0.86692 0.67423 0.00000
1.00000 0.66079 0.00000
1.00000 0.63112 0.00000
0.00000 0.80259 0.00000
0.00000 0.80473 0.00000
0.00000 0.80940 0.00000
0.12441 0.81253 0.00000
0.59242 0.81234 0.00000
0.81943 0.81222 0.00000
0.98343 0.81652 0.00000
1.00000 0.80179 0.00000
0.00000 0.91759 0.00000
0.00000 0.91928 0.00000
0.00000 0.92232 0.00000
0.00000 0.92470 0.00000
0.46826 0.92272 0.00000
0.75381 0.92185 0.00000
0.91999 0.92865 0.00000
0.98922 0.93215 0.00000
0.00000 0.98369 0.00000
0.00000 0.98486 0.00000
0.00000 0.98706 0.00000
0.00000 0.99164 0.00000
0.45551 0.99964 0.00000
0.67900 1.00000 0.08808
0.80412 1.00000 0.13032
0.87548 1.00000 0.21085
0.00000 0.00000 0.03659
0.04610 0.00701 0.05433
0.23155 0.01787 0.09162
0.49216 0.00000 0.13422
0.70490 0.00000 0.15444
0.87374 0.00000 0.19504
1.00000 0.00000 0.22090
1.00000 0.00000 0.10726
0.00193 0.04899 0.04565
0.06298 0.06306 0.06358
0.25550 0.08607 0.09651
0.51568 0.08791 0.13298
0.72265 0.00586 0.13018
0.88697 0.00000 0.14143
1.00000 0.00000 0.15516
1.00000 0.00000 0.00000
0.00000 0.23601 0.02150
0.00000 0.24749 0.02876
0.25535 0.27075 0.05560
0.52795 0.28911 0.08413
0.74478 0.27044 0.09449
0.91750 0.20656 0.05821
1.00000 0.16610 0.00000
1.00000 0.12337 0.00000
0.00000 0.47527 0.00000
0.00000 0.48034 0.00000
0.16205 0.48650 0.00000
0.48863 0.50075 0.01553
0.71900 0.50924 0.00000
0.91586 0.48883 0.00000
1.00000 0.45803 0.00000
1.00000 0.41760 0.00000
0.00000 0.65764 0.00000
0.00000 0.66077 0.00000
0.00000 0.66763 0.00000
0.39985 0.67288 0.00000
0.67035 0.67877 0.00000
0.86508 0.68231 0.00000
1.00000 0.67070 0.00000
1.00000 0.64066 0.00000
0.00000 0.80634 0.00000
0.00000 0.80803 0.00000
0.00000 0.81242 0.00000
0.16259 0.81494 0.00000
0.60468 0.81428 0.00000
0.82035 0.81473 0.00000
0.98474 0.82085 0.00000
1.00000 0.80709 0.00000
0.00000 0.92068 0.00000
0.00000 0.92218 0.00000
0.00000 0.92525 0.00000
0.00000 0.92727 0.00000
0.48312 0.92474 0.00000
0.76076 0.92465 0.06024
0.92385 0.93222 0.00000
0.99026 0.93659 0.00000
0.00000 0.98559 0.00000
0.00000 0.98669 0.00000
0.00000 0.98892 0.00000
0.00000 0.99406 0.03631
0.46261 1.00000 0.15313
0.68178 1.00000 0.19917
0.80490 1.00000 0.23166
0.87578 1.00000 0.27121
0.00438 0.00585 0.23223
0.06196 0.01019 0.25927
0.28243 0.02567 0.32227
0.52122 0.02660 0.36580
0.71664 0.01894 0.41262
0.87545 0.06119 0.47148
1.00000 0.00000 0.49771
1.00000 0.00000 0.43425
0.01625 0.08750 0.26260
0.10439 0.10039 0.28204
0.30079 0.11819 0.32227
0.52707 0.13730 0.36812
0.72220 0.17382 0.41646
0.88414 0.19423 0.46512
1.00000 0.09152 0.47198
1.00000 0.00000 0.40030
0.00000 0.27551 0.26049
0.00000 0.28090 0.26867
0.29676 0.29631 0.29718
0.53957 0.31454 0.32910
0.73008 0.34281 0.38013
0.89590 0.35900 0.42330
1.00000 0.30613 0.42613
1.00000 0.22232 0.34551
0.00000 0.49154 0.22988
0.00000 0.49344 0.23754
0.18507 0.49892 0.25990
0.50266 0.51220 0.29238
0.71268 0.52722 0.33014
0.89099 0.53311 0.36617
1.00000 0.52409 0.38825
1.00000 0.46215 0.30281
0.00000 0.66481 0.21867
0.00000 0.66624 0.22213
0.00000 0.67153 0.23374
0.43744 0.67888 0.27374
0.67807 0.68745 0.29907
0.85585 0.69761 0.33768
1.00000 0.69477 0.32473
1.00000 0.67663 0.30970
0.00000 0.81154 0.21314
0.00000 0.81253 0.21539
0.00000 0.81490 0.21810
0.27882 0.81638 0.24057
0.62485 0.81719 0.29922
0.82492 0.82046 0.30559
0.97630 0.82760 0.33245
1.00000 0.81941 0.30212
0.00000 0.92522 0.20686
0.00000 0.92639 0.19906
0.00000 0.92879 0.18469
0.00000 0.92969 0.19869
0.51949 0.92768 0.27310
0.77359 0.93004 0.33238
0.92901 0.93960 0.30607
0.99252 0.94551 0.32644
0.00000 0.99003 0.26385
0.00000 0.99097 0.26590
0.00000 0.99338 0.27670
0.00000 0.99869 0.29409
0.48308 1.00000 0.32480
0.68677 1.00000 0.34706
0.80689 1.00000 0.36519
0.87598 1.00000 0.39545
0.00000 0.00000 0.52125
0.08674 0.00000 0.54068
0.29240 0.00000 0.59102
0.53966 0.00287 0.63677
0.73255 0.07453 0.65946
0.88181 0.10804 0.67918
1.00000 0.11022 0.70660
1.00000 0.19864 0.69319
0.00000 0.09754 0.53848
0.12182 0.11709 0.55612
0.33349 0.13948 0.58845
0.55576 0.18216 0.61034
0.73587 0.20896 0.63305
0.88753 0.24467 0.66067
1.00000 0.25211 0.69401
1.00000 0.28565 0.69002
0.00000 0.31841 0.53111
0.12977 0.32298 0.53487
0.34519 0.34075 0.54621
0.55156 0.35726 0.56694
0.73637 0.38162 0.58795
0.89212 0.40785 0.61754
1.00000 0.42554 0.66065
1.00000 0.43883 0.66546
0.00000 0.50690 0.49223
0.00000 0.51147 0.49665
0.27818 0.51521 0.50969
0.52443 0.52426 0.52437
0.72138 0.53459 0.54564
0.88655 0.54252 0.57234
1.00000 0.56613 0.61094
1.00000 0.58238 0.62253
0.00000 0.67537 0.45991
0.00000 0.67783 0.46315
0.05477 0.68149 0.47072
0.46118 0.68616 0.48627
0.68693 0.69082 0.50415
0.85688 0.69931 0.53064
0.98987 0.70570 0.56328
1.00000 0.71981 0.58999
0.00000 0.81427 0.43642
0.00000 0.81520 0.43892
0.00000 0.81663 0.44708
0.36567 0.81737 0.46256
0.63694 0.81899 0.48576
0.82177 0.82276 0.51089
0.95976 0.83026 0.54855
1.00000 0.83293 0.57141
0.00000 0.92582 0.43239
0.00000 0.92609 0.43344
0.00000 0.92676 0.43732
0.18333 0.92690 0.45128
0.57607 0.92763 0.47976
0.78440 0.93399 0.50957
0.92603 0.94764 0.52452
0.99136 0.95454 0.56994
0.00000 0.99788 0.45387
0.00000 0.99913 0.45541
0.00000 1.00000 0.46047
0.21936 1.00000 0.47106
0.51901 1.00000 0.48660
0.69305 1.00000 0.50192
0.80547 1.00000 0.51938
0.87685 1.00000 0.53919
0.03494 0.00000 0.75761
0.11654 0.00000 0.77684
0.32306 0.00000 0.82292
0.53839 0.00000 0.86175
0.74122 0.02216 0.87031
0.89310 0.18296 0.87521
1.00000 0.18686 0.88763
1.00000 0.23635 0.87055
0.00000 0.09114 0.77363
0.14245 0.09717 0.79049
0.35482 0.11128 0.82289
0.56131 0.15309 0.83945
0.75129 0.23758 0.84134
0.89483 0.30865 0.84372
1.00000 0.29443 0.87022
1.00000 0.32696 0.85785
0.13216 0.35819 0.75612
0.26290 0.37598 0.75798
0.41759 0.38891 0.76593
0.58668 0.39968 0.77308
0.75300 0.42548 0.78431
0.89707 0.45131 0.79316
1.00000 0.45819 0.82815
1.00000 0.48562 0.82190
0.00000 0.53178 0.71319
0.14798 0.53432 0.71618
0.36710 0.54088 0.72184
0.55993 0.54898 0.73171
0.73332 0.55984 0.74176
0.88507 0.57639 0.75545
1.00000 0.59757 0.77980
1.00000 0.62690 0.78119
0.00000 0.69135 0.66968
0.00000 0.69245 0.67250
0.23489 0.69417 0.67956
0.49661 0.69657 0.68903
0.70075 0.70052 0.70025
0.85870 0.70535 0.71728
0.98483 0.71648 0.73482
1.00000 0.73239 0.75003
0.00000 0.82109 0.63886
0.00000 0.82156 0.64089
0.00000 0.82297 0.64565
0.41524 0.82347 0.65439
0.65403 0.82290 0.66819
0.82407 0.82557 0.68243
0.95361 0.83085 0.70777
1.00000 0.83561 0.73333
0.00000 0.92668 0.62179
0.00000 0.92695 0.62365
0.00000 0.92718 0.62824
0.32054 0.92760 0.63709
0.60403 0.93028 0.65101
0.78766 0.93788 0.66819
0.92549 0.94900 0.68807
0.98913 0.95408 0.72324
0.00000 1.00000 0.61956
0.00000 1.00000 0.62101
0.00000 1.00000 0.62504
0.34256 1.00000 0.63187
0.55586 1.00000 0.64137
0.69967 1.00000 0.65569
0.80396 1.00000 0.67074
0.88131 1.00000 0.68193
0.12285 0.00000 0.90075
0.21699 0.00000 0.93593
0.35953 0.00000 0.98541
0.54224 0.00000 1.00000
0.72930 0.00000 1.00000
0.89593 0.07849 1.00000
1.00000 0.26162 0.99742
1.00000 0.30345 0.98890
0.14267 0.08501 0.95433
0.22047 0.08393 0.97658
0.38642 0.07478 0.99690
0.56360 0.08660 0.99697
0.74449 0.15502 0.99546
0.90264 0.27734 0.99083
1.00000 0.35890 0.98691
1.00000 0.36658 0.98312
0.22618 0.34713 0.94189
0.31661 0.36761 0.94412
0.46034 0.38927 0.94871
0.61392 0.40337 0.95577
0.77063 0.43288 0.95407
0.91034 0.47116 0.95423
1.00000 0.51009 0.96508
1.00000 0.49700 0.95938
0.26656 0.57475 0.88607
0.34047 0.58049 0.88787
0.46687 0.58522 0.89239
0.61410 0.58668 0.89886
0.76315 0.59694 0.90616
0.89760 0.61496 0.91116
1.00000 0.63608 0.92726
1.00000 0.64595 0.91595
0.00000 0.70505 0.84436
0.18293 0.70600 0.84645
0.37244 0.70815 0.85148
0.55758 0.71045 0.85828
0.72401 0.71566 0.86509
0.86635 0.72644 0.87507
0.99065 0.74110 0.88439
1.00000 0.75516 0.88232
0.00000 0.83023 0.80944
0.00000 0.83037 0.81101
0.23043 0.83058 0.81475
0.48794 0.83045 0.82098
0.68354 0.83114 0.82846
0.83599 0.83546 0.83569
0.96515 0.83958 0.85071
1.00000 0.84434 0.85992
0.00000 0.93361 0.78421
0.00000 0.93379 0.78567
0.00000 0.93425 0.78915
0.41185 0.93540 0.79474
0.63556 0.93759 0.80191
0.79541 0.94287 0.81087
0.92125 0.94775 0.82490
0.98775 0.94757 0.83889
0.00000 1.00000 0.76382
0.00000 1.00000 0.76483
0.23725 1.00000 0.76727
0.44001 1.00000 0.77163
0.59241 1.00000 0.77836
0.71774 1.00000 0.78758
0.81967 1.00000 0.79785
0.89926 1.00000 0.80356
0.22874 0.00000 0.93773
0.28673 0.00000 0.95164
0.41136 0.00000 0.97516
0.56487 0.00000 0.99134
0.73146 0.00000 0.99717
0.88615 0.00000 0.99970
0.99801 0.20978 1.00000
1.00000 0.35844 1.00000
0.23513 0.10955 0.97420
0.29928 0.10029 0.98101
0.42106 0.07518 0.99152
0.57917 0.04016 0.99696
0.74383 0.05383 0.99788
0.89431 0.16248 0.99947
1.00000 0.33274 1.00000
1.00000 0.42177 1.00000
0.27164 0.32846 0.99778
0.33477 0.33222 0.99781
0.46339 0.34832 0.99696
0.61509 0.36054 0.99692
0.77293 0.40264 0.99817
0.90554 0.45275 0.99956
1.00000 0.51220 1.00000
1.00000 0.56279 1.00000
0.35627 0.58936 0.99784
0.42352 0.60111 0.99795
0.54213 0.61657 0.99859
0.66191 0.61548 1.00000
0.78602 0.61725 1.00000
0.90603 0.65094 0.99856
1.00000 0.67535 1.00000
1.00000 0.69689 0.99560
0.32143 0.73485 0.99044
0.38070 0.73579 0.99101
0.48880 0.73685 0.99162
0.62189 0.73883 0.99029
0.75476 0.74726 0.98931
0.88010 0.76089 0.99646
0.98988 0.77536 0.99988
1.00000 0.78619 0.98417
0.16143 0.83815 0.96131
0.26086 0.83823 0.96178
0.40881 0.83867 0.96349
0.57112 0.83991 0.96971
0.72183 0.84238 0.97773
0.85412 0.84683 0.98264
0.97353 0.85423 0.98218
1.00000 0.86001 0.96607
0.00000 0.94068 0.92793
0.06538 0.94063 0.92872
0.33283 0.94032 0.93059
0.52597 0.93994 0.93335
0.68141 0.94209 0.93715
0.81942 0.94625 0.94016
0.94596 0.94616 0.94581
1.00000 0.94235 0.94618
0.27451 1.00000 0.87819
0.32114 1.00000 0.87901
0.41939 1.00000 0.88111
0.53105 1.00000 0.88478
0.64833 1.00000 0.89046
0.75935 1.00000 0.89827
0.86239 1.00000 0.90701
0.93867 1.00000 0.91225
0.29966 0.03239 0.96276
0.34019 0.02140 0.97298
0.44743 0.00173 0.98760
0.58311 0.03813 0.99894
0.73728 0.00000 0.99796
0.88063 0.00000 0.99856
0.99036 0.05973 0.99950
1.00000 0.32457 1.00000
0.30890 0.14467 0.98443
0.36549 0.14299 0.98892
0.46241 0.14633 0.99642
0.59789 0.15276 0.99953
0.74916 0.13449 0.99842
0.88873 0.16430 0.99870
0.99487 0.25521 1.00000
1.00000 0.39774 1.00000
0.34782 0.33265 0.99815
0.39412 0.33639 0.99854
0.49471 0.34366 0.99856
0.63204 0.35613 0.99835
0.77521 0.37604 0.99871
0.90220 0.42022 0.99952
1.00000 0.48113 0.99948
1.00000 0.54689 1.00000
0.42260 0.58559 0.99675
0.47816 0.59585 0.99661
0.58719 0.61716 0.99667
0.70259 0.62284 0.99707
0.80953 0.62419 0.99797
0.91269 0.64716 0.99903
1.00000 0.70145 1.00000
1.00000 0.71163 1.00000
0.49990 0.76648 0.99671
0.53938 0.77041 0.99699
0.61981 0.77579 0.99757
0.71275 0.77644 0.99783
0.80327 0.77501 0.99820
0.89694 0.78780 1.00000
0.98743 0.81133 1.00000
1.00000 0.81619 1.00000
0.43314 0.84666 0.99802
0.47358 0.84623 0.99805
0.55257 0.84655 0.99877
0.65480 0.84873 1.00000
0.75821 0.85424 1.00000
0.86189 0.86788 1.00000
0.96028 0.88179 1.00000
1.00000 0.88076 1.00000
0.37755 0.93117 0.99633
0.41676 0.93153 0.99667
0.50382 0.93223 0.99750
0.60889 0.93475 0.99896
0.71956 0.93988 1.00000
0.82848 0.94630 1.00000
0.93442 0.94714 1.00000
1.00000 0.93623 1.00000
0.44988 1.00000 0.96170
0.47316 1.00000 0.96249
0.52472 1.00000 0.96418
0.60182 1.00000 0.96771
0.69232 1.00000 0.97339
0.79096 1.00000 0.98047
0.89562 1.00000 0.98823
0.99095 0.99119 0.99120
