fuji-film/cube-lut/srgb/srgb-provia.cube
LUT_3D_SIZE 8
DOMAIN_MIN 0.000000 0.000000 0.000000
DOMAIN_MAX 0.903226 0.903226 0.903226
0.00000 0.00000 0.00000
0.09412 0.00150 0.00062
0.30889 0.00000 0.00000
0.57267 0.00000 0.00000
0.81796 0.00000 0.00000
0.99673 0.00000 0.00000
1.00000 0.00000 0.00000
1.00000 0.00000 0.00000
0.00000 0.07166 0.00397
0.07103 0.07803 0.00177
0.30325 0.07908 0.00000
0.57650 0.03545 0.00000
0.82126 0.00000 0.00000
1.00000 0.00000 0.00000
1.00000 0.00000 0.00000
1.00000 0.00000 0.00000
0.00000 0.25142 0.00000
0.00000 0.25699 0.00000
0.25549 0.26887 0.00000
0.54895 0.27321 0.00000
0.81261 0.23647 0.00000
1.00000 0.18410 0.00000
1.00000 0.11161 0.00000
1.00000 0.04128 0.00000
0.00000 0.48072 0.00000
0.00000 0.48447 0.00000
0.02010 0.49039 0.00000
0.46716 0.49563 0.00000
0.74580 0.49505 0.00000
0.95607 0.46233 0.00000
1.00000 0.41768 0.00000
1.00000 0.37897 0.00000
0.00000 0.67671 0.00000
0.00000 0.67807 0.00000
0.00000 0.68015 0.00000
0.34310 0.68092 0.00000
0.64623 0.68152 0.00000
0.86219 0.67841 0.00000
1.00000 0.66086 0.00000
1.00000 0.62831 0.00000
0.00000 0.83649 0.00000
0.00000 0.83756 0.00000
0.00000 0.83801 0.00000
0.00000 0.83298 0.00000
0.52081 0.82352 0.00000
0.77877 0.82005 0.00000
0.93661 0.81431 0.00000
1.00000 0.79796 0.00000
0.00000 0.94086 0.00000
0.00000 0.94148 0.00000
0.00000 0.94199 0.00000
0.00000 0.93873 0.00000
0.27277 0.92883 0.00000
0.68838 0.92192 0.00000
0.87104 0.92400 0.00000
0.97426 0.92089 0.00000
0.00000 0.99892 0.00000
0.00000 0.99900 0.00000
0.00000 0.99939 0.00000
0.00000 1.00000 0.00000
0.25033 1.00000 0.00000
0.59553 1.00000 0.00000
0.76714 1.00000 0.00000
0.86708 1.00000 0.00000
0.00783 0.00499 0.09534
0.10848 0.01779 0.10326
0.31670 0.02397 0.11416
0.57287 0.00000 0.14503
0.82263 0.00000 0.14332
0.99876 0.00000 0.16544
1.00000 0.00000 0.16873
1.00000 0.00000 0.00000
0.00000 0.08804 0.08481
0.09368 0.09408 0.09370
0.30928 0.10624 0.11332
0.57323 0.10630 0.13309
0.82329 0.02095 0.10743
1.00000 0.00000 0.09529
1.00000 0.00000 0.07981
1.00000 0.00000 0.00000
0.00000 0.26566 0.05085
0.00000 0.27027 0.05561
0.26202 0.28174 0.08030
0.54981 0.29609 0.09078
0.80819 0.27140 0.05585
0.99994 0.20253 0.00000
1.00000 0.15356 0.00000
1.00000 0.09389 0.00000
0.00000 0.49123 0.00000
0.00000 0.49431 0.00000
0.00000 0.49814 0.00000
0.46852 0.50389 0.00674
0.74359 0.50763 0.00000
0.95085 0.47957 0.00000
1.00000 0.43317 0.00000
1.00000 0.39056 0.00000
0.00000 0.68276 0.00000
0.00000 0.68386 0.00000
0.00000 0.68516 0.00000
0.33763 0.68507 0.00000
0.64782 0.68680 0.00000
0.86115 0.68645 0.00000
1.00000 0.67146 0.00000
1.00000 0.63975 0.00000
0.00000 0.83929 0.00000
0.00000 0.84026 0.00000
0.00000 0.84010 0.00000
0.00000 0.83386 0.00000
0.53630 0.82407 0.00000
0.78496 0.82294 0.00000
0.93971 0.81904 0.00000
1.00000 0.80407 0.00000
0.00000 0.94243 0.00000
0.00000 0.94311 0.00000
0.00000 0.94364 0.00000
0.00000 0.93968 0.00000
0.30078 0.92940 0.00000
0.70213 0.92307 0.00000
0.87719 0.92690 0.00000
0.97824 0.92437 0.00000
0.00000 0.99997 0.00000
0.00000 1.00000 0.00000
0.00000 1.00000 0.00000
0.00000 1.00000 0.00000
0.27099 1.00000 0.00000
0.60315 1.00000 0.00000
0.77075 1.00000 0.02394
0.86843 1.00000 0.16086
0.02281 0.01218 0.31278
0.12515 0.01600 0.32513
0.35551 0.03093 0.34747
0.60992 0.02771 0.36626
0.82862 0.02939 0.39241
0.99082 0.05987 0.42814
1.00000 0.00000 0.43461
1.00000 0.00000 0.37696
0.02364 0.11837 0.30529
0.14235 0.12890 0.31332
0.34383 0.14421 0.33115
0.59436 0.15793 0.35774
0.81515 0.17739 0.39073
0.98445 0.18572 0.41874
1.00000 0.06256 0.40946
1.00000 0.00000 0.33456
0.00000 0.29386 0.28805
0.00000 0.29703 0.29394
0.30741 0.30808 0.30756
0.57114 0.31794 0.32453
0.79699 0.33226 0.35489
0.96690 0.34249 0.38145
1.00000 0.28607 0.36744
1.00000 0.18756 0.27702
0.00000 0.50787 0.25042
0.00000 0.50863 0.25213
0.08794 0.51067 0.26021
0.48909 0.51574 0.27716
0.74266 0.52270 0.30521
0.92707 0.52558 0.33070
1.00000 0.51422 0.33779
1.00000 0.44438 0.24510
0.00000 0.69384 0.20215
0.00000 0.69414 0.20423
0.00000 0.69233 0.21326
0.34557 0.69021 0.24014
0.65479 0.69411 0.26976
0.85729 0.70031 0.29133
1.00000 0.69531 0.27195
1.00000 0.67364 0.26458
0.00000 0.83748 0.18375
0.00000 0.83717 0.18223
0.00000 0.83539 0.18431
0.00000 0.83062 0.20703
0.56447 0.82382 0.25185
0.79531 0.82558 0.25589
0.94426 0.82814 0.28459
1.00000 0.81844 0.21887
0.00000 0.94139 0.15073
0.00000 0.94162 0.14594
0.00000 0.94132 0.13729
0.00000 0.93697 0.14891
0.37656 0.92829 0.21340
0.72738 0.92540 0.27755
0.88994 0.93273 0.23459
0.98556 0.93101 0.28563
0.00000 1.00000 0.21211
0.00000 1.00000 0.21291
0.00000 1.00000 0.21674
0.00000 1.00000 0.23129
0.31832 1.00000 0.26449
0.61658 1.00000 0.28419
0.77738 1.00000 0.29955
0.87093 1.00000 0.33223
0.05028 0.00772 0.58150
0.16080 0.00051 0.59310
0.37639 0.00000 0.61931
0.64139 0.01997 0.63993
0.85020 0.09225 0.64160
0.99599 0.11097 0.64862
1.00000 0.11378 0.66367
1.00000 0.17756 0.65001
0.04252 0.13143 0.58105
0.17864 0.14731 0.58813
0.39140 0.16278 0.60136
0.62896 0.20172 0.60993
0.83206 0.22241 0.61873
0.98443 0.23585 0.63454
1.00000 0.24305 0.65664
1.00000 0.26832 0.64619
0.00000 0.33160 0.55617
0.13137 0.33697 0.55714
0.35788 0.34705 0.56165
0.59580 0.35301 0.56874
0.80096 0.37166 0.57982
0.95823 0.38802 0.60423
1.00000 0.40442 0.63449
1.00000 0.41325 0.63316
0.00000 0.52512 0.51898
0.00000 0.52468 0.52041
0.20394 0.52494 0.52358
0.52701 0.52670 0.52654
0.75641 0.53048 0.53859
0.92441 0.53980 0.55737
1.00000 0.55875 0.58682
1.00000 0.56959 0.59306
0.00000 0.69770 0.47481
0.00000 0.69748 0.47617
0.00000 0.69599 0.48035
0.39631 0.69443 0.48736
0.67778 0.69516 0.49523
0.86767 0.69992 0.51270
1.00000 0.70621 0.53802
1.00000 0.71451 0.56364
0.00000 0.83250 0.45037
0.00000 0.83143 0.45066
0.00000 0.82861 0.45261
0.19218 0.82403 0.45897
0.58959 0.82103 0.47129
0.80223 0.82399 0.49096
0.94663 0.83137 0.52618
1.00000 0.83042 0.54574
0.00000 0.93177 0.44564
0.00000 0.93130 0.44626
0.00000 0.92895 0.44768
0.00000 0.92587 0.45011
0.48927 0.92294 0.46393
0.74443 0.92744 0.48714
0.89952 0.93527 0.49991
0.98853 0.93550 0.54617
0.00000 1.00000 0.43819
0.00000 1.00000 0.43895
0.00000 1.00000 0.44133
0.00000 1.00000 0.44807
0.39404 1.00000 0.45852
0.63723 1.00000 0.46908
0.78419 1.00000 0.48521
0.87657 1.00000 0.50224
0.10822 0.00000 0.83547
0.21022 0.00000 0.84475
0.40594 0.00000 0.85935
0.64406 0.00000 0.87150
0.86076 0.04872 0.86575
1.00000 0.18085 0.85484
1.00000 0.16444 0.86267
1.00000 0.22639 0.83404
0.08203 0.13196 0.83149
0.20977 0.13371 0.83672
0.41595 0.14389 0.84407
0.64681 0.17717 0.84647
0.85116 0.23644 0.83911
0.98660 0.29466 0.82902
1.00000 0.27881 0.84702
1.00000 0.31519 0.82414
0.10450 0.36937 0.78782
0.25012 0.37976 0.78610
0.42959 0.38966 0.78711
0.63041 0.39655 0.78646
0.81701 0.41437 0.78586
0.95602 0.43751 0.78575
1.00000 0.44357 0.80785
1.00000 0.47222 0.79979
0.00000 0.54653 0.74637
0.00000 0.54754 0.74574
0.32606 0.54903 0.74401
0.56662 0.55131 0.74240
0.76697 0.55985 0.74173
0.92006 0.57336 0.74954
1.00000 0.59001 0.76333
1.00000 0.61890 0.76607
0.00000 0.70573 0.69881
0.00000 0.70532 0.69901
0.00000 0.70386 0.70027
0.46179 0.70282 0.70150
0.70401 0.70367 0.70338
0.87420 0.70591 0.71148
1.00000 0.71380 0.72388
1.00000 0.72786 0.73608
0.00000 0.83513 0.66815
0.00000 0.83376 0.66812
0.00000 0.83064 0.66794
0.29466 0.82536 0.66826
0.61915 0.82277 0.67179
0.81538 0.82394 0.68005
0.95398 0.82772 0.69825
1.00000 0.83053 0.72241
0.00000 0.93041 0.65067
0.00000 0.92966 0.65095
0.00000 0.92762 0.65147
0.00000 0.92458 0.65263
0.53146 0.92416 0.65648
0.75427 0.92771 0.66464
0.90893 0.93148 0.68100
0.98798 0.93340 0.71105
0.00000 1.00000 0.62199
0.00000 1.00000 0.62257
0.00000 1.00000 0.62394
0.00000 1.00000 0.62663
0.46254 1.00000 0.63129
0.65871 1.00000 0.63868
0.79156 1.00000 0.64966
0.88368 1.00000 0.65664
0.16709 0.00000 0.98872
0.25695 0.00000 0.99579
0.43056 0.00000 1.00000
0.64883 0.00000 1.00000
0.85919 0.00000 1.00000
1.00000 0.12863 1.00000
1.00000 0.24663 0.99573
1.00000 0.28001 0.97335
0.12878 0.14259 0.99983
0.24964 0.13826 1.00000
0.43764 0.12835 1.00000
0.65376 0.13709 1.00000
0.85618 0.18378 1.00000
1.00000 0.28565 0.99253
1.00000 0.35198 0.97835
1.00000 0.36273 0.96483
0.17092 0.36785 0.97190
0.28144 0.38168 0.97008
0.46888 0.39702 0.96784
0.66131 0.40586 0.96788
0.83329 0.43486 0.95554
0.97123 0.46889 0.95194
1.00000 0.50599 0.94371
1.00000 0.50365 0.94209
0.15520 0.58667 0.91384
0.26640 0.59038 0.91203
0.43782 0.59392 0.90800
0.62167 0.59427 0.90256
0.78852 0.60097 0.90225
0.92834 0.61532 0.90030
1.00000 0.63720 0.90785
1.00000 0.65054 0.90449
0.00000 0.72204 0.86710
0.00000 0.72195 0.86642
0.28351 0.72121 0.86529
0.53173 0.72036 0.86413
0.72951 0.72052 0.86278
0.88225 0.72754 0.86519
1.00000 0.74107 0.87235
1.00000 0.75559 0.87071
0.00000 0.83782 0.83288
0.00000 0.83688 0.83241
0.00000 0.83486 0.83138
0.40568 0.83223 0.83059
0.65709 0.83145 0.83134
0.83456 0.83420 0.83446
0.97386 0.83633 0.84122
1.00000 0.83887 0.84663
0.00000 0.93503 0.80836
0.00000 0.93453 0.80836
0.00000 0.93278 0.80820
0.24762 0.93058 0.80776
0.57490 0.92906 0.80770
0.77111 0.93049 0.80979
0.91104 0.93101 0.81710
0.98905 0.92930 0.82619
0.00000 1.00000 0.76840
0.00000 1.00000 0.76864
0.00000 1.00000 0.76912
0.30506 1.00000 0.77032
0.53059 1.00000 0.77247
0.68968 1.00000 0.77723
0.80858 1.00000 0.78328
0.89974 1.00000 0.78587
0.24283 0.07695 0.99722
0.32008 0.06544 0.99919
0.47028 0.04761 1.00000
0.66798 0.00000 1.00000
0.86081 0.00000 1.00000
1.00000 0.00000 1.00000
1.00000 0.22605 1.00000
1.00000 0.33378 1.00000
0.24635 0.17589 1.00000
0.31708 0.17407 1.00000
0.47256 0.16687 1.00000
0.67145 0.14584 1.00000
0.85981 0.14005 1.00000
1.00000 0.19537 1.00000
1.00000 0.34312 1.00000
1.00000 0.41193 1.00000
0.21323 0.36045 1.00000
0.30518 0.35979 1.00000
0.47531 0.36945 1.00000
0.67010 0.37118 1.00000
0.84533 0.40664 1.00000
0.97738 0.45822 1.00000
1.00000 0.51994 1.00000
1.00000 0.56432 1.00000
0.27525 0.60681 1.00000
0.37509 0.61552 1.00000
0.52299 0.62741 1.00000
0.67436 0.62261 1.00000
0.81373 0.62403 1.00000
0.93194 0.65673 0.99835
1.00000 0.68294 0.99728
1.00000 0.70011 0.99578
0.15224 0.74445 0.99541
0.26363 0.74509 0.99493
0.42924 0.74555 0.99382
0.60293 0.74732 0.99117
0.75874 0.75279 0.98499
0.88930 0.76596 0.98102
0.99819 0.78136 0.98382
1.00000 0.78910 0.97429
0.00000 0.84620 0.96903
0.00000 0.84564 0.96803
0.29315 0.84450 0.96574
0.52405 0.84382 0.96314
0.70867 0.84481 0.96257
0.85341 0.84613 0.96430
0.97427 0.84880 0.96293
1.00000 0.85477 0.95137
0.00000 0.93444 0.93684
0.00000 0.93373 0.93652
0.00000 0.93248 0.93590
0.43469 0.93098 0.93519
0.64139 0.93059 0.93384
0.79916 0.93115 0.93124
0.92969 0.92984 0.92942
1.00000 0.92542 0.92915
0.00000 1.00000 0.88229
0.04883 1.00000 0.88249
0.28906 1.00000 0.88311
0.45761 1.00000 0.88414
0.60515 1.00000 0.88577
0.73596 1.00000 0.88904
0.84926 1.00000 0.89313
0.93244 0.99670 0.89580
0.30783 0.12481 1.00000
0.36883 0.12333 1.00000
0.50517 0.11756 1.00000
0.68562 0.11815 1.00000
0.85960 0.12195 1.00000
0.99705 0.15960 1.00000
1.00000 0.12765 1.00000
1.00000 0.33170 1.00000
0.31427 0.20707 1.00000
0.37433 0.20647 1.00000
0.51109 0.20471 1.00000
0.68819 0.20295 1.00000
0.85867 0.21013 1.00000
0.99313 0.25188 1.00000
1.00000 0.27144 1.00000
1.00000 0.40852 1.00000
0.30357 0.36680 1.00000
0.37420 0.36997 1.00000
0.51221 0.37188 1.00000
0.68613 0.38461 1.00000
0.84778 0.40183 1.00000
0.97760 0.44025 1.00000
1.00000 0.49372 1.00000
1.00000 0.55998 1.00000
0.35816 0.60634 1.00000
0.43042 0.61404 1.00000
0.57060 0.63002 1.00000
0.71063 0.63333 1.00000
0.83076 0.63703 1.00000
0.94349 0.66025 1.00000
1.00000 0.70921 1.00000
1.00000 0.71906 1.00000
0.39953 0.77488 1.00000
0.45846 0.77761 1.00000
0.56226 0.78190 1.00000
0.68440 0.78193 1.00000
0.80060 0.78149 1.00000
0.90715 0.79523 1.00000
0.99860 0.81810 1.00000
1.00000 0.82124 1.00000
0.31016 0.85142 1.00000
0.37542 0.85062 1.00000
0.48678 0.85026 1.00000
0.61809 0.85168 1.00000
0.74776 0.85541 1.00000
0.86452 0.86626 1.00000
0.96364 0.88013 1.00000
1.00000 0.87832 1.00000
0.22595 0.92828 0.99529
0.29765 0.92806 0.99546
0.42304 0.92777 0.99585
0.56340 0.92831 0.99646
0.69736 0.93085 0.99757
0.81826 0.93452 0.99931
0.92817 0.93382 1.00000
1.00000 0.92409 1.00000
0.36017 0.99917 0.96272
0.39179 0.99945 0.96328
0.46200 1.00000 0.96444
0.55742 1.00000 0.96613
0.66480 1.00000 0.96943
0.77302 0.99843 0.97370
0.88175 0.99140 0.97823
0.97895 0.97905 0.97901
