fuji-film/cube-lut/srgb/srgb-classic-neg.cube
LUT_3D_SIZE 32
0.00944 0.01116 0.00950
0.01647 0.01323 0.00829
0.02426 0.01192 0.00662
0.03608 0.01218 0.00606
0.05833 0.01202 0.00486
0.08610 0.01394 0.00407
0.12439 0.01674 0.00328
0.16984 0.01729 0.00168
0.21984 0.01944 0.00000
0.28311 0.02094 0.00000
0.35332 0.02599 0.00000
0.42812 0.02795 0.00000
0.50445 0.02043 0.00000
0.57558 0.02084 0.00000
0.64579 0.00466 0.00000
0.69691 0.00000 0.00000
0.74677 0.00000 0.00000
0.77988 0.00000 0.00000
0.80723 0.00000 0.00000
0.83017 0.00000 0.00000
0.84769 0.00000 0.00000
0.86275 0.00000 0.00000
0.87930 0.01146 0.00000
0.89478 0.06925 0.00000
0.90562 0.10628 0.00000
0.91203 0.12600 0.00000
0.91607 0.13585 0.00000
0.91730 0.13705 0.00000
0.91695 0.13201 0.00000
0.91595 0.12238 0.00000
0.91484 0.10684 0.00000
0.91426 0.08578 0.00000
0.00513 0.01958 0.01157
0.01600 0.02045 0.01215
0.02228 0.02211 0.00929
0.03283 0.02023 0.00714
0.05504 0.02078 0.00629
0.08291 0.02369 0.00532
0.12280 0.02451 0.00473
0.16781 0.02460 0.00342
0.21809 0.02646 0.00212
0.28194 0.02549 0.00000
0.35277 0.03040 0.00000
0.42848 0.03290 0.00000
0.50458 0.02902 0.00000
0.57638 0.03033 0.00000
0.64665 0.01429 0.00000
0.69780 0.00649 0.00000
0.74771 0.00000 0.00000
0.78067 0.00000 0.00000
0.80784 0.00000 0.00000
0.83056 0.00000 0.00000
0.84791 0.00000 0.00000
0.86284 0.00000 0.00000
0.87938 0.01225 0.00000
0.89476 0.06965 0.00000
0.90552 0.10576 0.00000
0.91188 0.12544 0.00000
0.91588 0.13520 0.00000
0.91705 0.13623 0.00000
0.91667 0.13103 0.00000
0.91565 0.12126 0.00000
0.91456 0.10529 0.00000
0.91402 0.08409 0.00000
0.00145 0.02681 0.01466
0.01142 0.02830 0.01399
0.01917 0.03058 0.01267
0.03155 0.03116 0.01067
0.05178 0.03258 0.00866
0.08200 0.03425 0.00681
0.12121 0.03451 0.00624
0.16618 0.03377 0.00514
0.21637 0.03597 0.00372
0.28053 0.03285 0.00011
0.35157 0.03748 0.00000
0.42818 0.04018 0.00000
0.50475 0.04081 0.00000
0.57727 0.04299 0.00000
0.64765 0.02642 0.00000
0.69881 0.02172 0.00000
0.74877 0.00376 0.00000
0.78156 0.00000 0.00000
0.80852 0.00000 0.00000
0.83101 0.00000 0.00000
0.84817 0.00000 0.00000
0.86297 0.00000 0.00000
0.87948 0.01314 0.00000
0.89474 0.06993 0.00000
0.90540 0.10500 0.00000
0.91171 0.12470 0.00000
0.91567 0.13436 0.00000
0.91676 0.13519 0.00000
0.91635 0.12983 0.00000
0.91532 0.11990 0.00000
0.91424 0.10346 0.00000
0.91376 0.08215 0.00000
0.00000 0.03651 0.01778
0.00703 0.03768 0.01705
0.01476 0.04058 0.01600
0.02790 0.04211 0.01527
0.04786 0.04658 0.01202
0.07987 0.05039 0.01111
0.11927 0.05101 0.00873
0.16347 0.05271 0.00745
0.21356 0.05306 0.00531
0.27755 0.05188 0.00254
0.34869 0.05498 0.00000
0.42633 0.05581 0.00000
0.50494 0.05958 0.00000
0.57853 0.06191 0.00000
0.64909 0.04668 0.00000
0.70027 0.04624 0.00000
0.75028 0.02611 0.00000
0.78282 0.00876 0.00000
0.80950 0.00000 0.00000
0.83167 0.00000 0.00000
0.84858 0.00000 0.00000
0.86323 0.00000 0.00000
0.87965 0.01469 0.00000
0.89472 0.07015 0.00000
0.90523 0.10370 0.00000
0.91147 0.12350 0.00000
0.91535 0.13300 0.00000
0.91635 0.13356 0.00000
0.91589 0.12798 0.00000
0.91486 0.11752 0.00000
0.91381 0.10078 0.00000
0.91340 0.07941 0.00000
0.00000 0.05383 0.02406
0.00000 0.05525 0.02171
0.00596 0.05840 0.02062
0.01781 0.06139 0.01910
0.03977 0.06527 0.01692
0.07485 0.07104 0.01496
0.11526 0.07456 0.01300
0.16007 0.07679 0.01046
0.20947 0.07925 0.00792
0.27243 0.07822 0.00551
0.34351 0.08202 0.00149
0.42241 0.08191 0.00000
0.50463 0.08536 0.00000
0.58024 0.08568 0.00000
0.65098 0.07204 0.00000
0.70221 0.07487 0.00000
0.75226 0.05819 0.00000
0.78447 0.03274 0.00000
0.81085 0.00085 0.00000
0.83264 0.00000 0.00000
0.84926 0.00000 0.00000
0.86377 0.00000 0.00000
0.87999 0.01800 0.00000
0.89474 0.07063 0.00000
0.90504 0.10192 0.00000
0.91118 0.12170 0.00000
0.91493 0.13103 0.00000
0.91579 0.13124 0.00000
0.91528 0.12546 0.00000
0.91427 0.11430 0.00000
0.91330 0.09727 0.00000
0.91298 0.07611 0.00000
0.00000 0.08070 0.03093
0.00000 0.08221 0.02725
0.00000 0.08417 0.02692
0.00000 0.08702 0.02487
0.01929 0.09030 0.02417
0.06385 0.09441 0.02247
0.10765 0.10032 0.02046
0.15355 0.10554 0.01656
0.20380 0.10884 0.01267
0.26615 0.11013 0.00871
0.33756 0.11368 0.00309
0.41966 0.11766 0.00000
0.50189 0.12215 0.00000
0.58281 0.11315 0.00000
0.65260 0.10692 0.00000
0.70486 0.10705 0.00000
0.75468 0.09204 0.00000
0.78650 0.06776 0.00000
0.81268 0.03385 0.00000
0.83401 0.01545 0.00000
0.85049 0.00000 0.00000
0.86489 0.00000 0.00000
0.88070 0.02634 0.00000
0.89490 0.07282 0.00000
0.90491 0.10047 0.00000
0.91090 0.11966 0.00000
0.91443 0.12871 0.00000
0.91514 0.12845 0.00000
0.91458 0.12250 0.00000
0.91361 0.11062 0.00000
0.91275 0.09355 0.00000
0.91254 0.07313 0.00000
0.00000 0.11057 0.04011
0.00000 0.11101 0.03428
0.00000 0.11247 0.03295
0.00000 0.11576 0.03145
0.00000 0.11864 0.02963
0.04033 0.12288 0.02776
0.09207 0.12811 0.02487
0.14419 0.13475 0.02333
0.19620 0.14012 0.01491
0.25874 0.14278 0.01043
0.33091 0.14840 0.00649
0.41400 0.15321 0.00000
0.49805 0.15855 0.00000
0.58363 0.14855 0.00000
0.65379 0.14460 0.00000
0.70933 0.14240 0.00000
0.75720 0.13034 0.00000
0.78910 0.10469 0.00000
0.81553 0.07607 0.00000
0.83656 0.05076 0.00000
0.85266 0.03006 0.00000
0.86710 0.02651 0.00000
0.88223 0.04707 0.00000
0.89547 0.08044 0.00000
0.90504 0.10187 0.00000
0.91077 0.11921 0.00000
0.91399 0.12716 0.00000
0.91448 0.12617 0.00000
0.91389 0.11986 0.00000
0.91300 0.10775 0.00000
0.91227 0.09129 0.00000
0.91220 0.07261 0.00000
0.00000 0.14531 0.04174
0.00000 0.14559 0.03602
0.00000 0.14645 0.03554
0.00000 0.14877 0.03567
0.00000 0.15170 0.03523
0.00000 0.15585 0.03308
0.06305 0.16032 0.02824
0.12544 0.16558 0.02702
0.18532 0.17292 0.02776
0.25068 0.17983 0.01298
0.32051 0.18592 0.00850
0.40678 0.19090 0.00585
0.49313 0.19609 0.00000
0.58134 0.19327 0.00000
0.65400 0.19023 0.00000
0.71490 0.17833 0.00000
0.76076 0.16334 0.00000
0.79296 0.14385 0.00000
0.81956 0.12326 0.00000
0.84025 0.10462 0.00000
0.85623 0.08930 0.00000
0.87088 0.07953 0.00000
0.88503 0.08469 0.00000
0.89686 0.09948 0.00000
0.90577 0.11107 0.00000
0.91106 0.12401 0.00000
0.91385 0.12899 0.00000
0.91407 0.12676 0.00000
0.91343 0.12009 0.00000
0.91264 0.10858 0.00000
0.91206 0.09390 0.00000
0.91214 0.07825 0.00000
0.00000 0.18480 0.05576
0.00000 0.18465 0.05207
0.00000 0.18476 0.05007
0.00000 0.18616 0.04977
0.00000 0.18904 0.04928
0.00000 0.19288 0.04535
0.00493 0.19750 0.03642
0.09338 0.20290 0.03256
0.16348 0.21064 0.03454
0.23485 0.21788 0.02666
0.31271 0.22563 0.01356
0.39425 0.23379 0.00698
0.48119 0.24305 0.00039
0.57739 0.24024 0.00000
0.65609 0.23483 0.00000
0.71941 0.22666 0.00000
0.76400 0.21647 0.00000
0.79709 0.20270 0.00000
0.82370 0.18742 0.00000
0.84479 0.17120 0.00000
0.86243 0.15722 0.00000
0.87663 0.14175 0.00000
0.88914 0.13757 0.00000
0.89980 0.13402 0.00000
0.90764 0.13335 0.00000
0.91235 0.13807 0.00000
0.91443 0.13882 0.00000
0.91430 0.13455 0.00000
0.91357 0.12744 0.00000
0.91279 0.11802 0.00000
0.91238 0.10619 0.00000
0.91257 0.09424 0.00000
0.00000 0.23251 0.07648
0.00000 0.23221 0.07410
0.00000 0.23203 0.07244
0.00000 0.23243 0.07123
0.00000 0.23390 0.06964
0.00000 0.23633 0.06574
0.00000 0.24009 0.05725
0.03107 0.24352 0.04801
0.12747 0.24914 0.04163
0.20726 0.25765 0.04076
0.29158 0.27039 0.02942
0.38087 0.28060 0.01691
0.46891 0.28763 0.00759
0.56430 0.29142 0.00028
0.65045 0.29214 0.00000
0.72154 0.28767 0.00000
0.76628 0.28052 0.00000
0.80135 0.26991 0.00000
0.82813 0.25452 0.00000
0.85141 0.24204 0.00000
0.87019 0.22456 0.00000
0.88357 0.20727 0.00000
0.89514 0.19410 0.00000
0.90499 0.17786 0.00000
0.91184 0.16933 0.00000
0.91526 0.16653 0.00000
0.91640 0.16168 0.00000
0.91572 0.15463 0.00000
0.91483 0.14658 0.00000
0.91411 0.13889 0.00000
0.91364 0.13082 0.00000
0.91378 0.12288 0.00000
0.00000 0.28176 0.09511
0.00000 0.28162 0.09295
0.00000 0.28163 0.09107
0.00000 0.28212 0.08927
0.00000 0.28344 0.08763
0.00000 0.28564 0.08472
0.00000 0.28947 0.07893
0.00000 0.29517 0.06879
0.05650 0.30224 0.06618
0.16694 0.30605 0.06173
0.25891 0.31081 0.05395
0.35797 0.32760 0.04358
0.45642 0.34125 0.02758
0.55837 0.34772 0.01434
0.64194 0.34359 0.01365
0.71723 0.34992 0.00742
0.76911 0.34537 0.00000
0.80676 0.33396 0.00000
0.83498 0.32007 0.00000
0.86042 0.30446 0.00000
0.87796 0.28456 0.00000
0.89193 0.26425 0.00000
0.90376 0.24379 0.00000
0.91262 0.22833 0.00000
0.91829 0.21846 0.00000
0.92014 0.21309 0.00000
0.91992 0.20721 0.00000
0.91853 0.19646 0.00000
0.91750 0.18474 0.00000
0.91694 0.17485 0.00000
0.91647 0.16643 0.00000
0.91654 0.15954 0.00000
0.00000 0.33399 0.11612
0.00000 0.33387 0.11486
0.00000 0.33376 0.11381
0.00000 0.33377 0.11296
0.00000 0.33431 0.11274
0.00000 0.33573 0.11224
0.00000 0.33883 0.10895
0.00000 0.34424 0.10049
0.00000 0.35057 0.09131
0.09240 0.35864 0.09212
0.21964 0.36745 0.09257
0.32060 0.37897 0.07835
0.43291 0.39081 0.07495
0.54373 0.40327 0.05774
0.63214 0.40991 0.04449
0.71025 0.41609 0.03470
0.76793 0.41810 0.04005
0.80843 0.40938 0.02979
0.84261 0.39611 0.02638
0.86607 0.37803 0.01043
0.88400 0.35801 0.00564
0.89845 0.33768 0.00000
0.91065 0.31758 0.00000
0.91984 0.29748 0.00000
0.92529 0.28298 0.00000
0.92699 0.26925 0.00000
0.92704 0.25131 0.00000
0.92569 0.23306 0.00000
0.92357 0.22562 0.00000
0.92199 0.22064 0.00000
0.92077 0.21620 0.00000
0.92033 0.21211 0.00000
0.00000 0.39005 0.14219
0.00000 0.39007 0.14063
0.00000 0.39016 0.13936
0.00000 0.39051 0.13884
0.00000 0.39156 0.14063
0.00000 0.39363 0.14423
0.00000 0.39722 0.14496
0.00000 0.40030 0.14111
0.00000 0.40311 0.13033
0.00000 0.40803 0.13446
0.15803 0.41953 0.12539
0.28361 0.43326 0.12911
0.39289 0.44417 0.11819
0.51741 0.46291 0.09939
0.61332 0.47573 0.08665
0.70265 0.48150 0.07413
0.76091 0.48208 0.07482
0.81079 0.47782 0.07971
0.84478 0.46781 0.07396
0.86959 0.45667 0.07272
0.88829 0.43803 0.06445
0.90335 0.42035 0.05009
0.91556 0.40025 0.02705
0.92590 0.37646 0.00879
0.93264 0.35456 0.00000
0.93486 0.33739 0.00000
0.93455 0.32011 0.00000
0.93227 0.30585 0.00000
0.92979 0.29562 0.00000
0.92782 0.28738 0.00000
0.92649 0.27754 0.00000
0.92629 0.26714 0.00000
0.00000 0.44548 0.16808
0.00000 0.44563 0.16620
0.00000 0.44582 0.16468
0.00000 0.44625 0.16415
0.00000 0.44725 0.16708
0.00000 0.44891 0.17433
0.00000 0.45116 0.18085
0.00000 0.45543 0.17981
0.00000 0.46138 0.17277
0.00000 0.46954 0.16872
0.00000 0.48059 0.16710
0.22370 0.49397 0.16298
0.35535 0.50675 0.15714
0.48710 0.51805 0.14157
0.59076 0.52933 0.12234
0.68358 0.54414 0.10792
0.75280 0.54836 0.09592
0.80407 0.54564 0.10072
0.84044 0.54239 0.10722
0.86722 0.53296 0.10394
0.88832 0.52175 0.10732
0.90587 0.50461 0.09998
0.92149 0.47949 0.09179
0.93435 0.45375 0.08826
0.94110 0.43388 0.06385
0.94394 0.41757 0.02798
0.94276 0.40363 0.00000
0.93922 0.39111 0.00000
0.93680 0.37540 0.00000
0.93494 0.36180 0.00000
0.93373 0.34685 0.00000
0.93312 0.33617 0.00000
0.00000 0.50428 0.20306
0.00000 0.50455 0.20081
0.00000 0.50487 0.19868
0.00000 0.50544 0.19692
0.00000 0.50664 0.19812
0.00000 0.50892 0.20527
0.00000 0.51186 0.21598
0.00000 0.51686 0.22015
0.00000 0.52239 0.21588
0.00000 0.52840 0.20674
0.00000 0.53798 0.20612
0.12957 0.54739 0.20091
0.31255 0.55879 0.19738
0.44329 0.57581 0.18132
0.55558 0.58621 0.16255
0.65910 0.59536 0.14369
0.73725 0.60378 0.13453
0.79589 0.60641 0.12996
0.83263 0.60474 0.13550
0.86114 0.60099 0.14071
0.88547 0.59243 0.14350
0.90886 0.58082 0.14862
0.92588 0.56393 0.14515
0.94022 0.54137 0.13668
0.94923 0.52027 0.12733
0.95338 0.50332 0.10574
0.95381 0.48743 0.06601
0.95180 0.46947 0.01746
0.94905 0.45124 0.00000
0.94531 0.43918 0.00000
0.94230 0.42580 0.00000
0.94014 0.41541 0.00000
0.00000 0.55432 0.23275
0.00000 0.55459 0.23133
0.00000 0.55486 0.23006
0.00000 0.55537 0.22918
0.00000 0.55646 0.23070
0.00000 0.55827 0.23695
0.00000 0.55931 0.24485
0.00000 0.56199 0.24867
0.00000 0.56693 0.24558
0.00000 0.57379 0.23852
0.00000 0.58600 0.23177
0.00000 0.59768 0.22686
0.23280 0.60841 0.22069
0.40041 0.62058 0.21114
0.51656 0.63390 0.19324
0.62807 0.64390 0.17234
0.71343 0.65393 0.15767
0.77988 0.66136 0.14782
0.82201 0.66361 0.14750
0.85374 0.66235 0.15000
0.88278 0.65667 0.15548
0.90534 0.64996 0.16428
0.92299 0.64013 0.16990
0.93844 0.62265 0.17096
0.95003 0.60217 0.16921
0.95600 0.58338 0.15709
0.95860 0.56957 0.15145
0.95760 0.55242 0.10994
0.95629 0.53909 0.07568
0.95452 0.52351 0.00000
0.95217 0.50930 0.00000
0.94975 0.49767 0.00000
0.00000 0.60327 0.25393
0.00000 0.60363 0.25219
0.00000 0.60403 0.25080
0.00000 0.60464 0.25034
0.00000 0.60564 0.25302
0.00000 0.60679 0.25979
0.00000 0.60745 0.26852
0.00000 0.60935 0.27372
0.00000 0.61361 0.27248
0.00000 0.61964 0.26768
0.00000 0.62763 0.26098
0.00000 0.63744 0.25506
0.10115 0.64993 0.24733
0.34027 0.66296 0.24085
0.46834 0.67657 0.22333
0.59128 0.68959 0.20735
0.68575 0.69762 0.18526
0.75914 0.70396 0.17662
0.80946 0.70824 0.16959
0.84811 0.71030 0.17436
0.87758 0.70839 0.17534
0.89852 0.70352 0.18379
0.91593 0.69703 0.19250
0.93241 0.68672 0.19702
0.94556 0.67361 0.20253
0.95425 0.65732 0.19542
0.95795 0.64247 0.17843
0.95751 0.63333 0.17443
0.95711 0.61449 0.13786
0.95667 0.60311 0.12164
0.95589 0.58786 0.06100
0.95526 0.57245 0.00000
0.00000 0.64047 0.28114
0.00000 0.64068 0.28008
0.00000 0.64093 0.27931
0.00000 0.64130 0.27912
0.00000 0.64181 0.28051
0.00000 0.64238 0.28409
0.00000 0.64311 0.28908
0.00000 0.64479 0.29327
0.00000 0.64850 0.29385
0.00000 0.65449 0.29060
0.00000 0.66215 0.28398
0.00000 0.67153 0.27686
0.00000 0.68269 0.26833
0.25172 0.69821 0.26054
0.41662 0.71413 0.25141
0.54960 0.72543 0.23354
0.65399 0.73441 0.22038
0.73489 0.73943 0.20087
0.79092 0.74608 0.19233
0.83602 0.75139 0.18682
0.86742 0.75232 0.18755
0.88917 0.75050 0.18907
0.90757 0.74633 0.20194
0.92452 0.73987 0.21676
0.94120 0.72718 0.21469
0.95471 0.71446 0.22829
0.96011 0.70086 0.21508
0.95898 0.69076 0.20330
0.95744 0.68119 0.19458
0.95553 0.66790 0.16023
0.95525 0.65810 0.13256
0.95454 0.64502 0.09912
0.00000 0.67270 0.30284
0.00000 0.67280 0.30127
0.00000 0.67292 0.29986
0.00000 0.67308 0.29868
0.00000 0.67327 0.29869
0.00000 0.67354 0.30086
0.00000 0.67410 0.30491
0.00000 0.67545 0.30740
0.00000 0.67836 0.30820
0.00000 0.68318 0.30655
0.00000 0.68967 0.30212
0.00000 0.69912 0.29530
0.00000 0.71227 0.28644
0.02478 0.72577 0.27763
0.35146 0.74146 0.27095
0.50186 0.75484 0.25607
0.61790 0.76768 0.24659
0.70865 0.77579 0.23288
0.76935 0.78056 0.21962
0.81920 0.78338 0.21129
0.85531 0.78588 0.20944
0.87992 0.78689 0.20617
0.89958 0.78513 0.20955
0.91928 0.78050 0.21678
0.93753 0.77436 0.22462
0.94911 0.76617 0.22280
0.95693 0.75629 0.23361
0.95724 0.74513 0.22887
0.95846 0.73310 0.22187
0.95852 0.72142 0.20569
0.95736 0.70841 0.18164
0.95640 0.70073 0.15954
0.00000 0.70084 0.31149
0.00000 0.70089 0.31068
0.00000 0.70093 0.30990
0.00000 0.70097 0.30905
0.00000 0.70103 0.30840
0.00000 0.70119 0.30834
0.00000 0.70167 0.30917
0.00000 0.70293 0.31080
0.00000 0.70560 0.31240
0.00000 0.71018 0.31325
0.00000 0.71707 0.30994
0.00000 0.72544 0.30298
0.00000 0.73578 0.29453
0.00000 0.74709 0.28357
0.24892 0.76217 0.27798
0.44599 0.77869 0.26666
0.57187 0.79429 0.25054
0.68117 0.80274 0.24610
0.74997 0.80768 0.23277
0.80629 0.81037 0.22234
0.84379 0.81264 0.21444
0.87041 0.81532 0.21253
0.89248 0.81549 0.20699
0.91410 0.81368 0.21184
0.93055 0.80947 0.22094
0.94390 0.80364 0.23611
0.95186 0.79698 0.22797
0.95396 0.78801 0.24474
0.95436 0.77867 0.22821
0.95519 0.76906 0.22653
0.95507 0.75965 0.21753
0.95540 0.74995 0.18388
0.00000 0.72810 0.32881
0.00000 0.72812 0.32671
0.00000 0.72813 0.32446
0.00000 0.72815 0.32156
0.00000 0.72817 0.31845
0.00000 0.72825 0.31606
0.00000 0.72855 0.31585
0.00000 0.72936 0.31925
0.00000 0.73116 0.32571
0.00000 0.73442 0.33159
0.00000 0.73941 0.33180
0.00000 0.74648 0.32494
0.00000 0.75575 0.31336
0.00000 0.76637 0.29557
0.00000 0.78026 0.28872
0.36507 0.79948 0.28611
0.52154 0.81424 0.27413
0.64826 0.82405 0.27537
0.72853 0.83234 0.26626
0.79049 0.83746 0.25469
0.82933 0.83985 0.24212
0.85777 0.84098 0.23646
0.88437 0.84093 0.23392
0.90673 0.83962 0.22224
0.92237 0.83833 0.23635
0.93532 0.83524 0.24141
0.94354 0.83159 0.25238
0.94634 0.82689 0.23366
0.94875 0.81914 0.25276
0.95025 0.80956 0.24003
0.95233 0.79808 0.23181
0.95280 0.78969 0.22132
0.00000 0.74986 0.33979
0.00000 0.74984 0.33784
0.00000 0.74982 0.33573
0.00000 0.74979 0.33280
0.00000 0.74975 0.32862
0.00000 0.74973 0.32503
0.00000 0.74987 0.32405
0.00000 0.75041 0.32838
0.00000 0.75168 0.33623
0.00000 0.75408 0.34223
0.00000 0.75809 0.34360
0.00000 0.76417 0.33932
0.00000 0.77242 0.33105
0.00000 0.78285 0.31712
0.00000 0.79756 0.30197
0.22911 0.81544 0.30023
0.45602 0.82890 0.29391
0.60200 0.84157 0.28807
0.70058 0.85296 0.28410
0.77420 0.85699 0.27601
0.81986 0.85957 0.27035
0.84809 0.86069 0.26069
0.87538 0.86044 0.25572
0.89885 0.85979 0.25203
0.91475 0.85950 0.24158
0.92802 0.85926 0.23589
0.93698 0.85723 0.23469
0.94175 0.85392 0.24823
0.94330 0.84877 0.24586
0.94508 0.84244 0.25609
0.94578 0.83473 0.24904
0.94706 0.82714 0.24113
0.00000 0.76965 0.34857
0.00000 0.76962 0.34684
0.00000 0.76957 0.34493
0.00000 0.76949 0.34234
0.00000 0.76937 0.33926
0.00000 0.76922 0.33623
0.00000 0.76916 0.33439
0.00000 0.76948 0.33592
0.00000 0.77043 0.34122
0.00000 0.77203 0.34728
0.00000 0.77482 0.35072
0.00000 0.77967 0.34891
0.00000 0.78685 0.34200
0.00000 0.79774 0.33011
0.00000 0.81166 0.31335
0.00000 0.82610 0.30370
0.37243 0.83964 0.29897
0.53843 0.85530 0.29222
0.66475 0.86588 0.29034
0.75310 0.87211 0.28527
0.80851 0.87581 0.28384
0.84178 0.87799 0.27814
0.86824 0.87843 0.26640
0.89035 0.87933 0.26300
0.90603 0.88117 0.25289
0.91910 0.88351 0.23324
0.92706 0.88608 0.19549
0.93219 0.88484 0.20205
0.93584 0.87984 0.23155
0.93872 0.87126 0.24219
0.94085 0.86369 0.25057
0.94135 0.85752 0.24256
0.00000 0.79773 0.36010
0.00000 0.79796 0.35824
0.00000 0.79822 0.35641
0.00000 0.79858 0.35405
0.00000 0.79905 0.35144
0.00000 0.79960 0.34920
0.00000 0.80014 0.34853
0.00000 0.80043 0.35148
0.00000 0.80021 0.35699
0.00000 0.79949 0.36274
0.00000 0.79953 0.36584
0.00000 0.80165 0.36371
0.00000 0.80661 0.35599
0.00000 0.81509 0.34418
0.00000 0.82583 0.32782
0.00000 0.83713 0.31459
0.24369 0.85026 0.30689
0.45466 0.86722 0.30061
0.61029 0.87713 0.30086
0.71509 0.88489 0.29820
0.78903 0.89147 0.29274
0.83156 0.89605 0.29845
0.86366 0.89730 0.28988
0.88184 0.89799 0.27650
0.89767 0.89957 0.26522
0.91016 0.90367 0.23652
0.91840 0.90813 0.20055
0.92258 0.91162 0.11737
0.92677 0.90781 0.17343
0.92955 0.90127 0.21389
0.93050 0.89554 0.21569
0.93397 0.88824 0.24478
0.00000 0.82814 0.38001
0.00000 0.82819 0.37825
0.00000 0.82823 0.37637
0.00000 0.82825 0.37396
0.00000 0.82824 0.37135
0.00000 0.82815 0.36918
0.00000 0.82794 0.36872
0.00000 0.82755 0.37128
0.00000 0.82685 0.37576
0.00000 0.82569 0.38020
0.00000 0.82484 0.38308
0.00000 0.82519 0.38239
0.00000 0.82754 0.37718
0.00000 0.83211 0.36737
0.00000 0.83898 0.35293
0.00000 0.84841 0.33741
0.00000 0.86171 0.32498
0.32157 0.87694 0.31529
0.52503 0.88732 0.31760
0.66024 0.89613 0.31898
0.75621 0.90437 0.30497
0.81343 0.90938 0.31473
0.85640 0.91124 0.32077
0.87709 0.91227 0.30729
0.89282 0.91436 0.28904
0.90500 0.91840 0.26264
0.91218 0.92424 0.22412
0.91758 0.92767 0.19082
0.91898 0.92886 0.10672
0.92091 0.92637 0.12621
0.92460 0.92007 0.19650
0.92417 0.91778 0.18999
0.00000 0.84714 0.39835
0.00000 0.84714 0.39699
0.00000 0.84712 0.39553
0.00000 0.84708 0.39366
0.00000 0.84698 0.39161
0.00000 0.84680 0.38983
0.00000 0.84650 0.38903
0.00000 0.84603 0.38973
0.00000 0.84524 0.39159
0.00000 0.84409 0.39377
0.00000 0.84289 0.39542
0.00000 0.84210 0.39527
0.00000 0.84243 0.39234
0.00000 0.84459 0.38619
0.00000 0.84895 0.37615
0.00000 0.85696 0.36278
0.00000 0.86922 0.34909
0.15722 0.88304 0.33603
0.42089 0.89476 0.32993
0.58973 0.90549 0.33471
0.70637 0.91517 0.33518
0.78508 0.92050 0.32451
0.83991 0.92365 0.33168
0.86857 0.92590 0.32821
0.88575 0.92711 0.31267
0.89854 0.93019 0.29300
0.90834 0.93542 0.26332
0.91343 0.94056 0.21946
0.91502 0.94381 0.18379
0.91497 0.94368 0.12396
0.91778 0.94210 0.18573
0.92151 0.93958 0.23516
0.00000 0.85609 0.40729
0.00000 0.85601 0.40599
0.00000 0.85590 0.40459
0.00000 0.85572 0.40272
0.00000 0.85545 0.40026
0.00000 0.85503 0.39755
0.00000 0.85444 0.39537
0.00000 0.85360 0.39439
0.00000 0.85248 0.39465
0.00000 0.85110 0.39557
0.00000 0.84960 0.39672
0.00000 0.84830 0.39740
0.00000 0.84794 0.39639
0.00000 0.84937 0.39284
0.00000 0.85297 0.38604
0.00000 0.86090 0.37581
0.00000 0.87330 0.36159
0.00000 0.88754 0.34601
0.30682 0.89925 0.33214
0.51690 0.91200 0.34009
0.65127 0.92331 0.34799
0.74924 0.92934 0.33903
0.80456 0.93369 0.32528
0.84599 0.93580 0.33810
0.86907 0.93795 0.33844
0.88500 0.94047 0.32277
0.89481 0.94562 0.30745
0.90165 0.95224 0.29136
0.90539 0.95662 0.27493
0.90810 0.95843 0.28203
0.91141 0.95765 0.30631
0.91391 0.95478 0.31658
0.00000 0.85663 0.41943
0.00000 0.85649 0.41833
0.00000 0.85633 0.41715
0.00000 0.85610 0.41562
0.00000 0.85577 0.41390
0.00000 0.85536 0.41235
0.00000 0.85486 0.41158
0.00000 0.85431 0.41227
0.00000 0.85374 0.41455
0.00000 0.85323 0.41781
0.00000 0.85301 0.42117
0.00000 0.85352 0.42372
0.00000 0.85532 0.42467
0.00000 0.85942 0.42356
0.00000 0.86610 0.42004
0.00000 0.87642 0.41332
0.00000 0.88793 0.40568
0.10484 0.89839 0.40042
0.38122 0.90923 0.39868
0.53155 0.92175 0.39602
0.63362 0.92997 0.39220
0.71776 0.93519 0.38968
0.76871 0.94065 0.38989
0.81043 0.94449 0.38901
0.83947 0.94795 0.38473
0.85769 0.95284 0.37843
0.87024 0.95810 0.37221
0.87821 0.96286 0.36815
0.88570 0.96580 0.36921
0.89269 0.96635 0.37565
0.89907 0.96448 0.38391
0.90538 0.95989 0.39377
0.00000 0.86335 0.49327
0.00000 0.86345 0.49291
0.00000 0.86358 0.49253
0.00000 0.86378 0.49201
