fuji-film/cube-lut/srgb/srgb-astia.cube
LUT_3D_SIZE 8
DOMAIN_MIN 0.000000 0.000000 0.000000
DOMAIN_MAX 0.903226 0.903226 0.903226
0.00000 0.00000 0.00000
0.08615 0.00288 0.00000
0.30361 0.00460 0.00000
0.58510 0.00000 0.00000
0.81454 0.00000 0.00000
0.98040 0.00000 0.06143
1.00000 0.00000 0.19134
1.00000 0.00000 0.00000
0.00000 0.06381 0.00606
0.06745 0.07172 0.00000
0.30687 0.07422 0.00000
0.59378 0.04644 0.00000
0.82037 0.00000 0.00000
0.98235 0.00000 0.00000
1.00000 0.00000 0.12897
1.00000 0.00000 0.00000
0.00000 0.25196 0.00000
0.00000 0.25914 0.00000
0.28382 0.27608 0.00000
0.57448 0.28323 0.00000
0.81135 0.23296 0.00000
0.98008 0.10873 0.00000
1.00000 0.00000 0.00000
1.00000 0.06758 0.00000
0.00000 0.50426 0.00000
0.00000 0.50806 0.00000
0.14074 0.51573 0.00000
0.50597 0.52149 0.00000
0.74753 0.51147 0.00000
0.93307 0.46394 0.00000
1.00000 0.39993 0.00000
1.00000 0.34593 0.00000
0.00000 0.69127 0.00000
0.00000 0.69423 0.00000
0.00000 0.69873 0.00000
0.39415 0.70072 0.00000
0.67002 0.70195 0.00000
0.85345 0.69355 0.00000
1.00000 0.67315 0.00000
1.00000 0.63553 0.00000
0.00000 0.82169 0.00000
0.00000 0.82403 0.00000
0.00000 0.82928 0.00000
0.11156 0.83120 0.00000
0.59477 0.82514 0.00000
0.79372 0.82651 0.00000
0.94954 0.82811 0.00000
1.00000 0.81334 0.00000
0.00000 0.91928 0.00000
0.00000 0.92160 0.00000
0.00000 0.92740 0.00000
0.00000 0.93428 0.00000
0.48085 0.93093 0.00000
0.73339 0.92505 0.00000
0.88937 0.93215 0.00000
0.98855 0.93753 0.00000
0.00000 0.98795 0.00000
0.00000 0.98938 0.00000
0.00000 0.99273 0.00000
0.00000 0.99893 0.00000
0.44359 1.00000 0.00000
0.65394 1.00000 0.00000
0.78849 1.00000 0.02615
0.87264 1.00000 0.11668
0.00597 0.00328 0.10645
0.08675 0.01493 0.09124
0.30688 0.01930 0.07553
0.58557 0.00000 0.09756
0.81736 0.00000 0.14363
0.97953 0.00000 0.22998
1.00000 0.00000 0.30033
1.00000 0.00000 0.16126
0.00000 0.07537 0.08606
0.08131 0.08161 0.08125
0.30199 0.09588 0.07597
0.59338 0.07581 0.08576
0.81981 0.00000 0.12208
0.98139 0.00000 0.18211
1.00000 0.00000 0.26173
1.00000 0.00000 0.09591
0.00000 0.26442 0.03727
0.00000 0.27131 0.03077
0.28046 0.28385 0.02033
0.57326 0.30238 0.02430
0.80451 0.25239 0.02634
0.97637 0.12913 0.07577
1.00000 0.00000 0.15550
1.00000 0.05967 0.00000
0.00000 0.50882 0.00000
0.00000 0.51213 0.00000
0.10599 0.51993 0.00000
0.50651 0.52904 0.00000
0.74350 0.52597 0.00000
0.92627 0.48263 0.00000
1.00000 0.41222 0.00712
1.00000 0.34567 0.00000
0.00000 0.69177 0.00000
0.00000 0.69462 0.00000
0.00000 0.69929 0.00000
0.40783 0.70200 0.00000
0.67514 0.70522 0.00000
0.85078 0.69952 0.00000
1.00000 0.68015 0.00000
1.00000 0.64047 0.00000
0.00000 0.81977 0.00000
0.00000 0.82300 0.00000
0.00000 0.82816 0.00000
0.17317 0.83032 0.00000
0.61077 0.82368 0.00000
0.79624 0.82672 0.00000
0.95046 0.82948 0.00000
1.00000 0.81377 0.00000
0.00000 0.91829 0.00000
0.00000 0.92093 0.00000
0.00000 0.92739 0.00000
0.00000 0.93479 0.00000
0.49796 0.93056 0.00000
0.74229 0.92459 0.00000
0.89268 0.93298 0.00000
0.99156 0.93888 0.00000
0.00000 0.98841 0.16016
0.00000 0.98991 0.14690
0.00000 0.99331 0.11718
0.00000 0.99944 0.11005
0.45086 1.00000 0.13971
0.65881 1.00000 0.16041
0.79168 1.00000 0.17075
0.87396 1.00000 0.21759
0.00000 0.00000 0.35828
0.09055 0.00000 0.35539
0.33021 0.01337 0.35318
0.60604 0.00017 0.35469
0.81832 0.00000 0.39581
0.96490 0.00000 0.46349
1.00000 0.00000 0.51348
1.00000 0.00000 0.42225
0.00657 0.09854 0.33680
0.11224 0.10635 0.33605
0.33066 0.11883 0.33397
0.59893 0.12804 0.34863
0.80650 0.13003 0.39309
0.95577 0.10518 0.45454
1.00000 0.00000 0.49115
1.00000 0.00000 0.41306
0.00000 0.28947 0.31899
0.00000 0.29349 0.31702
0.30723 0.30696 0.30734
0.58490 0.31480 0.30607
0.78568 0.32514 0.34835
0.93796 0.30610 0.40936
1.00000 0.20228 0.44087
1.00000 0.10920 0.39792
0.00000 0.51175 0.28995
0.00000 0.51513 0.27776
0.16494 0.52289 0.26402
0.52077 0.53499 0.25881
0.74070 0.54052 0.29602
0.90059 0.53198 0.34645
1.00000 0.50154 0.38889
1.00000 0.38974 0.34315
0.00000 0.68421 0.27772
0.00000 0.68664 0.26450
0.00000 0.69224 0.23922
0.43666 0.69919 0.24855
0.68474 0.70555 0.27221
0.84372 0.70690 0.31896
0.99515 0.69550 0.31489
1.00000 0.66600 0.31703
0.00000 0.81012 0.28695
0.00000 0.81256 0.27006
0.00000 0.81759 0.23776
0.30268 0.82199 0.23206
0.63571 0.81972 0.27499
0.80514 0.82483 0.28081
0.94787 0.82863 0.31736
1.00000 0.81301 0.32320
0.00000 0.91120 0.29136
0.00000 0.91422 0.27233
0.00000 0.92125 0.23167
0.00000 0.92919 0.20380
0.54228 0.92607 0.24763
0.75897 0.92347 0.31450
0.90048 0.93422 0.28562
0.99330 0.93783 0.31215
0.00000 0.98938 0.34600
0.00000 0.99083 0.33948
0.00000 0.99476 0.32703
0.00000 1.00000 0.31944
0.47344 1.00000 0.32523
0.66787 1.00000 0.33118
0.79564 1.00000 0.33683
0.87707 1.00000 0.35612
0.00000 0.00000 0.70092
0.01811 0.00000 0.69990
0.31536 0.00000 0.69386
0.62459 0.00000 0.67399
0.82999 0.06934 0.65748
0.96266 0.00000 0.67444
1.00000 0.00000 0.70930
1.00000 0.13204 0.68331
0.00000 0.11702 0.69239
0.06462 0.12169 0.68704
0.33953 0.13894 0.66788
0.62097 0.16530 0.64016
0.81107 0.19312 0.63516
0.94972 0.19650 0.65581
1.00000 0.16980 0.69710
1.00000 0.21327 0.68986
0.00000 0.32018 0.65570
0.00000 0.32776 0.64323
0.34222 0.34119 0.61105
0.59008 0.35450 0.58546
0.78441 0.35861 0.59045
0.92459 0.37143 0.61229
1.00000 0.37204 0.65786
1.00000 0.38078 0.66519
0.00000 0.52340 0.60826
0.00000 0.52442 0.59526
0.22662 0.52932 0.56580
0.53942 0.53886 0.53884
0.74848 0.54232 0.53969
0.89782 0.54400 0.55801
1.00000 0.55176 0.60062
1.00000 0.54740 0.61518
0.00000 0.67983 0.57411
0.00000 0.68238 0.56149
0.00000 0.68724 0.53344
0.45755 0.69353 0.50812
0.69508 0.69804 0.50299
0.85181 0.70074 0.52173
0.98635 0.70242 0.54741
1.00000 0.70434 0.57969
0.00000 0.79783 0.56223
0.00000 0.79983 0.55012
0.00000 0.80440 0.52128
0.38093 0.81020 0.49193
0.64715 0.81321 0.48434
0.80866 0.81859 0.49750
0.94098 0.82229 0.53452
1.00000 0.81669 0.56135
0.00000 0.89904 0.55738
0.00000 0.90121 0.54637
0.00000 0.90657 0.52117
0.27097 0.91183 0.49226
0.59301 0.91546 0.48485
0.77368 0.92183 0.49691
0.90875 0.93188 0.50688
0.98880 0.93163 0.55193
0.00000 0.98980 0.53735
0.00000 0.99145 0.53263
0.00000 0.99568 0.52156
0.22059 1.00000 0.50888
0.50790 1.00000 0.50110
0.67992 1.00000 0.49867
0.80006 1.00000 0.50358
0.88085 1.00000 0.51269
0.00000 0.00000 0.96383
0.00000 0.00000 0.96500
0.29702 0.00000 0.95576
0.59684 0.00000 0.92112
0.82355 0.00000 0.87654
0.96120 0.13366 0.85179
1.00000 0.07869 0.85758
1.00000 0.16750 0.82842
0.00000 0.07230 0.96083
0.00000 0.07267 0.95857
0.31888 0.10829 0.93232
0.60655 0.14947 0.88331
0.81570 0.21057 0.84032
0.94956 0.26340 0.82425
1.00000 0.23634 0.84064
1.00000 0.25968 0.82198
0.00000 0.36250 0.88978
0.12762 0.37879 0.87179
0.37520 0.38679 0.83772
0.59991 0.40042 0.79394
0.78697 0.41532 0.77536
0.92314 0.42865 0.77411
1.00000 0.42095 0.79578
1.00000 0.44147 0.79117
0.00000 0.53655 0.83665
0.00000 0.54041 0.82279
0.29280 0.54973 0.79011
0.55163 0.55957 0.75111
0.74545 0.56965 0.73350
0.88977 0.57659 0.73180
1.00000 0.58309 0.74391
1.00000 0.60704 0.74837
0.00000 0.68336 0.79561
0.00000 0.68530 0.78329
0.08150 0.68991 0.75473
0.48381 0.69611 0.72074
0.70141 0.70101 0.70135
0.85447 0.70416 0.69789
0.98306 0.70802 0.70504
1.00000 0.71800 0.71590
0.00000 0.79658 0.77677
0.00000 0.79861 0.76379
0.00000 0.80343 0.73257
0.41258 0.80811 0.69369
0.65540 0.81008 0.67397
0.81624 0.81392 0.67043
0.94542 0.81769 0.68133
1.00000 0.81986 0.70144
0.00000 0.89586 0.74944
0.00000 0.89738 0.73915
0.00000 0.90130 0.71585
0.32745 0.90641 0.68441
0.60553 0.91292 0.66202
0.78060 0.91942 0.65765
0.91468 0.92649 0.66604
0.98776 0.92637 0.69577
0.00000 0.98915 0.70169
0.00000 0.99077 0.69762
0.00000 0.99435 0.68811
0.33622 1.00000 0.67469
0.54362 1.00000 0.66219
0.69458 1.00000 0.65510
0.80592 1.00000 0.65625
0.88719 1.00000 0.65825
0.00000 0.00000 1.00000
0.00000 0.00000 1.00000
0.24992 0.00000 1.00000
0.55256 0.00000 1.00000
0.79820 0.00000 1.00000
0.95791 0.00000 1.00000
1.00000 0.22500 0.96884
1.00000 0.22442 0.95843
0.00000 0.11109 1.00000
0.00000 0.10529 1.00000
0.25882 0.10496 1.00000
0.56815 0.09036 1.00000
0.80064 0.14342 0.99882
0.95095 0.25418 0.98207
1.00000 0.33510 0.94911
1.00000 0.30335 0.94758
0.00000 0.35751 1.00000
0.00000 0.37608 1.00000
0.34778 0.39403 0.99481
0.60060 0.40368 0.97798
0.78821 0.43419 0.94251
0.92721 0.46281 0.93414
1.00000 0.49829 0.90998
1.00000 0.46087 0.91831
0.00000 0.57392 0.98111
0.08378 0.57996 0.97220
0.36809 0.59022 0.95042
0.58260 0.60115 0.91849
0.75279 0.60740 0.89457
0.89007 0.61497 0.88039
1.00000 0.62825 0.87643
1.00000 0.62881 0.87480
0.00000 0.69245 0.95826
0.00000 0.69540 0.94810
0.26414 0.70246 0.92274
0.52537 0.70922 0.88546
0.71204 0.71396 0.85769
0.85544 0.72046 0.84594
0.98293 0.73127 0.84414
1.00000 0.74128 0.84063
0.00000 0.80441 0.93063
0.00000 0.80662 0.92071
0.00000 0.81038 0.89963
0.44480 0.81329 0.86916
0.66224 0.81610 0.84119
0.82087 0.82098 0.82090
0.95878 0.82320 0.81669
1.00000 0.82592 0.81999
0.00000 0.89905 0.90370
0.00000 0.90054 0.89498
0.00000 0.90392 0.87332
0.39586 0.90953 0.84250
0.61941 0.91401 0.81749
0.78145 0.91932 0.80102
0.90958 0.92272 0.79892
0.98849 0.91997 0.80632
0.00000 0.98638 0.82599
0.00000 0.98781 0.82322
0.21643 0.99071 0.81623
0.42135 0.99703 0.80550
0.58120 1.00000 0.79427
0.71429 1.00000 0.78610
0.82038 1.00000 0.78332
0.90263 1.00000 0.78136
0.00000 0.10259 1.00000
0.00000 0.09145 1.00000
0.22539 0.03307 1.00000
0.51614 0.00000 1.00000
0.76651 0.00000 1.00000
0.93672 0.00000 1.00000
1.00000 0.15518 1.00000
1.00000 0.33128 1.00000
0.00000 0.19728 1.00000
0.00000 0.18879 1.00000
0.22160 0.16793 1.00000
0.52708 0.12633 1.00000
0.76945 0.12543 1.00000
0.93279 0.17015 1.00000
1.00000 0.30317 1.00000
1.00000 0.39799 1.00000
0.00000 0.35587 1.00000
0.00000 0.35848 1.00000
0.24129 0.37168 1.00000
0.55589 0.37476 1.00000
0.76779 0.41462 1.00000
0.91301 0.45808 1.00000
1.00000 0.50540 1.00000
1.00000 0.54929 1.00000
0.00000 0.60131 1.00000
0.17632 0.61038 1.00000
0.41212 0.62039 1.00000
0.59518 0.61946 1.00000
0.75417 0.62618 1.00000
0.88359 0.65800 0.99402
1.00000 0.67353 0.98815
1.00000 0.68427 0.98575
0.00000 0.71542 1.00000
0.00000 0.71811 1.00000
0.34101 0.72461 1.00000
0.55028 0.73223 0.99725
0.72044 0.74191 0.98661
0.85639 0.75616 0.97743
0.97459 0.76756 0.97561
1.00000 0.77250 0.96079
0.00000 0.80810 0.99973
0.00000 0.80973 0.99848
0.26014 0.81386 0.99543
0.50414 0.81934 0.99052
0.68808 0.82558 0.98305
0.83032 0.83038 0.97203
0.95274 0.83428 0.95938
1.00000 0.83989 0.93617
0.00000 0.90308 0.99637
0.00000 0.90383 0.99375
0.11128 0.90579 0.98555
0.44728 0.90868 0.97165
0.64089 0.91249 0.95119
0.79226 0.91733 0.93277
0.92083 0.92102 0.92057
1.00000 0.91707 0.91351
0.20164 0.97868 0.92200
0.26732 0.97987 0.92030
0.37868 0.98232 0.91616
0.50549 0.98780 0.90940
0.63061 0.99408 0.90142
0.74576 0.99969 0.89505
0.85182 0.99982 0.89126
0.93524 0.99500 0.88864
0.00000 0.16648 1.00000
0.00000 0.16121 1.00000
0.15192 0.14752 1.00000
0.47647 0.12552 1.00000
0.73926 0.12106 1.00000
0.90920 0.00000 1.00000
1.00000 0.00730 1.00000
1.00000 0.29540 1.00000
0.00000 0.23906 1.00000
0.00000 0.23284 1.00000
0.17578 0.22459 1.00000
0.48435 0.21037 1.00000
0.74238 0.20793 1.00000
0.90750 0.19578 1.00000
1.00000 0.23673 1.00000
1.00000 0.37606 1.00000
0.00000 0.37975 1.00000
0.00000 0.38161 1.00000
0.16060 0.38176 1.00000
0.50925 0.38731 1.00000
0.74258 0.40681 1.00000
0.89827 0.43602 1.00000
1.00000 0.48000 1.00000
1.00000 0.53384 1.00000
0.00000 0.59505 1.00000
0.10597 0.60315 1.00000
0.41597 0.62092 1.00000
0.60725 0.62908 1.00000
0.75213 0.63534 1.00000
0.88175 0.65668 1.00000
1.00000 0.69836 1.00000
1.00000 0.69875 1.00000
0.23749 0.74353 1.00000
0.32369 0.74706 1.00000
0.46369 0.75360 1.00000
0.60840 0.75925 1.00000
0.73961 0.76511 1.00000
0.85951 0.77956 1.00000
0.96504 0.80161 1.00000
1.00000 0.80316 1.00000
0.18293 0.81673 1.00000
0.28292 0.81781 1.00000
0.42663 0.82115 1.00000
0.57233 0.82674 1.00000
0.70824 0.83377 1.00000
0.82761 0.84793 1.00000
0.93470 0.86229 1.00000
1.00000 0.86245 1.00000
0.20872 0.89224 1.00000
0.28502 0.89310 1.00000
0.41027 0.89585 1.00000
0.54915 0.90106 1.00000
0.68075 0.90801 1.00000
0.80013 0.91621 1.00000
0.91112 0.92200 1.00000
1.00000 0.91715 0.99660
0.40524 0.96455 0.98653
0.43126 0.96592 0.98620
0.49288 0.96875 0.98545
0.57591 0.97295 0.98440
0.67408 0.97916 0.98311
0.77445 0.98411 0.98217
0.87874 0.98418 0.98101
0.97691 0.97701 0.97695
