fuji-film/cube-lut/srgb/srgb-pro-neg-std.cube
LUT_3D_SIZE 8
DOMAIN_MIN 0.000000 0.000000 0.000000
DOMAIN_MAX 0.903226 0.903226 0.903226
0.00000 0.00000 0.00000
0.06109 0.00433 0.00064
0.22553 0.01258 0.00000
0.45720 0.00000 0.01266
0.67689 0.00000 0.00000
0.83993 0.00000 0.00000
0.95522 0.00000 0.00000
1.00000 0.00000 0.00000
0.00000 0.07056 0.00713
0.07643 0.08316 0.01286
0.25603 0.09648 0.00339
0.48701 0.07429 0.00000
0.69317 0.00000 0.00000
0.84944 0.00000 0.00000
0.96216 0.00000 0.00000
1.00000 0.00000 0.00000
0.00000 0.25009 0.00000
0.00000 0.25903 0.00000
0.25683 0.27500 0.00000
0.50329 0.27959 0.00000
0.71107 0.25388 0.00000
0.86840 0.20024 0.00000
0.97907 0.15697 0.00000
1.00000 0.15741 0.00000
0.00000 0.46361 0.00000
0.00000 0.47113 0.00000
0.09065 0.48093 0.00000
0.45617 0.49375 0.00000
0.68899 0.49357 0.00000
0.86338 0.46822 0.00000
0.98649 0.43138 0.00000
1.00000 0.39314 0.00000
0.00000 0.66061 0.00000
0.00000 0.66378 0.00000
0.00000 0.66974 0.00000
0.33127 0.67705 0.00000
0.62550 0.67991 0.00000
0.82124 0.68437 0.00000
0.95401 0.67006 0.00000
1.00000 0.63639 0.00000
0.00000 0.81392 0.00000
0.00000 0.81604 0.00000
0.00000 0.82029 0.00000
0.00000 0.82404 0.00000
0.54945 0.82146 0.00000
0.76545 0.82075 0.00000
0.91050 0.82581 0.00000
0.99258 0.81497 0.00000
0.00000 0.91978 0.00000
0.00000 0.92151 0.00000
0.00000 0.92501 0.00000
0.00000 0.92801 0.00000
0.44443 0.93101 0.00000
0.71047 0.92386 0.00000
0.85711 0.92630 0.00000
0.95816 0.93337 0.00000
0.00000 0.98865 0.00000
0.00000 0.99007 0.00000
0.00000 0.99143 0.00000
0.00000 0.99591 0.00000
0.40809 1.00000 0.00000
0.63113 1.00000 0.12292
0.76732 1.00000 0.15012
0.85247 1.00000 0.20500
0.00674 0.00704 0.07086
0.09149 0.02481 0.10051
0.26391 0.04353 0.13846
0.48603 0.05459 0.18549
0.69183 0.00000 0.18642
0.85087 0.00000 0.18057
0.96362 0.00000 0.19505
1.00000 0.00000 0.00000
0.01327 0.09545 0.08826
0.10880 0.10978 0.10934
0.28262 0.13135 0.14667
0.50999 0.13292 0.18313
0.70604 0.06814 0.17113
0.85866 0.00000 0.14216
0.96898 0.00000 0.14641
1.00000 0.00000 0.00000
0.00000 0.26875 0.08314
0.01910 0.27540 0.09749
0.27806 0.29246 0.12394
0.49874 0.31066 0.15034
0.71613 0.28060 0.14928
0.87532 0.22526 0.10891
0.98703 0.16590 0.00930
1.00000 0.15085 0.00000
0.00000 0.47506 0.03902
0.00000 0.47825 0.05549
0.18481 0.48340 0.08880
0.47013 0.50073 0.11710
0.69262 0.50680 0.11494
0.86625 0.48227 0.06013
0.99138 0.44132 0.00000
1.00000 0.39884 0.00000
0.00000 0.66466 0.00000
0.00000 0.66788 0.00000
0.00000 0.67275 0.00000
0.38647 0.67851 0.07190
0.63737 0.68328 0.06081
0.82544 0.69060 0.00000
0.95678 0.67574 0.00000
1.00000 0.64218 0.00000
0.00000 0.81403 0.00000
0.00000 0.81624 0.00000
0.00000 0.82012 0.00000
0.15531 0.82387 0.00000
0.57718 0.82017 0.12365
0.77304 0.82088 0.00000
0.91454 0.82820 0.00000
0.99627 0.81743 0.00000
0.00000 0.91983 0.00000
0.00000 0.92125 0.00000
0.00000 0.92373 0.00000
0.00000 0.92669 0.00000
0.47569 0.92959 0.00000
0.72412 0.92320 0.20320
0.86402 0.92719 0.07873
0.96470 0.93467 0.00000
0.00000 0.99001 0.02090
0.00000 0.99042 0.02489
0.00000 0.99230 0.04462
0.00000 0.99658 0.09363
0.42536 1.00000 0.15847
0.63813 1.00000 0.22583
0.77153 1.00000 0.24451
0.85585 1.00000 0.26156
0.01760 0.02012 0.25585
0.11866 0.03218 0.28771
0.30864 0.06379 0.33774
0.52154 0.08024 0.37671
0.71905 0.08728 0.41583
0.87058 0.11170 0.44640
0.98326 0.00000 0.46166
1.00000 0.00000 0.32217
0.07020 0.14179 0.28429
0.15983 0.15388 0.30158
0.32457 0.16901 0.33112
0.52998 0.18828 0.36697
0.71933 0.21125 0.41361
0.87840 0.20039 0.44462
0.98913 0.10558 0.44018
1.00000 0.00916 0.31999
0.00000 0.30041 0.27940
0.09231 0.30444 0.28958
0.31524 0.31530 0.31549
0.52957 0.32653 0.34320
0.72193 0.34524 0.38768
0.87762 0.35681 0.42199
0.99664 0.29751 0.40136
1.00000 0.19583 0.31582
0.00000 0.48897 0.25716
0.00000 0.48966 0.26641
0.23686 0.50030 0.28811
0.50034 0.51081 0.31379
0.69864 0.52408 0.35070
0.86430 0.52459 0.37030
0.98605 0.51238 0.37893
1.00000 0.44339 0.28547
0.00000 0.66891 0.24854
0.00000 0.67220 0.25342
0.00000 0.67700 0.26476
0.43420 0.68239 0.30244
0.66117 0.69028 0.33160
0.82720 0.69988 0.35088
0.95739 0.69173 0.32455
1.00000 0.66891 0.30408
0.00000 0.81336 0.24786
0.00000 0.81447 0.25086
0.00000 0.81788 0.25830
0.31999 0.82011 0.29134
0.61960 0.81762 0.34598
0.79212 0.82171 0.34236
0.91831 0.83108 0.34697
1.00000 0.82122 0.32412
0.00000 0.91706 0.27057
0.00000 0.91785 0.26953
0.00000 0.91993 0.26674
0.09912 0.92192 0.28151
0.54192 0.92290 0.32905
0.75279 0.92166 0.39506
0.87914 0.92906 0.36144
0.97203 0.93571 0.35931
0.00000 0.99169 0.28806
0.00000 0.99247 0.28982
0.00000 0.99537 0.29253
0.00000 0.99864 0.30251
0.46482 1.00000 0.34052
0.65607 1.00000 0.36321
0.78158 1.00000 0.37828
0.86170 1.00000 0.39453
0.04321 0.04519 0.49325
0.13564 0.05372 0.52531
0.32855 0.05473 0.57477
0.56459 0.09284 0.62307
0.75339 0.12938 0.64710
0.89214 0.13162 0.65837
0.99837 0.14857 0.67723
1.00000 0.18173 0.66016
0.06502 0.15571 0.51977
0.18224 0.17303 0.53682
0.35555 0.19100 0.56688
0.56813 0.22769 0.59182
0.74686 0.24664 0.61798
0.89116 0.26159 0.64570
1.00000 0.26116 0.67171
1.00000 0.26936 0.67060
0.05739 0.34184 0.51261
0.18859 0.34315 0.51715
0.36082 0.35499 0.53264
0.54995 0.37260 0.55980
0.73678 0.38825 0.58418
0.88618 0.40740 0.61635
1.00000 0.41812 0.65413
1.00000 0.42637 0.65635
0.00000 0.51570 0.48172
0.00000 0.51666 0.48898
0.29777 0.51910 0.50348
0.52666 0.52627 0.52599
0.71898 0.53419 0.55410
0.87276 0.54047 0.57817
0.98842 0.56020 0.61164
1.00000 0.57330 0.61966
0.00000 0.67935 0.45973
0.00000 0.68103 0.46458
0.13834 0.68552 0.47745
0.46723 0.68910 0.49882
0.67923 0.69368 0.52049
0.83723 0.69891 0.54376
0.95927 0.70244 0.56962
1.00000 0.71225 0.59004
0.00000 0.81462 0.45159
0.00000 0.81524 0.45695
0.00000 0.81669 0.46933
0.40120 0.81725 0.48901
0.64224 0.81751 0.51327
0.80289 0.82262 0.53463
0.92228 0.82999 0.56595
1.00000 0.82674 0.58369
0.00000 0.91466 0.46763
0.00000 0.91559 0.47141
0.00000 0.91682 0.48038
0.32561 0.91674 0.49622
0.60423 0.91690 0.52387
0.77461 0.92278 0.55257
0.89453 0.93182 0.55914
0.97571 0.93386 0.59755
0.00000 0.99658 0.46395
0.00000 0.99723 0.46630
0.00000 0.99860 0.47264
0.27237 1.00000 0.48460
0.51879 1.00000 0.50050
0.67899 1.00000 0.51602
0.79564 1.00000 0.53038
0.87325 1.00000 0.54146
0.04567 0.07290 0.72983
0.16672 0.06962 0.75472
0.33926 0.06743 0.80040
0.55918 0.08377 0.83922
0.77015 0.15526 0.86407
0.91226 0.22218 0.86622
1.00000 0.20164 0.87411
1.00000 0.23661 0.85194
0.08012 0.16977 0.74683
0.16744 0.17527 0.76364
0.35577 0.19140 0.78853
0.57470 0.22705 0.81348
0.77103 0.28590 0.82990
0.90755 0.32160 0.83681
1.00000 0.29873 0.85832
1.00000 0.32328 0.84663
0.16047 0.38214 0.72370
0.25497 0.40111 0.73040
0.42520 0.40461 0.74408
0.59010 0.41848 0.75716
0.76100 0.43736 0.77233
0.89725 0.45616 0.78829
1.00000 0.45679 0.82064
1.00000 0.47923 0.81970
0.00000 0.54205 0.69091
0.19673 0.54380 0.69657
0.37258 0.55002 0.70851
0.56061 0.55607 0.72394
0.73555 0.56610 0.73978
0.87827 0.58161 0.75453
0.99269 0.59701 0.77849
1.00000 0.62490 0.78353
0.00000 0.69612 0.65541
0.00000 0.69757 0.66074
0.26358 0.69850 0.67240
0.50728 0.70046 0.68802
0.70389 0.70365 0.70335
0.84783 0.70800 0.72191
0.96616 0.71419 0.74142
1.00000 0.72890 0.75447
0.00000 0.81855 0.63462
0.00000 0.81930 0.63907
0.07880 0.81988 0.64891
0.45101 0.81977 0.66340
0.66392 0.82118 0.68049
0.81526 0.82462 0.69709
0.93298 0.82800 0.71794
1.00000 0.82931 0.74402
0.00000 0.91463 0.63157
0.00000 0.91494 0.63559
0.00000 0.91557 0.64539
0.40601 0.91669 0.66023
0.62924 0.91993 0.67711
0.78514 0.92537 0.69295
0.90646 0.93080 0.70812
0.97851 0.93132 0.73895
0.00000 0.99998 0.61868
0.00000 1.00000 0.62108
0.08693 1.00000 0.62710
0.38602 1.00000 0.63654
0.56531 1.00000 0.64817
0.70299 1.00000 0.66203
0.80885 1.00000 0.67529
0.88675 1.00000 0.68122
0.08349 0.10882 0.90920
0.17988 0.10905 0.93476
0.35172 0.11053 0.97305
0.56094 0.10965 0.99804
0.76322 0.12789 1.00000
0.91714 0.20826 0.99979
1.00000 0.29557 0.99941
1.00000 0.31626 0.98840
0.11895 0.20076 0.92138
0.18205 0.20481 0.93394
0.37697 0.20694 0.95853
0.57590 0.22581 0.98323
0.77110 0.26403 0.98719
0.91984 0.31673 0.98599
1.00000 0.38137 0.98593
1.00000 0.37863 0.98182
0.17233 0.39522 0.89031
0.26927 0.40457 0.89788
0.43841 0.42663 0.91324
0.61230 0.43421 0.93179
0.78313 0.45618 0.94046
0.91351 0.48911 0.94968
1.00000 0.52461 0.95726
1.00000 0.50573 0.95912
0.24283 0.59244 0.85226
0.32170 0.59698 0.85672
0.45651 0.60063 0.86545
0.61229 0.60148 0.87596
0.76183 0.61104 0.89210
0.89103 0.62714 0.90293
1.00000 0.64537 0.92011
1.00000 0.65263 0.91682
0.00000 0.71401 0.81495
0.17870 0.71478 0.81896
0.37300 0.71671 0.82814
0.56181 0.71892 0.84092
0.72704 0.72251 0.85288
0.86243 0.73110 0.86576
0.97727 0.74350 0.88022
1.00000 0.75745 0.88111
0.00000 0.82940 0.78694
0.00000 0.82950 0.79061
0.27215 0.82959 0.79927
0.50902 0.82896 0.81083
0.69129 0.83019 0.82287
0.83461 0.83421 0.83446
0.95537 0.83712 0.84891
1.00000 0.84045 0.85789
0.00000 0.92124 0.76867
0.00000 0.92152 0.77208
0.19821 0.92220 0.78026
0.46965 0.92395 0.79202
0.65404 0.92553 0.80395
0.79895 0.92727 0.81516
0.91369 0.92916 0.82638
0.98081 0.92864 0.83813
0.00000 1.00000 0.74675
0.13168 1.00000 0.74867
0.31177 1.00000 0.75325
0.46834 1.00000 0.76093
0.60729 1.00000 0.77100
0.72938 1.00000 0.78238
0.82973 1.00000 0.79329
0.90536 1.00000 0.79833
0.05293 0.16831 0.97653
0.20396 0.16537 0.98679
0.36424 0.16590 0.99919
0.56432 0.16576 1.00000
0.76134 0.16263 1.00000
0.91280 0.20284 1.00000
1.00000 0.28623 1.00000
1.00000 0.37162 1.00000
0.11556 0.24242 0.99951
0.19848 0.24387 1.00000
0.37175 0.24671 1.00000
0.57579 0.24296 1.00000
0.76702 0.26981 1.00000
0.91602 0.30228 1.00000
1.00000 0.37525 1.00000
1.00000 0.43629 1.00000
0.12884 0.39882 1.00000
0.23184 0.40364 1.00000
0.40334 0.41668 1.00000
0.59801 0.41465 1.00000
0.78044 0.44954 1.00000
0.91401 0.49112 1.00000
1.00000 0.53768 1.00000
1.00000 0.57592 1.00000
0.28812 0.61915 0.97991
0.37443 0.63004 0.98418
0.51355 0.64418 0.99043
0.65006 0.64138 0.99522
0.78184 0.64047 0.99744
0.90006 0.66889 0.99619
1.00000 0.69140 0.99759
1.00000 0.70544 0.99704
0.28882 0.74919 0.94748
0.35649 0.75008 0.95074
0.47778 0.75063 0.95871
0.61884 0.75199 0.96722
0.75386 0.75730 0.97336
0.87733 0.77061 0.97659
0.98021 0.78669 0.98266
1.00000 0.79237 0.97734
0.17472 0.83890 0.91471
0.27254 0.83917 0.91822
0.41929 0.83980 0.92576
0.57944 0.84115 0.93643
0.72871 0.84362 0.94700
0.85126 0.84919 0.95736
0.95538 0.85476 0.96220
1.00000 0.85789 0.95383
0.01288 0.93039 0.88933
0.20192 0.93054 0.89225
0.37722 0.93028 0.89865
0.54398 0.92975 0.90795
0.68958 0.93001 0.91723
0.81671 0.93099 0.92427
0.92955 0.92958 0.92951
0.99807 0.92713 0.93290
0.32393 0.99991 0.85075
0.36219 1.00000 0.85236
0.44317 1.00000 0.85633
0.54800 1.00000 0.86326
0.65931 1.00000 0.87275
0.76671 1.00000 0.88353
0.86489 1.00000 0.89389
0.93801 0.99435 0.90036
0.13103 0.22037 0.99994
0.21114 0.22137 0.99990
0.37036 0.22267 1.00000
0.56788 0.22719 1.00000
0.75549 0.22902 1.00000
0.90389 0.23221 1.00000
1.00000 0.27574 1.00000
1.00000 0.37516 1.00000
0.13374 0.29196 1.00000
0.21526 0.29066 1.00000
0.38694 0.28534 1.00000
0.57686 0.29137 1.00000
0.76133 0.29391 1.00000
0.90710 0.31227 1.00000
1.00000 0.35897 1.00000
1.00000 0.44167 1.00000
0.16632 0.42626 1.00000
0.24719 0.42811 1.00000
0.41023 0.42823 1.00000
0.59660 0.44198 1.00000
0.77134 0.45330 1.00000
0.91056 0.48369 1.00000
1.00000 0.53070 1.00000
1.00000 0.57809 1.00000
0.31466 0.62835 1.00000
0.39094 0.63782 1.00000
0.53705 0.65537 1.00000
0.67542 0.65939 1.00000
0.79434 0.66087 1.00000
0.90755 0.68000 1.00000
1.00000 0.72126 1.00000
1.00000 0.72574 1.00000
0.44609 0.78192 1.00000
0.49426 0.78550 1.00000
0.58565 0.79042 1.00000
0.69170 0.79071 1.00000
0.79368 0.78927 1.00000
0.89106 0.80057 1.00000
0.98017 0.82120 1.00000
1.00000 0.82434 1.00000
0.41669 0.85084 1.00000
0.45859 0.85054 1.00000
0.54258 0.85082 1.00000
0.64872 0.85264 1.00000
0.75737 0.85696 1.00000
0.86023 0.86822 1.00000
0.95083 0.88156 1.00000
1.00000 0.88054 1.00000
0.39840 0.92270 0.96744
0.43459 0.92302 0.96946
0.51421 0.92384 0.97358
0.61509 0.92593 0.97951
0.72398 0.92910 0.98601
0.82948 0.93325 0.99148
0.92563 0.93496 0.99735
1.00000 0.92716 0.99989
0.46639 0.98967 0.92848
0.48856 0.99016 0.93058
0.53790 0.99149 0.93453
0.61333 0.99306 0.94113
0.70165 0.99489 0.95056
0.79598 0.99481 0.96162
0.89244 0.98958 0.97272
0.97898 0.97908 0.97908
