fuji-film/cube-lut/srgb/srgb-classic-neg.cube
LUT_3D_SIZE 5
DOMAIN_MIN 0.000000 0.000000 0.000000
DOMAIN_MAX 0.903226 0.903226 0.903226
0.00944 0.01116 0.00950
0.16984 0.01729 0.00168
0.64579 0.00466 0.00000
0.86275 0.00000 0.00000
0.91695 0.13201 0.00000
0.00000 0.14531 0.04174
0.12544 0.16558 0.02702
0.65400 0.19023 0.00000
0.87088 0.07953 0.00000
0.91343 0.12009 0.00000
0.00000 0.50428 0.20306
0.00000 0.51686 0.22015
0.55558 0.58621 0.16255
0.90886 0.58082 0.14862
0.94905 0.45124 0.00000
0.00000 0.74986 0.33979
0.00000 0.75041 0.32838
0.00000 0.79756 0.30197
0.84809 0.86069 0.26069
0.94330 0.84877 0.24586
0.00000 0.86335 0.49327
0.00000 0.86594 0.48921
0.00000 0.89230 0.47661
0.69323 0.94270 0.45107
0.86340 0.97053 0.43890
0.04141 0.02805 0.14520
0.23160 0.04993 0.13543
0.69326 0.10828 0.10124
0.88602 0.06311 0.13162
0.92874 0.19587 0.09825
0.00000 0.19662 0.22356
0.20061 0.21994 0.21694
0.69384 0.28215 0.19558
0.90020 0.22127 0.19682
0.92552 0.16219 0.08749
0.00000 0.53883 0.39061
0.00000 0.55344 0.38244
0.62216 0.61943 0.34057
0.91846 0.63091 0.34371
0.96516 0.50657 0.26347
0.00000 0.75660 0.49095
0.00000 0.75923 0.47600
0.29482 0.81836 0.45088
0.87470 0.87245 0.41860
0.95187 0.87373 0.42137
0.00000 0.87002 0.56505
0.00000 0.87558 0.55961
0.00000 0.90281 0.54631
0.71104 0.94989 0.52465
0.86852 0.98029 0.51487
0.15205 0.11453 0.52854
0.33961 0.13411 0.51216
0.79439 0.20694 0.48284
0.92992 0.19383 0.47810
0.96817 0.24726 0.49578
0.17114 0.33173 0.61296
0.39054 0.36289 0.59801
0.79079 0.41761 0.56040
0.95193 0.40602 0.56596
0.98527 0.40609 0.58354
0.00000 0.61546 0.74286
0.16094 0.63517 0.72423
0.73976 0.69152 0.67565
0.95368 0.70329 0.67919
1.00000 0.71722 0.71404
0.00000 0.78345 0.83591
0.00000 0.80050 0.82367
0.51789 0.85665 0.77806
0.90341 0.89551 0.75165
0.98496 0.89761 0.79609
0.00000 0.89619 0.79001
0.00000 0.90397 0.78236
0.43627 0.93140 0.75931
0.75721 0.96573 0.73041
0.88329 0.99343 0.71922
0.39027 0.27085 0.80208
0.59832 0.29974 0.78826
0.87003 0.30493 0.73126
0.97137 0.35172 0.71523
0.99628 0.39263 0.72469
0.38180 0.48128 0.89080
0.60312 0.50101 0.86133
0.88546 0.53828 0.81774
0.98618 0.55864 0.80063
1.00000 0.56085 0.79121
0.35036 0.73173 0.94101
0.54069 0.74832 0.91965
0.83441 0.78493 0.88801
0.97081 0.79618 0.87206
1.00000 0.81124 0.88427
0.00000 0.83147 0.99560
0.01164 0.84977 0.98076
0.68698 0.88969 0.93993
0.93792 0.91596 0.91051
0.99797 0.91307 0.90519
0.28179 0.92413 0.94159
0.40083 0.93117 0.93674
0.62399 0.95043 0.92318
0.81430 0.98134 0.90515
0.91684 0.99530 0.89281
0.51427 0.34274 0.82137
0.66695 0.35305 0.79277
0.87860 0.36642 0.74702
0.97061 0.34637 0.71967
0.99998 0.44968 0.75323
0.52339 0.50726 0.88515
0.67185 0.52165 0.86134
0.89286 0.53123 0.81848
0.98396 0.53916 0.80170
1.00000 0.61790 0.82904
0.65706 0.80755 0.97301
0.78572 0.83542 0.96259
0.92229 0.85024 0.94826
0.99058 0.86519 0.94518
1.00000 0.87605 0.94576
0.57270 0.88877 1.00000
0.66167 0.90043 1.00000
0.83523 0.91735 0.98985
0.96371 0.94266 0.98638
1.00000 0.95072 0.98215
0.57832 0.93730 1.00000
0.62538 0.94273 1.00000
0.74164 0.95668 0.99782
0.86675 0.97909 0.99217
0.98819 0.98124 0.97961
