fuji-film/cube-lut/srgb/srgb-pro-neg-std.cube
LUT_3D_SIZE 5
DOMAIN_MIN 0.000000 0.000000 0.000000
DOMAIN_MAX 0.903226 0.903226 0.903226
0.00000 0.00000 0.00000
0.17368 0.01248 0.00000
0.56979 0.00000 0.00000
0.87294 0.00000 0.00000
1.00000 0.00000 0.00000
0.00000 0.19673 0.00000
0.20459 0.22041 0.00472
0.61170 0.20691 0.00000
0.89345 0.13311 0.00000
1.00000 0.10784 0.00000
0.00000 0.56776 0.00000
0.00000 0.57555 0.00000
0.54395 0.58957 0.00000
0.87986 0.57995 0.00000
1.00000 0.51847 0.00000
0.00000 0.84335 0.00000
0.00000 0.84835 0.00000
0.32998 0.85501 0.00000
0.79227 0.84795 0.00000
0.98495 0.84818 0.00000
0.00000 0.98865 0.00000
0.00000 0.99085 0.00000
0.20719 0.99772 0.00000
0.67089 1.00000 0.12813
0.85247 1.00000 0.20500
0.01134 0.01701 0.19975
0.24804 0.05285 0.26988
0.62244 0.07416 0.34172
0.89834 0.01527 0.38222
1.00000 0.00000 0.18083
0.00000 0.24443 0.22799
0.26111 0.26114 0.26086
0.62442 0.28473 0.32682
0.90937 0.26645 0.35310
1.00000 0.09883 0.21675
0.00000 0.57859 0.19395
0.00000 0.58553 0.22074
0.57704 0.60246 0.27341
0.88227 0.60777 0.28319
1.00000 0.54543 0.18953
0.00000 0.84170 0.19240
0.00000 0.84525 0.18787
0.44074 0.84950 0.26114
0.81223 0.84821 0.27887
0.99460 0.85228 0.25867
0.00000 0.99096 0.22999
0.00000 0.99314 0.24086
0.30240 1.00000 0.27653
0.68669 1.00000 0.33354
0.85946 1.00000 0.36011
0.04859 0.05815 0.61782
0.27661 0.06383 0.68035
0.67160 0.12281 0.75347
0.93449 0.16319 0.76724
1.00000 0.21656 0.75299
0.14838 0.32193 0.62831
0.35286 0.34045 0.64759
0.66806 0.36309 0.68026
0.92519 0.39402 0.72287
1.00000 0.41193 0.75454
0.00000 0.60885 0.57349
0.21395 0.61267 0.58947
0.62104 0.62091 0.62103
0.89163 0.63109 0.65838
1.00000 0.66323 0.69561
0.00000 0.84212 0.54653
0.00000 0.84279 0.55869
0.53718 0.84370 0.58733
0.83152 0.85057 0.62183
1.00000 0.85440 0.67753
0.00000 0.99806 0.54411
0.00000 1.00000 0.55083
0.44932 1.00000 0.57032
0.72268 1.00000 0.59511
0.87942 1.00000 0.61431
0.12798 0.11896 0.93656
0.29797 0.12399 0.98245
0.66584 0.12484 1.00000
0.94764 0.22372 1.00000
1.00000 0.31796 1.00000
0.12066 0.33917 0.94000
0.35261 0.35581 0.96107
0.69683 0.38461 0.98494
0.94588 0.45892 0.98511
1.00000 0.48326 0.98596
0.21760 0.66401 0.86651
0.40114 0.66655 0.87708
0.67887 0.67476 0.89933
0.91025 0.69468 0.91943
1.00000 0.71882 0.92669
0.00000 0.85634 0.81503
0.22589 0.85657 0.82440
0.60673 0.85649 0.84347
0.86235 0.86206 0.86214
1.00000 0.86131 0.87398
0.11443 1.00000 0.77442
0.31197 1.00000 0.77962
0.55591 1.00000 0.79333
0.76457 1.00000 0.81157
0.91311 1.00000 0.82494
0.13103 0.22037 0.99994
0.33587 0.21993 1.00000
0.66362 0.22689 1.00000
0.93577 0.24548 1.00000
1.00000 0.37516 1.00000
0.16141 0.38427 1.00000
0.36004 0.38248 1.00000
0.68408 0.39231 1.00000
0.94128 0.44504 1.00000
1.00000 0.53990 1.00000
0.41460 0.72560 1.00000
0.56301 0.74187 1.00000
0.74766 0.73945 1.00000
0.92777 0.75692 1.00000
1.00000 0.78136 1.00000
0.40155 0.86715 0.99650
0.50359 0.86783 0.99926
0.69292 0.87204 1.00000
0.87777 0.88764 1.00000
1.00000 0.89219 1.00000
0.46639 0.98967 0.92848
0.52337 0.99097 0.93348
0.65670 0.99385 0.94552
0.82087 0.99389 0.96444
0.97898 0.97908 0.97908
