fuji-film/cube-lut/srgb/srgb-classic-neg.cube
LUT_3D_SIZE 8
DOMAIN_MIN 0.000000 0.000000 0.000000
DOMAIN_MAX 0.903226 0.903226 0.903226
0.00944 0.01116 0.00950
0.05833 0.01202 0.00486
0.21984 0.01944 0.00000
0.50445 0.02043 0.00000
0.74677 0.00000 0.00000
0.84769 0.00000 0.00000
0.90562 0.10628 0.00000
0.91695 0.13201 0.00000
0.00000 0.05383 0.02406
0.03977 0.06527 0.01692
0.20947 0.07925 0.00792
0.50463 0.08536 0.00000
0.75226 0.05819 0.00000
0.84926 0.00000 0.00000
0.90504 0.10192 0.00000
0.91528 0.12546 0.00000
0.00000 0.18480 0.05576
0.00000 0.18904 0.04928
0.16348 0.21064 0.03454
0.48119 0.24305 0.00039
0.76400 0.21647 0.00000
0.86243 0.15722 0.00000
0.90764 0.13335 0.00000
0.91357 0.12744 0.00000
0.00000 0.39005 0.14219
0.00000 0.39156 0.14063
0.00000 0.40311 0.13033
0.39289 0.44417 0.11819
0.76091 0.48208 0.07482
0.88829 0.43803 0.06445
0.93264 0.35456 0.00000
0.92979 0.29562 0.00000
0.00000 0.60327 0.25393
0.00000 0.60564 0.25302
0.00000 0.61361 0.27248
0.10115 0.64993 0.24733
0.68575 0.69762 0.18526
0.87758 0.70839 0.17534
0.94556 0.67361 0.20253
0.95711 0.61449 0.13786
0.00000 0.72810 0.32881
0.00000 0.72817 0.31845
0.00000 0.73116 0.32571
0.00000 0.75575 0.31336
0.52154 0.81424 0.27413
0.82933 0.83985 0.24212
0.92237 0.83833 0.23635
0.94875 0.81914 0.25276
0.00000 0.82814 0.38001
0.00000 0.82824 0.37135
0.00000 0.82685 0.37576
0.00000 0.82754 0.37718
0.00000 0.86171 0.32498
0.75621 0.90437 0.30497
0.89282 0.91436 0.28904
0.91898 0.92886 0.10672
0.00000 0.86335 0.49327
0.00000 0.86408 0.49138
0.00000 0.86749 0.48835
0.00000 0.88094 0.48219
0.17683 0.90608 0.46955
0.62808 0.93740 0.45425
0.80505 0.95732 0.44026
0.86340 0.97053 0.43890
0.01822 0.01393 0.04813
0.08344 0.02406 0.04504
0.24010 0.03047 0.03123
0.52198 0.06179 0.01492
0.76162 0.04688 0.00000
0.85590 0.01873 0.00000
0.91265 0.13684 0.00000
0.92102 0.15276 0.00000
0.00406 0.07341 0.07957
0.07304 0.08322 0.07634
0.23220 0.10070 0.06784
0.52132 0.12967 0.04126
0.76543 0.11694 0.00000
0.85626 0.01017 0.00000
0.91150 0.12804 0.00000
0.91906 0.14305 0.00000
0.00000 0.20457 0.14394
0.00000 0.21150 0.13953
0.20170 0.23192 0.13375
0.50583 0.26705 0.09905
0.77354 0.25878 0.03571
0.87125 0.17895 0.00000
0.91275 0.13712 0.00000
0.91677 0.13303 0.00000
0.00000 0.40564 0.23691
0.00000 0.40726 0.22701
0.00000 0.42698 0.21056
0.43392 0.46962 0.18823
0.76531 0.49768 0.15534
0.89015 0.45395 0.11873
0.93770 0.36457 0.09773
0.93452 0.29907 0.00000
0.00000 0.60898 0.31153
0.00000 0.61064 0.31176
0.00000 0.62166 0.30558
0.24663 0.66075 0.30203
0.70097 0.70159 0.23604
0.87732 0.71437 0.22728
0.94583 0.68319 0.24424
0.95897 0.62745 0.19064
0.00000 0.73063 0.37030
0.00000 0.73019 0.35660
0.00000 0.73377 0.35497
0.00000 0.76093 0.34268
0.57566 0.82007 0.34282
0.83389 0.84339 0.28915
0.92233 0.84507 0.27695
0.94937 0.82916 0.28641
0.00000 0.82804 0.40212
0.00000 0.82740 0.39427
0.00000 0.82408 0.39993
0.00000 0.82843 0.39926
0.00000 0.86783 0.37338
0.77337 0.91009 0.38221
0.89628 0.91944 0.34801
0.91725 0.93822 0.17308
0.00000 0.86518 0.51792
0.00000 0.86626 0.51634
0.00000 0.87104 0.51313
0.00000 0.88544 0.50689
0.24709 0.90967 0.49626
0.63972 0.93970 0.48234
0.80763 0.96013 0.46921
0.86497 0.97357 0.46760
0.05916 0.03454 0.18881
0.11929 0.04133 0.18772
0.30007 0.07082 0.17884
0.58834 0.10926 0.15509
0.78911 0.11945 0.15732
0.87782 0.10027 0.18159
0.93058 0.17878 0.22922
0.93374 0.20050 0.16485
0.05553 0.12250 0.22454
0.12900 0.13442 0.22382
0.28264 0.15750 0.21894
0.56968 0.19461 0.20456
0.79276 0.21200 0.21012
0.88593 0.18704 0.23573
0.93163 0.18993 0.23030
0.93208 0.19669 0.15346
0.00000 0.24919 0.28920
0.02454 0.25681 0.28593
0.25971 0.28073 0.27959
0.56288 0.31630 0.26538
0.80277 0.34420 0.26877
0.90322 0.33820 0.30310
0.94016 0.24793 0.27002
0.93315 0.19720 0.17783
0.00000 0.44685 0.37808
0.00000 0.45174 0.37612
0.12002 0.47521 0.36839
0.51357 0.51389 0.35126
0.79153 0.55112 0.34934
0.90967 0.53947 0.36193
0.96328 0.49556 0.37796
0.95823 0.38519 0.26944
0.00000 0.62846 0.47546
0.00000 0.63227 0.47531
0.00000 0.64834 0.46780
0.37245 0.68749 0.44978
0.73209 0.72458 0.42165
0.88832 0.74713 0.44221
0.95881 0.72269 0.43792
0.97456 0.68199 0.40639
0.00000 0.73983 0.53297
0.00000 0.74116 0.53017
0.00000 0.75019 0.51779
0.00000 0.78177 0.49400
0.65366 0.83402 0.49582
0.85959 0.85630 0.45613
0.93096 0.86130 0.47431
0.96234 0.84822 0.47926
0.00000 0.82579 0.55365
0.00000 0.82520 0.54855
0.00000 0.82464 0.53867
0.00000 0.83610 0.52358
0.38700 0.88119 0.51588
0.82092 0.92189 0.53772
0.91084 0.93290 0.48368
0.93151 0.94683 0.42635
0.00000 0.87249 0.59008
0.00000 0.87450 0.58783
0.00000 0.88161 0.58249
0.00000 0.89526 0.57475
0.36603 0.92111 0.56389
0.67023 0.94616 0.55095
0.81224 0.96671 0.53842
0.87010 0.98320 0.53788
0.12310 0.08395 0.40644
0.18373 0.08794 0.40443
0.35888 0.11905 0.39678
0.66258 0.17256 0.38163
0.83206 0.17186 0.37242
0.90341 0.15969 0.37465
0.95071 0.19370 0.42063
0.96021 0.23626 0.42385
0.12749 0.16557 0.44361
0.19671 0.18340 0.44253
0.37838 0.20902 0.43233
0.65159 0.25877 0.41605
0.83746 0.26385 0.41435
0.91204 0.25774 0.42175
0.95593 0.25034 0.44897
0.96727 0.27082 0.45930
0.07944 0.32487 0.51223
0.16979 0.33644 0.50865
0.36341 0.36305 0.49926
0.64565 0.39233 0.48160
0.84141 0.42089 0.48096
0.93106 0.42028 0.50277
0.97371 0.39681 0.52075
0.98256 0.40643 0.52567
0.00000 0.50988 0.60266
0.00000 0.51503 0.59748
0.26654 0.53281 0.58257
0.59777 0.56741 0.55644
0.82622 0.59092 0.54797
0.93240 0.59108 0.56241
0.98459 0.58729 0.58982
0.99837 0.58528 0.60041
0.00000 0.65789 0.68216
0.00000 0.66416 0.67854
0.00000 0.68381 0.66493
0.47735 0.72080 0.63752
0.77792 0.75377 0.61500
0.92046 0.76762 0.62622
0.97212 0.76336 0.64993
0.99163 0.76855 0.66770
0.00000 0.75807 0.73136
0.00000 0.76206 0.72958
0.00000 0.77527 0.72164
0.28039 0.81131 0.69857
0.67607 0.85092 0.67085
0.87833 0.86933 0.66322
0.95360 0.87823 0.69187
0.97968 0.87324 0.71612
0.00000 0.82729 0.76647
0.00000 0.82834 0.76910
0.00000 0.83414 0.76947
0.00000 0.86130 0.74385
0.58582 0.90521 0.70761
0.83207 0.93348 0.69486
0.92470 0.94485 0.67236
0.95508 0.94816 0.70339
0.00000 0.88803 0.72068
0.00000 0.89057 0.71786
0.00000 0.89724 0.71057
0.13552 0.91166 0.69854
0.49633 0.93453 0.68298
0.70233 0.95603 0.66686
0.81979 0.97635 0.65591
0.87866 0.99075 0.65388
0.18404 0.15043 0.62938
0.25850 0.15330 0.61709
0.44889 0.17212 0.59454
0.71886 0.20249 0.55921
0.87494 0.23076 0.55135
0.93309 0.25535 0.55326
0.97215 0.24969 0.56239
0.97546 0.26827 0.55415
0.18747 0.21838 0.65371
0.26801 0.22523 0.64470
0.46176 0.24989 0.61957
0.72409 0.28995 0.59137
0.87616 0.32536 0.58315
0.94186 0.35138 0.58918
0.97561 0.31144 0.58259
0.97980 0.34486 0.58656
0.22151 0.41382 0.72287
0.32046 0.43170 0.71723
0.50608 0.46109 0.69529
0.72797 0.47934 0.66420
0.88056 0.49873 0.64741
0.95106 0.50040 0.64965
0.98707 0.47423 0.64633
0.99919 0.50448 0.66859
0.00000 0.57703 0.79317
0.17924 0.58396 0.78501
0.42707 0.60294 0.76394
0.67840 0.63049 0.73335
0.86590 0.65367 0.71377
0.95126 0.65633 0.71397
0.98946 0.65246 0.72506
1.00000 0.67762 0.74922
0.00000 0.69976 0.85299
0.00000 0.70767 0.84556
0.26753 0.72646 0.82480
0.60194 0.75637 0.79560
0.83241 0.78413 0.77059
0.94093 0.79168 0.76682
0.98298 0.78955 0.77650
0.99586 0.80012 0.78957
0.00000 0.77924 0.89978
0.00000 0.78552 0.89422
0.00000 0.80431 0.87550
0.41714 0.83299 0.84593
0.74019 0.86512 0.81553
0.90654 0.88237 0.80212
0.96793 0.88374 0.81337
0.98996 0.88408 0.82908
0.00000 0.84043 0.92192
0.00000 0.84424 0.91932
0.00000 0.85669 0.90982
0.25062 0.88252 0.88831
0.63107 0.91441 0.85563
0.83188 0.93670 0.83029
0.93333 0.94544 0.82114
0.97027 0.95015 0.84150
0.00000 0.90449 0.84912
0.00000 0.90711 0.84648
0.08321 0.91657 0.83920
0.39618 0.93000 0.82724
0.59466 0.94634 0.81146
0.74366 0.96520 0.79401
0.83607 0.98782 0.78355
0.89057 0.99521 0.77643
0.37283 0.25401 0.79717
0.46619 0.26439 0.79840
0.63386 0.28122 0.76793
0.81085 0.28694 0.73508
0.91048 0.29996 0.71595
0.96300 0.33569 0.70804
0.98970 0.37465 0.71350
0.99363 0.37523 0.70379
0.38107 0.34382 0.84049
0.46028 0.35098 0.83470
0.63057 0.36586 0.80472
0.81039 0.38513 0.76539
0.91796 0.39257 0.74106
0.96752 0.41679 0.73413
0.99767 0.44777 0.73360
1.00000 0.43388 0.72316
0.35875 0.50377 0.87608
0.46575 0.51832 0.86692
0.64112 0.55171 0.84072
0.81488 0.56790 0.81835
0.91884 0.58007 0.79846
0.97607 0.58576 0.79512
1.00000 0.59549 0.78767
1.00000 0.57452 0.77809
0.35340 0.66648 0.90546
0.43651 0.67880 0.89663
0.59904 0.69534 0.87604
0.77590 0.70862 0.84774
0.89845 0.72864 0.84179
0.96703 0.73105 0.83760
0.99904 0.73445 0.84102
1.00000 0.73959 0.84366
0.09300 0.74857 0.94182
0.26470 0.75556 0.93457
0.48186 0.77575 0.91724
0.70839 0.80051 0.89072
0.86469 0.82084 0.86556
0.94772 0.82350 0.85859
0.98809 0.83009 0.86725
1.00000 0.83854 0.87653
0.00000 0.81250 0.97932
0.00000 0.81888 0.97419
0.23135 0.83439 0.95978
0.57314 0.86051 0.93295
0.79490 0.88326 0.90554
0.92345 0.89638 0.89028
0.98253 0.89724 0.88650
0.99691 0.89736 0.89153
0.00000 0.86099 0.99276
0.00000 0.86677 0.98950
0.00000 0.87835 0.97673
0.41982 0.89945 0.95651
0.69389 0.92437 0.93175
0.87178 0.94517 0.91031
0.94733 0.95216 0.90296
0.98234 0.95279 0.90469
0.20246 0.92114 0.92813
0.27059 0.92379 0.92616
0.38644 0.93052 0.92106
0.53326 0.94102 0.91248
0.66801 0.95579 0.90102
0.78042 0.97229 0.89038
0.85762 0.99135 0.88191
0.91007 0.99565 0.87440
0.44300 0.30576 0.81452
0.51088 0.31820 0.80845
0.66570 0.32188 0.78138
0.82262 0.32072 0.74656
0.91403 0.31138 0.72322
0.96287 0.31882 0.71110
0.98817 0.37641 0.72299
0.99822 0.45638 0.75402
0.45389 0.38217 0.84526
0.52717 0.38495 0.83680
0.66817 0.39349 0.80951
0.82324 0.39833 0.77247
0.92119 0.39189 0.75079
0.96840 0.40017 0.74122
0.99649 0.45877 0.75529
1.00000 0.52042 0.78630
0.45155 0.53642 0.90677
0.52388 0.54691 0.89596
0.68519 0.55869 0.87210
0.84131 0.56958 0.84814
0.93363 0.59166 0.83970
0.98048 0.61130 0.83555
1.00000 0.63353 0.84005
1.00000 0.67436 0.85437
0.54496 0.73028 0.96663
0.61685 0.74595 0.95975
0.74705 0.77011 0.94417
0.85804 0.77440 0.92638
0.93729 0.77401 0.91491
0.98325 0.79765 0.91660
1.00000 0.80505 0.91563
1.00000 0.81263 0.91333
0.49730 0.81343 0.98943
0.55330 0.81944 0.98549
0.67250 0.83398 0.97405
0.79989 0.84582 0.95892
0.90545 0.85806 0.94416
0.96990 0.87406 0.93899
1.00000 0.88243 0.94249
1.00000 0.88175 0.93727
0.33425 0.85391 0.99505
0.40767 0.85899 0.99304
0.55390 0.87047 0.98761
0.73399 0.89078 0.97482
0.88131 0.90897 0.95773
0.95271 0.91395 0.94839
0.98958 0.91423 0.94422
1.00000 0.91878 0.94257
0.00000 0.88388 1.00000
0.00000 0.88858 1.00000
0.38389 0.90104 0.99889
0.61478 0.91950 0.99125
0.78191 0.93761 0.98025
0.89270 0.95148 0.96800
0.97540 0.96129 0.95435
1.00000 0.95919 0.94940
0.43687 0.93165 0.97838
0.47187 0.93362 0.97724
0.54587 0.93907 0.97431
0.63399 0.94912 0.96815
0.73799 0.96106 0.95922
0.82586 0.97868 0.95024
0.89466 0.98936 0.94439
0.94968 0.99108 0.94189
0.51427 0.34274 0.82137
0.58050 0.34856 0.81015
0.70188 0.35423 0.78562
0.83227 0.36728 0.75828
0.91667 0.35537 0.73616
0.96287 0.34176 0.72077
0.98432 0.34717 0.71188
0.99998 0.44968 0.75323
0.52666 0.41751 0.84684
0.58095 0.42357 0.83618
0.70158 0.42848 0.81333
0.83512 0.42680 0.78473
0.92317 0.42180 0.76336
0.96850 0.41132 0.74911
0.99384 0.41097 0.73981
1.00000 0.51265 0.78487
0.52226 0.54971 0.89852
0.58400 0.55456 0.89039
0.71297 0.56415 0.87066
0.84932 0.57494 0.84717
0.93422 0.58112 0.83157
0.97786 0.59162 0.82539
1.00000 0.60642 0.82233
1.00000 0.65833 0.84950
0.61426 0.73419 0.95425
0.67543 0.74711 0.94809
0.78978 0.77031 0.93477
0.88900 0.78093 0.92182
0.94904 0.78630 0.91647
0.98131 0.79597 0.91427
1.00000 0.82469 0.92266
1.00000 0.82111 0.91929
0.64798 0.85177 0.99152
0.68851 0.85889 0.98928
0.77612 0.87137 0.98439
0.86657 0.88485 0.97537
0.93364 0.88826 0.96253
0.97883 0.89655 0.96231
1.00000 0.91513 0.97571
1.00000 0.91103 0.96764
0.61431 0.88566 1.00000
0.65137 0.89173 1.00000
0.73139 0.90012 0.99925
0.81072 0.90795 0.99143
0.88939 0.91557 0.98202
0.95434 0.93231 0.98253
1.00000 0.94753 0.98690
1.00000 0.94485 0.98163
0.51646 0.90532 1.00000
0.55663 0.90875 1.00000
0.63056 0.91666 1.00000
0.73433 0.92796 0.99977
0.82992 0.94180 0.99643
0.90361 0.95498 0.99317
0.96851 0.96696 0.98898
1.00000 0.96366 0.98286
0.57832 0.93730 1.00000
0.59606 0.93928 1.00000
0.64095 0.94412 1.00000
0.70760 0.95167 0.99892
0.78240 0.96145 0.99663
0.84920 0.97672 0.99352
0.91747 0.98312 0.98750
0.98819 0.98124 0.97961
