fuji-film/cube-lut/srgb/srgb-classic-chrome.cube
LUT_3D_SIZE 8
DOMAIN_MIN 0.000000 0.000000 0.000000
DOMAIN_MAX 0.903226 0.903226 0.903226
0.00000 0.00000 0.00000
0.04425 0.00102 0.00034
0.22633 0.00518 0.00000
0.50642 0.00000 0.00000
0.72601 0.00000 0.00000
0.86826 0.00000 0.00000
0.96643 0.00000 0.00000
0.99506 0.00000 0.00000
0.00000 0.03421 0.00119
0.04602 0.04483 0.00587
0.24680 0.06498 0.00615
0.52515 0.06134 0.00000
0.73955 0.03059 0.00000
0.87947 0.00000 0.00000
0.97615 0.00000 0.00000
1.00000 0.00291 0.00000
0.00000 0.18924 0.00000
0.00000 0.20075 0.00000
0.24048 0.23133 0.00306
0.53583 0.25711 0.00000
0.75845 0.24582 0.00000
0.90018 0.22650 0.00000
0.99910 0.21404 0.00000
1.00000 0.20620 0.00000
0.00000 0.41612 0.00000
0.00000 0.42385 0.00000
0.00292 0.44216 0.00000
0.48529 0.46743 0.00000
0.74053 0.49000 0.00000
0.90426 0.47746 0.00000
1.00000 0.46572 0.00000
1.00000 0.43823 0.00000
0.00000 0.61070 0.00000
0.00000 0.61524 0.00000
0.00000 0.62891 0.00000
0.36184 0.64838 0.00000
0.67789 0.66669 0.00000
0.86491 0.67986 0.00000
0.98190 0.68261 0.00000
1.00000 0.65970 0.00000
0.00000 0.75091 0.00000
0.00000 0.75369 0.00000
0.00000 0.76181 0.00000
0.01426 0.77483 0.00000
0.59931 0.78812 0.00000
0.81132 0.79707 0.00000
0.94598 0.80649 0.00000
1.00000 0.80294 0.00000
0.00000 0.84540 0.00000
0.00000 0.84719 0.00000
0.00000 0.85231 0.00000
0.00000 0.86202 0.00000
0.48945 0.87354 0.00000
0.75986 0.88181 0.09532
0.90067 0.88838 0.00000
0.98660 0.89472 0.00000
0.00000 0.91442 0.00000
0.00000 0.91593 0.00000
0.00000 0.92013 0.00000
0.00000 0.92689 0.00000
0.48039 0.93493 0.06345
0.69271 0.94502 0.18874
0.82214 0.95445 0.22000
0.89814 0.95681 0.26012
0.00000 0.00107 0.03370
0.05891 0.01085 0.05073
0.25606 0.02684 0.08555
0.52222 0.04960 0.13125
0.73558 0.01016 0.12515
0.87506 0.00000 0.07537
0.97153 0.00000 0.00000
0.99567 0.00000 0.00000
0.00099 0.05233 0.04951
0.06898 0.06973 0.06913
0.26393 0.10019 0.10381
0.53141 0.12290 0.14016
0.74668 0.08986 0.12619
0.88548 0.04795 0.08776
0.98202 0.00250 0.00000
1.00000 0.02351 0.00000
0.00000 0.21274 0.06713
0.00000 0.22624 0.07722
0.25894 0.25884 0.10613
0.53287 0.29059 0.13544
0.75782 0.28426 0.13187
0.90514 0.25251 0.09898
1.00000 0.22716 0.00000
1.00000 0.21028 0.00000
0.00000 0.43449 0.05102
0.00000 0.44123 0.06366
0.12052 0.45876 0.08876
0.49906 0.48194 0.12353
0.74099 0.50692 0.12965
0.90174 0.49672 0.08101
1.00000 0.48107 0.00000
1.00000 0.44971 0.00000
0.00000 0.62243 0.00000
0.00000 0.62755 0.00000
0.00000 0.63998 0.00000
0.38438 0.65861 0.11872
0.68767 0.67546 0.12080
0.86396 0.69068 0.07976
0.98016 0.69104 0.04386
1.00000 0.66903 0.00000
0.00000 0.75716 0.00000
0.00000 0.75993 0.00000
0.00000 0.76781 0.00000
0.09335 0.78169 0.00000
0.62162 0.79404 0.18880
0.81684 0.80144 0.11679
0.94652 0.81182 0.06089
1.00000 0.80815 0.04429
0.00000 0.84931 0.00000
0.00000 0.85094 0.00000
0.00000 0.85592 0.00000
0.00000 0.86611 0.00000
0.50979 0.87686 0.02314
0.77227 0.88521 0.25992
0.90507 0.89195 0.19118
0.99030 0.89963 0.03900
0.00000 0.91694 0.09432
0.00000 0.91860 0.09344
0.00000 0.92289 0.10047
0.00000 0.92931 0.13557
0.49215 0.93768 0.20690
0.69757 0.94831 0.27489
0.82459 0.95723 0.29514
0.90044 0.95912 0.31067
0.00197 0.01068 0.20006
0.07083 0.02062 0.21988
0.29957 0.04917 0.27258
0.55116 0.07905 0.30456
0.74797 0.11080 0.34354
0.89270 0.13596 0.37270
0.99377 0.13401 0.38164
1.00000 0.05844 0.28326
0.00959 0.10031 0.23057
0.10655 0.11600 0.24633
0.30242 0.14254 0.28069
0.54830 0.17893 0.32331
0.74902 0.22159 0.36845
0.89854 0.23909 0.40125
1.00000 0.19480 0.38007
1.00000 0.11234 0.27823
0.00000 0.25761 0.25076
0.00000 0.26860 0.26308
0.29255 0.29231 0.29248
0.54841 0.32198 0.32860
0.75661 0.35450 0.37020
0.90287 0.38565 0.40864
1.00000 0.35161 0.38718
1.00000 0.28623 0.29827
0.00000 0.45650 0.26082
0.00000 0.46397 0.26985
0.19149 0.48397 0.29384
0.50339 0.51534 0.32543
0.73616 0.53763 0.36470
0.88660 0.55590 0.38714
0.99419 0.56294 0.41388
1.00000 0.50343 0.30807
0.00000 0.64074 0.27280
0.00000 0.64628 0.28071
0.00000 0.65698 0.30224
0.44146 0.67322 0.34101
0.70077 0.69205 0.37085
0.85455 0.71117 0.40302
0.96918 0.71742 0.38802
1.00000 0.70422 0.35179
0.00000 0.76962 0.28933
0.00000 0.77186 0.29225
0.00000 0.77816 0.30378
0.29284 0.79053 0.33586
0.65692 0.80350 0.39662
0.83002 0.81204 0.39131
0.94313 0.82481 0.40812
1.00000 0.82341 0.39255
0.00000 0.85815 0.29969
0.00000 0.85985 0.29497
0.00000 0.86443 0.28864
0.00000 0.87330 0.30977
0.56297 0.88267 0.37485
0.79332 0.89269 0.45493
0.91390 0.90135 0.41668
0.98995 0.90978 0.40989
0.00000 0.92291 0.32464
0.00000 0.92493 0.32765
0.00000 0.92855 0.33142
0.15371 0.93492 0.34048
0.52233 0.94395 0.37113
0.70994 0.95594 0.40733
0.82979 0.96447 0.41947
0.90147 0.96593 0.43516
0.00000 0.02819 0.43078
0.07317 0.03910 0.44887
0.29233 0.06212 0.48972
0.57080 0.11226 0.54077
0.77201 0.15761 0.55716
0.90404 0.18502 0.57414
1.00000 0.22174 0.59739
1.00000 0.27481 0.58524
0.00000 0.12554 0.45446
0.10517 0.14888 0.47833
0.33443 0.17677 0.49895
0.57263 0.22925 0.54052
0.77078 0.26563 0.56272
0.90609 0.29575 0.58935
1.00000 0.32075 0.61909
1.00000 0.34752 0.61153
0.00000 0.31295 0.48192
0.08229 0.32483 0.48888
0.33333 0.34553 0.50914
0.57564 0.37157 0.54036
0.76758 0.40826 0.56921
0.90216 0.45269 0.60431
1.00000 0.48583 0.64067
1.00000 0.50329 0.63661
0.00000 0.49546 0.48206
0.00000 0.49901 0.49009
0.24079 0.51429 0.51648
0.53722 0.53678 0.53682
0.74806 0.55801 0.56350
0.88726 0.58232 0.59141
0.98674 0.62294 0.63123
1.00000 0.64089 0.64084
0.00000 0.66092 0.49515
0.00000 0.66480 0.50018
0.00000 0.67420 0.51343
0.46065 0.68896 0.53773
0.70651 0.70310 0.56218
0.85519 0.72044 0.59108
0.96301 0.73698 0.61999
1.00000 0.75541 0.64355
0.00000 0.77833 0.49937
0.00000 0.78118 0.50550
0.00000 0.78885 0.52090
0.38061 0.79955 0.54455
0.66844 0.81082 0.57369
0.83178 0.82218 0.59802
0.93758 0.83757 0.63649
0.99797 0.84352 0.65774
0.00000 0.86519 0.51654
0.00000 0.86773 0.52284
0.00000 0.87372 0.53810
0.25943 0.88058 0.55820
0.62788 0.88863 0.58955
0.80896 0.90123 0.62024
0.91990 0.91399 0.62183
0.98572 0.92378 0.66027
0.00000 0.93211 0.50591
0.00000 0.93373 0.50838
0.00000 0.93717 0.51498
0.31458 0.94386 0.52764
0.56219 0.95391 0.54442
0.72418 0.96548 0.56011
0.83400 0.97407 0.57308
0.90255 0.97574 0.58296
0.00000 0.05355 0.62071
0.06112 0.06302 0.63765
0.29512 0.07721 0.67380
0.56380 0.10664 0.71468
0.78109 0.19451 0.74356
0.91515 0.26496 0.75562
1.00000 0.29477 0.76405
1.00000 0.31847 0.74700
0.00000 0.14535 0.64362
0.07432 0.15381 0.65734
0.32150 0.18270 0.68683
0.57956 0.23460 0.71866
0.78794 0.30283 0.74307
0.91209 0.36267 0.75358
1.00000 0.38052 0.76767
1.00000 0.40948 0.75748
0.00000 0.37344 0.67391
0.16835 0.39491 0.68395
0.38725 0.41104 0.70148
0.59887 0.43268 0.71955
0.78040 0.46998 0.73643
0.90316 0.50852 0.75048
1.00000 0.52973 0.77069
1.00000 0.56706 0.77227
0.00000 0.54253 0.67817
0.00000 0.54591 0.68421
0.30027 0.55940 0.69714
0.56102 0.57728 0.71294
0.75473 0.60127 0.72922
0.88670 0.62994 0.74577
0.98491 0.66208 0.76666
1.00000 0.69801 0.77914
0.00000 0.68443 0.67177
0.00000 0.68815 0.67679
0.11285 0.69640 0.68879
0.49598 0.70850 0.70582
0.72266 0.72227 0.72196
0.86371 0.73477 0.73967
0.96384 0.75359 0.75896
1.00000 0.77671 0.77506
0.00000 0.79226 0.67032
0.00000 0.79515 0.67484
0.00000 0.80184 0.68640
0.41329 0.81213 0.70373
0.67591 0.82058 0.72195
0.83605 0.83135 0.73935
0.94044 0.84373 0.76251
1.00000 0.85265 0.78538
0.00000 0.87595 0.67752
0.00000 0.87783 0.68214
0.00000 0.88236 0.69344
0.34096 0.88956 0.71131
0.63661 0.89912 0.73111
0.80789 0.91063 0.74760
0.92274 0.92260 0.76209
0.98292 0.93088 0.79117
0.00000 0.94139 0.66330
0.00000 0.94289 0.66565
0.15913 0.94697 0.67128
0.42361 0.95384 0.68009
0.60002 0.96451 0.69098
0.73732 0.97478 0.70366
0.83672 0.98398 0.71492
0.90611 0.98439 0.71920
0.00000 0.09146 0.75985
0.07053 0.09720 0.77213
0.29591 0.10997 0.80207
0.55685 0.13948 0.83604
0.77353 0.18499 0.85868
0.91777 0.27784 0.87583
1.00000 0.37873 0.88018
1.00000 0.40610 0.86152
0.00000 0.17911 0.77701
0.05928 0.18374 0.78822
0.31129 0.20081 0.81215
0.57336 0.23947 0.84022
0.78424 0.28988 0.85985
0.92169 0.36820 0.87297
1.00000 0.45488 0.87590
1.00000 0.47166 0.86259
0.00000 0.38972 0.80073
0.13370 0.40790 0.80977
0.38638 0.44326 0.82599
0.61441 0.45300 0.84284
0.79238 0.49758 0.85277
0.91339 0.54454 0.86156
0.99589 0.60143 0.86652
1.00000 0.59832 0.86280
0.00000 0.60242 0.80936
0.13336 0.61113 0.81361
0.39129 0.62243 0.82179
0.60401 0.63422 0.83119
0.77009 0.65380 0.84116
0.89065 0.68030 0.85107
0.98247 0.71269 0.86139
1.00000 0.72737 0.86277
0.00000 0.71362 0.79978
0.00000 0.71588 0.80318
0.28377 0.72439 0.81134
0.54885 0.73568 0.82358
0.73608 0.74791 0.83604
0.86767 0.76342 0.84720
0.96654 0.78701 0.85841
1.00000 0.80763 0.86571
0.00000 0.81105 0.79355
0.00000 0.81336 0.79718
0.00000 0.81881 0.80562
0.46648 0.82591 0.81831
0.69257 0.83497 0.83230
0.84633 0.84593 0.84604
0.95542 0.85705 0.85922
1.00000 0.86622 0.86999
0.00000 0.88753 0.79289
0.00000 0.88932 0.79595
0.00000 0.89355 0.80394
0.42392 0.90116 0.81657
0.65464 0.90978 0.83014
0.81194 0.92164 0.84244
0.92148 0.93116 0.85619
0.98023 0.93463 0.86773
0.09162 0.95111 0.77888
0.20986 0.95238 0.78066
0.35201 0.95683 0.78500
0.50050 0.96425 0.79242
0.63822 0.97225 0.80226
0.75510 0.98137 0.81317
0.84667 0.98906 0.82285
0.91904 0.98892 0.82550
0.00000 0.14245 0.85622
0.07075 0.14691 0.86738
0.30361 0.15695 0.89311
0.55170 0.18049 0.92539
0.76606 0.21022 0.94983
0.91023 0.26114 0.96682
1.00000 0.36958 0.97558
1.00000 0.45306 0.95341
0.00000 0.22158 0.87110
0.06075 0.22607 0.88064
0.33088 0.23452 0.90249
0.56611 0.26015 0.92987
0.77536 0.29414 0.95109
0.91504 0.34926 0.96540
1.00000 0.44782 0.97227
1.00000 0.51687 0.95146
0.00000 0.39723 0.89038
0.00724 0.40556 0.89737
0.35510 0.43187 0.91339
0.59767 0.44673 0.93104
0.78869 0.49555 0.94360
0.91175 0.55318 0.95407
1.00000 0.61516 0.96188
1.00000 0.65272 0.94463
0.14587 0.63524 0.89997
0.29170 0.64880 0.90489
0.47206 0.66931 0.91452
0.64236 0.67388 0.92572
0.79032 0.68447 0.93430
0.89890 0.72833 0.94215
0.98774 0.75899 0.94948
1.00000 0.76921 0.93947
0.01703 0.75141 0.89749
0.22378 0.75446 0.90074
0.41469 0.76110 0.90827
0.60353 0.76926 0.91815
0.76054 0.78506 0.92762
0.87929 0.80830 0.93726
0.97029 0.82991 0.94289
1.00000 0.83873 0.94003
0.00000 0.82943 0.88922
0.00000 0.83122 0.89200
0.33867 0.83565 0.89914
0.56032 0.84373 0.91086
0.73765 0.85391 0.92460
0.86008 0.86317 0.93675
0.95711 0.87387 0.94131
1.00000 0.88584 0.94192
0.00000 0.90202 0.88528
0.00000 0.90352 0.88797
0.26122 0.90659 0.89432
0.51568 0.91104 0.90456
0.69077 0.91883 0.91656
0.82440 0.92862 0.92774
0.93530 0.93536 0.93515
0.99508 0.93739 0.94013
0.36520 0.95854 0.86587
0.39986 0.95987 0.86746
0.47575 0.96395 0.87112
0.57734 0.96892 0.87772
0.68427 0.97562 0.88706
0.78632 0.98354 0.89751
0.87736 0.98846 0.90911
0.94359 0.98829 0.91716
0.00000 0.18723 0.91298
0.08744 0.19201 0.92283
0.31248 0.20319 0.94543
0.54406 0.22966 0.97703
0.75168 0.25134 0.99976
0.89247 0.29843 1.00000
0.99973 0.35628 1.00000
1.00000 0.46429 1.00000
0.00000 0.26448 0.92651
0.06561 0.26902 0.93440
0.30744 0.28239 0.95452
0.55412 0.29998 0.98390
0.75847 0.32514 1.00000
0.89784 0.36226 1.00000
1.00000 0.42907 1.00000
1.00000 0.52766 1.00000
0.00000 0.41546 0.94465
0.06192 0.42135 0.95119
0.33807 0.44096 0.96766
0.57699 0.46455 0.98835
0.77129 0.49309 1.00000
0.89849 0.54158 1.00000
0.99797 0.60264 1.00000
1.00000 0.65551 1.00000
0.16920 0.64440 0.95731
0.30099 0.65634 0.96332
0.50228 0.68097 0.97423
0.66765 0.69469 0.98553
0.78886 0.70646 0.99446
0.89493 0.73433 0.99818
0.98898 0.77852 1.00000
1.00000 0.78431 0.99660
0.32496 0.79212 0.95994
0.39968 0.79725 0.96396
0.52706 0.80672 0.97102
0.66437 0.81385 0.98063
0.78417 0.82003 0.98815
0.88598 0.83748 0.99306
0.97193 0.86302 0.99529
1.00000 0.86512 0.99246
0.32820 0.84941 0.95829
0.39343 0.85092 0.96050
0.50485 0.85465 0.96617
0.63208 0.85987 0.97336
0.75593 0.86754 0.98095
0.86349 0.88552 0.98759
0.95195 0.90615 0.99111
1.00000 0.90927 0.99186
0.32929 0.90338 0.94574
0.38245 0.90458 0.94824
0.48680 0.90744 0.95296
0.61111 0.91329 0.96029
0.72954 0.92298 0.96920
0.83240 0.93687 0.97769
0.92897 0.94397 0.98574
1.00000 0.94198 0.99198
0.49953 0.95979 0.92934
0.52209 0.96089 0.93075
0.57117 0.96319 0.93428
0.63995 0.96842 0.94134
0.72361 0.97446 0.94991
0.81021 0.98133 0.96105
0.90250 0.98399 0.97261
0.98050 0.98059 0.98057
