s709/sP3Cubes/SL3SG3tosP3DCI.cube
# sP3DCI LUT
# S-Log3/S-Gamut3 to P3(DCI)
LUT_3D_SIZE 9
0.000000 0.000000 0.000000
0.076589 0.000000 0.000000
0.207113 0.000000 0.000000
0.436256 0.000000 0.000000
0.672217 0.000000 0.000000
0.878209 0.000000 0.000000
0.980106 0.193078 0.192180
1.000000 0.525967 0.509293
1.000000 0.776757 0.757079
0.000000 0.069895 0.000000
0.065267 0.065035 0.000000
0.200418 0.054781 0.000000
0.433235 0.013588 0.000000
0.671777 0.000000 0.000000
0.878613 0.000000 0.000000
0.980846 0.258607 0.200265
1.000000 0.540376 0.510945
1.000000 0.780708 0.757523
0.000000 0.196158 0.011421
0.052997 0.193887 0.007911
0.189480 0.188984 0.000591
0.428619 0.166611 0.000000
0.671265 0.129783 0.000000
0.879464 0.152162 0.000000
0.981936 0.332837 0.211879
1.000000 0.562628 0.513581
1.000000 0.786771 0.758215
0.000000 0.424977 0.085616
0.026099 0.424093 0.082253
0.164133 0.422476 0.076094
0.414043 0.413738 0.045194
0.670630 0.399860 0.000000
0.882132 0.403498 0.000000
0.984770 0.473099 0.240756
1.000000 0.618598 0.520873
1.000000 0.804564 0.760291
0.000000 0.683583 0.200236
0.000000 0.682861 0.198428
0.052787 0.681716 0.195480
0.347124 0.676901 0.182252
0.660494 0.663649 0.143084
0.885559 0.653612 0.138513
0.990417 0.669403 0.296301
1.000000 0.732361 0.538753
1.000000 0.847847 0.765761
0.000000 0.918845 0.321280
0.000000 0.918236 0.320224
0.000000 0.917267 0.318598
0.000000 0.914244 0.313341
0.588889 0.902178 0.288842
0.880544 0.886997 0.278313
0.997876 0.881336 0.381193
1.000000 0.890992 0.573164
1.000000 0.919686 0.776976
0.000000 1.000000 0.466993
0.000000 1.000000 0.466424
0.000000 1.000000 0.465516
0.000000 1.000000 0.462610
0.000000 1.000000 0.453546
0.805923 1.000000 0.430224
0.996840 1.000000 0.483952
1.000000 0.997073 0.621294
1.000000 0.986007 0.794917
0.000000 1.000000 0.686494
0.000000 1.000000 0.686012
0.000000 1.000000 0.685247
0.000000 1.000000 0.682848
0.000000 1.000000 0.675305
0.000000 1.000000 0.651502
0.957657 1.000000 0.621197
1.000000 1.000000 0.696347
1.000000 1.000000 0.825463
0.000000 1.000000 0.964052
0.000000 1.000000 0.963653
0.000000 1.000000 0.963020
0.000000 1.000000 0.961043
0.000000 1.000000 0.954908
0.000000 1.000000 0.935595
0.000000 1.000000 0.872333
1.000000 1.000000 0.819094
1.000000 1.000000 0.883372
0.000000 0.000000 0.049515
0.069742 0.000000 0.045844
0.203781 0.000000 0.038161
0.434698 0.000000 0.007478
0.671107 0.000000 0.000000
0.877272 0.000000 0.000000
0.979041 0.187120 0.242815
1.000000 0.524655 0.521799
1.000000 0.776394 0.760541
0.000000 0.063019 0.060164
0.058466 0.058419 0.056722
0.197062 0.048381 0.049426
0.431675 0.006698 0.018841
0.670671 0.000000 0.000000
0.877678 0.000000 0.000000
0.979788 0.254236 0.249205
1.000000 0.539109 0.523387
1.000000 0.780343 0.760981
0.000000 0.192900 0.080058
0.045954 0.190540 0.076892
0.185861 0.185509 0.070138
0.427054 0.162997 0.039543
0.670147 0.124322 0.000000
0.878531 0.147525 0.008487
0.980881 0.329355 0.258495
1.000000 0.561403 0.525919
1.000000 0.786406 0.761665
0.000000 0.423676 0.141693
0.018951 0.422775 0.139511
0.159911 0.421126 0.135443
0.412388 0.412246 0.113748
0.669495 0.398255 0.070976
0.881179 0.401343 0.081850
0.983721 0.470528 0.282324
1.000000 0.617452 0.532916
1.000000 0.804199 0.763722
0.000000 0.682405 0.235154
0.000000 0.681677 0.233669
0.044822 0.680520 0.231361
0.344861 0.675637 0.221181
0.659246 0.662246 0.191882
0.884561 0.652044 0.192182
0.989354 0.667434 0.331097
1.000000 0.731353 0.550065
1.000000 0.847473 0.769133
0.000000 0.917729 0.346837
0.000000 0.917117 0.345892
0.000000 0.916148 0.344375
0.000000 0.913123 0.339452
0.587352 0.900973 0.318517
0.879378 0.885550 0.313699
0.996878 0.879892 0.406728
1.000000 0.890160 0.582995
1.000000 0.919310 0.780210
0.000000 1.000000 0.489319
0.000000 1.000000 0.488803
0.000000 1.000000 0.487978
0.000000 1.000000 0.485337
0.000000 1.000000 0.476621
0.804547 1.000000 0.454365
0.995938 1.000000 0.501718
1.000000 0.996347 0.629620
1.000000 0.985658 0.797861
0.000000 1.000000 0.695490
0.000000 1.000000 0.695013
0.000000 1.000000 0.694255
0.000000 1.000000 0.691880
0.000000 1.000000 0.684591
0.000000 1.000000 0.661032
0.957022 1.000000 0.630200
1.000000 1.000000 0.702089
1.000000 1.000000 0.827863
0.000000 1.000000 0.966800
0.000000 1.000000 0.966401
0.000000 1.000000 0.965768
0.000000 1.000000 0.963789
0.000000 1.000000 0.957651
0.000000 1.000000 0.938343
0.000000 1.000000 0.875281
1.000000 1.000000 0.821707
1.000000 1.000000 0.884568
0.000000 0.000000 0.158173
0.055908 0.000000 0.156090
0.196902 0.000000 0.151449
0.431622 0.000000 0.130625
0.669050 0.000000 0.099559
0.875514 0.000000 0.123234
0.977399 0.177691 0.305017
1.000000 0.522815 0.539419
1.000000 0.775840 0.765842
0.000000 0.049143 0.164887
0.044786 0.044577 0.162999
0.190105 0.034476 0.158626
0.428593 0.000000 0.138875
0.668620 0.000000 0.109794
0.875919 0.000000 0.133085
0.978151 0.247374 0.310037
1.000000 0.537382 0.540926
1.000000 0.779788 0.766276
0.000000 0.185529 0.176665
0.031946 0.183219 0.174916
0.178512 0.178283 0.170976
0.423970 0.155336 0.152947
0.668098 0.113201 0.125904
0.876773 0.137236 0.149640
0.979247 0.323938 0.317392
1.000000 0.559679 0.543315
1.000000 0.785850 0.766949
0.000000 0.420785 0.215626
0.005025 0.419866 0.214158
0.151346 0.418165 0.211656
0.409169 0.409099 0.198015
0.667459 0.395103 0.175018
0.879382 0.396917 0.193437
0.982090 0.466519 0.336641
1.000000 0.615824 0.549936
1.000000 0.803644 0.768974
0.000000 0.680156 0.288295
0.000000 0.679413 0.287267
0.030006 0.678238 0.285600
0.340812 0.673310 0.277565
0.657037 0.659723 0.257163
0.882678 0.648978 0.266662
0.987755 0.664487 0.377041
1.000000 0.729887 0.566295
1.000000 0.846899 0.774296
0.000000 0.915691 0.388312
0.000000 0.915073 0.387550
0.000000 0.914095 0.386325
0.000000 0.911016 0.382803
0.584440 0.898698 0.366949
0.877362 0.883041 0.366256
0.995340 0.877668 0.442830
1.000000 0.888828 0.598301
1.000000 0.918731 0.785168
0.000000 1.000000 0.521645
0.000000 1.000000 0.521127
0.000000 1.000000 0.520302
0.000000 1.000000 0.517681
0.000000 1.000000 0.509192
0.802560 1.000000 0.486854
0.994673 1.000000 0.525437
1.000000 0.995269 0.641736
1.000000 0.985121 0.802383
0.000000 1.000000 0.709686
0.000000 1.000000 0.709210
0.000000 1.000000 0.708454
0.000000 1.000000 0.706087
0.000000 1.000000 0.698663
0.000000 1.000000 0.674597
0.956084 1.000000 0.643217
1.000000 1.000000 0.710673
1.000000 1.000000 0.831567
0.000000 1.000000 0.971001
0.000000 1.000000 0.970602
0.000000 1.000000 0.969970
0.000000 1.000000 0.967995
0.000000 1.000000 0.961867
0.000000 1.000000 0.942699
0.000000 1.000000 0.879797
1.000000 1.000000 0.825734
1.000000 1.000000 0.886423
0.000000 0.000000 0.360911
0.000255 0.000000 0.360091
0.166195 0.000000 0.358241
0.418689 0.000000 0.350262
0.660995 0.000000 0.339079
0.869596 0.000000 0.347753
0.973045 0.152501 0.426494
0.999982 0.517654 0.586842
1.000000 0.774266 0.781089
0.000000 0.000000 0.364161
0.000000 0.000000 0.363414
0.158701 0.000000 0.361635
0.415657 0.000000 0.353793
0.660599 0.000000 0.342754
0.870022 0.000000 0.351527
0.973810 0.229850 0.429960
1.000000 0.532561 0.588188
1.000000 0.778210 0.781504
0.000000 0.152191 0.369956
0.000000 0.149738 0.369263
0.145239 0.143933 0.367626
0.410979 0.115270 0.359949
0.660131 0.063295 0.349003
0.870928 0.095642 0.358316
0.974906 0.310224 0.434976
1.000000 0.554833 0.590283
1.000000 0.784278 0.782150
0.000000 0.407222 0.390486
0.000000 0.406227 0.389810
0.111287 0.404515 0.388543
0.395829 0.395381 0.381535
0.659473 0.381028 0.370625
0.873559 0.381953 0.377965
0.977753 0.456288 0.448216
1.000000 0.611208 0.596107
1.000000 0.802058 0.784088
0.000000 0.670958 0.433607
0.000000 0.670201 0.432943
0.000000 0.669001 0.431888
0.324233 0.663921 0.426971
0.648772 0.650052 0.414970
0.876916 0.639557 0.417260
0.983482 0.656787 0.476578
1.000000 0.725691 0.610484
1.000000 0.845245 0.789168
0.000000 0.908557 0.503332
0.000000 0.907933 0.502768
0.000000 0.906943 0.501871
0.000000 0.903850 0.499034
0.575266 0.891544 0.485536
0.871777 0.876114 0.480179
0.991274 0.871840 0.524786
1.000000 0.885165 0.638436
1.000000 0.917046 0.799482
0.000000 1.000000 0.597996
0.000000 1.000000 0.597451
0.000000 1.000000 0.596586
0.000000 1.000000 0.593865
0.000000 1.000000 0.585485
0.797292 1.000000 0.562743
0.991092 0.999036 0.586398
1.000000 0.992086 0.675909
1.000000 0.983518 0.815665
0.000000 1.000000 0.746545
0.000000 1.000000 0.746065
0.000000 1.000000 0.745304
0.000000 1.000000 0.742920
0.000000 1.000000 0.735470
0.000000 1.000000 0.711554
0.953428 1.000000 0.678415
1.000000 1.000000 0.734237
1.000000 1.000000 0.842431
0.000000 1.000000 0.983737
0.000000 1.000000 0.983341
0.000000 1.000000 0.982714
0.000000 1.000000 0.980755
0.000000 1.000000 0.974678
0.000000 1.000000 0.955573
0.000000 1.000000 0.892819
1.000000 1.000000 0.837493
1.000000 1.000000 0.891991
0.000000 0.000000 0.593406
0.000000 0.000000 0.592729
0.083434 0.000000 0.591347
0.390599 0.000000 0.586068
0.644015 0.000000 0.577515
0.857709 0.000000 0.573086
0.963975 0.116158 0.601346
0.993559 0.507413 0.684402
1.000000 0.770451 0.819641
0.000000 0.000000 0.595260
0.000000 0.000000 0.594619
0.067764 0.000000 0.593304
0.387666 0.000000 0.588010
0.643681 0.000000 0.579446
0.858241 0.000000 0.575252
0.964689 0.199874 0.603372
0.994001 0.522922 0.685497
1.000000 0.774378 0.820016
0.000000 0.071966 0.598457
0.000000 0.068731 0.597876
0.050151 0.060654 0.596608
0.383127 0.024591 0.591419
0.643382 0.000000 0.582879
0.859224 0.023640 0.578976
0.965781 0.286758 0.606475
0.994652 0.544879 0.687123
1.000000 0.780459 0.820601
0.000000 0.383878 0.609738
0.000000 0.382930 0.609167
0.001775 0.381074 0.608106
0.367733 0.371316 0.603093
0.642801 0.355414 0.594217
0.861857 0.358194 0.589524
0.968614 0.437882 0.614682
0.996469 0.601441 0.691715
1.000000 0.798154 0.822346
0.000000 0.652390 0.633571
0.000000 0.651622 0.632998
0.000000 0.650405 0.632089
0.289283 0.645151 0.628072
0.631871 0.631466 0.617714
0.865215 0.621938 0.611278
0.974393 0.641673 0.632472
1.000000 0.716343 0.702985
1.000000 0.841060 0.826892
0.000000 0.894272 0.673031
0.000000 0.893652 0.672477
0.000000 0.892668 0.671597
0.000000 0.889593 0.668842
0.556966 0.877260 0.657208
0.860371 0.862263 0.647238
0.982484 0.859583 0.662975
1.000000 0.876517 0.724428
1.000000 0.912640 0.835977
0.000000 1.000000 0.728292
0.000000 1.000000 0.727775
0.000000 1.000000 0.726955
0.000000 1.000000 0.724391
0.000000 1.000000 0.716381
0.786105 1.000000 0.693635
0.983088 0.988796 0.699915
1.000000 0.984302 0.751400
1.000000 0.979340 0.849107
0.000000 1.000000 0.824825
0.000000 1.000000 0.824352
0.000000 1.000000 0.823601
0.000000 1.000000 0.821252
0.000000 1.000000 0.813944
0.000000 1.000000 0.790816
0.946960 1.000000 0.755737
1.000000 1.000000 0.791752
1.000000 1.000000 0.868836
0.000000 1.000000 1.000000
0.000000 1.000000 1.000000
0.000000 1.000000 1.000000
0.000000 1.000000 1.000000
0.000000 1.000000 1.000000
0.000000 1.000000 0.987782
0.000000 1.000000 0.925880
0.998579 1.000000 0.866515
1.000000 1.000000 0.907330
0.000000 0.000000 0.805500
0.000000 0.000000 0.804886
0.000000 0.000000 0.803720
0.359032 0.000000 0.799734
0.622263 0.000000 0.792861
0.841246 0.000000 0.786303
0.950144 0.142270 0.793544
0.982388 0.502078 0.825259
1.000000 0.766577 0.884732
0.000000 0.000000 0.806923
0.000000 0.000000 0.806331
0.000000 0.000000 0.805190
0.355856 0.000000 0.801223
0.622267 0.000000 0.794391
0.841912 0.000000 0.787858
0.950795 0.210468 0.794774
0.982795 0.516209 0.825994
1.000000 0.770461 0.885041
0.000000 0.099039 0.809392
0.000000 0.095652 0.808838
0.000000 0.087661 0.807752
0.351290 0.054076 0.803803
0.622278 0.010262 0.796833
0.842891 0.059391 0.790206
0.951810 0.287681 0.796690
0.983399 0.536441 0.827091
1.000000 0.776419 0.885519
0.000000 0.379748 0.816380
0.000000 0.378725 0.815891
0.000000 0.376498 0.814930
0.335922 0.366101 0.810933
0.621377 0.349946 0.803652
0.845201 0.349653 0.796429
0.954455 0.427680 0.801774
0.985175 0.591362 0.830322
1.000000 0.793649 0.886931
0.000000 0.635174 0.831000
0.000000 0.634400 0.830507
0.000000 0.633173 0.829725
0.248184 0.627453 0.826260
0.609858 0.613880 0.817890
0.848210 0.603993 0.809608
0.960051 0.625404 0.813030
0.989450 0.703975 0.838223
1.000000 0.835222 0.890538
0.000000 0.875092 0.855586
0.000000 0.874464 0.855099
0.000000 0.873468 0.854329
0.000000 0.870351 0.851918
0.533250 0.857780 0.842176
0.843332 0.843093 0.831205
0.968175 0.841415 0.832121
0.996891 0.862379 0.852800
1.000000 0.905380 0.897469
0.000000 1.000000 0.887523
0.000000 1.000000 0.887051
0.000000 1.000000 0.886302
0.000000 1.000000 0.883964
0.000000 1.000000 0.876698
0.768873 0.983986 0.856162
0.969499 0.971515 0.851518
1.000000 0.970151 0.868358
1.000000 0.971810 0.906327
0.000000 1.000000 0.942825
0.000000 1.000000 0.942378
0.000000 1.000000 0.941669
0.000000 1.000000 0.939454
0.000000 1.000000 0.932581
0.000000 1.000000 0.910945
0.935313 1.000000 0.874599
1.000000 1.000000 0.885724
1.000000 0.999721 0.916613
0.000000 1.000000 1.000000
0.000000 1.000000 1.000000
0.000000 1.000000 1.000000
0.000000 1.000000 1.000000
0.000000 1.000000 1.000000
0.000000 1.000000 1.000000
0.000000 1.000000 0.982522
0.993177 1.000000 0.917828
1.000000 1.000000 0.936964
0.000000 0.254447 0.936539
0.000000 0.251592 0.935860
0.115294 0.246202 0.934649
0.382477 0.232367 0.931458
0.622413 0.212215 0.925521
0.834708 0.225840 0.918167
0.941832 0.345522 0.916914
0.974485 0.551141 0.926368
1.000000 0.777547 0.945794
0.000000 0.299540 0.937601
0.000000 0.297197 0.936928
0.103557 0.292750 0.935727
0.380138 0.281274 0.932517
0.622189 0.265271 0.926565
0.835114 0.270709 0.919071
0.942351 0.372414 0.917700
0.974828 0.561723 0.926874
1.000000 0.780976 0.946037
0.000000 0.357328 0.939215
0.000000 0.355342 0.938569
0.080489 0.351460 0.937375
0.376299 0.341011 0.934096
0.621603 0.325627 0.928045
0.835744 0.328873 0.920488
0.943124 0.409079 0.918877
0.975348 0.577319 0.927640
1.000000 0.786253 0.946413
0.000000 0.476434 0.943584
0.000000 0.475145 0.943013
0.000000 0.472438 0.941892
0.361205 0.464118 0.938467
0.619266 0.451273 0.932195
0.837169 0.446242 0.924267
0.945225 0.494567 0.922108
0.976905 0.621284 0.929936
1.000000 0.801624 0.947528
0.000000 0.659117 0.953293
0.000000 0.658350 0.952834
0.000000 0.657007 0.952047
0.287103 0.650692 0.948581
0.607302 0.638594 0.941493
0.838933 0.628861 0.932870
0.949963 0.646159 0.929629
0.980746 0.716689 0.935625
1.000000 0.838059 0.950286
0.000000 0.869529 0.970583
0.000000 0.868890 0.970128
0.000000 0.867879 0.969406
0.000000 0.864713 0.967152
0.534287 0.851998 0.958263
0.833201 0.837821 0.947539
0.957303 0.836678 0.942668
0.987587 0.857651 0.945934
1.000000 0.901750 0.955536
0.000000 1.000000 0.992076
0.000000 1.000000 0.991630
0.000000 1.000000 0.990922
0.000000 1.000000 0.988710
0.000000 0.994696 0.981851
0.760846 0.970122 0.962756
0.958656 0.958577 0.954015
0.993069 0.958827 0.955327
1.000000 0.964754 0.961564
0.000000 1.000000 1.000000
0.000000 1.000000 1.000000
0.000000 1.000000 1.000000
0.000000 1.000000 1.000000
0.000000 1.000000 1.000000
0.000000 1.000000 0.997843
0.926166 0.999733 0.962217
0.993897 0.994718 0.960971
1.000000 0.992517 0.965887
0.000000 1.000000 1.000000
0.000000 1.000000 1.000000
0.000000 1.000000 1.000000
0.000000 1.000000 1.000000
0.000000 1.000000 1.000000
0.000000 1.000000 1.000000
0.000000 1.000000 1.000000
0.987400 1.000000 0.969252
1.000000 1.000000 0.972843
0.301749 0.604599 0.982769
0.342261 0.603394 0.982169
0.393961 0.601642 0.981285
0.503406 0.597168 0.978949
0.669391 0.589034 0.974131
0.849343 0.583016 0.967211
0.946447 0.607871 0.964066
0.976152 0.688906 0.967309
1.000000 0.825001 0.975393
0.296083 0.614095 0.983320
0.337347 0.612904 0.982719
0.390791 0.611122 0.981816
0.501642 0.606645 0.979464
0.668832 0.598465 0.974618
0.849477 0.592688 0.967685
0.946721 0.615996 0.964477
0.976381 0.694332 0.967625
1.000000 0.827220 0.975553
0.286421 0.628520 0.984184
0.330000 0.627332 0.983568
0.385515 0.625572 0.982648
0.498757 0.621199 0.980275
0.667974 0.613261 0.975397
0.849672 0.607207 0.968413
0.947135 0.628093 0.965101
0.976751 0.703013 0.968138
1.000000 0.830659 0.975802
0.252855 0.668890 0.986756
0.304937 0.667648 0.986093
0.366659 0.665883 0.985137
0.488819 0.661449 0.982665
0.664980 0.653253 0.977634
0.850068 0.645805 0.970457
0.948373 0.662888 0.966977
0.977824 0.727482 0.969624
1.000000 0.840861 0.976550
0.065168 0.759338 0.993563
0.182000 0.758116 0.992835
0.284407 0.756294 0.991744
0.450534 0.751636 0.988907
0.653155 0.743206 0.983407
0.850066 0.734355 0.975760
0.951416 0.742652 0.971737
0.980571 0.786163 0.973436
1.000000 0.865391 0.978392
0.000000 0.896300 1.000000
0.000000 0.895668 1.000000
0.000000 0.894669 1.000000
0.173324 0.890662 1.000000
0.595282 0.879581 0.994847
0.842390 0.867194 0.985581
0.956149 0.864509 0.980313
0.985423 0.879518 0.980244
1.000000 0.912675 0.982129
0.000000 1.000000 1.000000
0.000000 1.000000 1.000000
0.000000 1.000000 1.000000
0.000000 1.000000 1.000000
0.000000 0.991666 1.000000
0.778282 0.968604 0.996631
0.956209 0.957996 0.988195
0.989760 0.958427 0.986765
1.000000 0.964270 0.986516
0.000000 1.000000 1.000000
0.000000 1.000000 1.000000
0.000000 1.000000 1.000000
0.000000 1.000000 1.000000
0.000000 1.000000 1.000000
0.000000 1.000000 1.000000
0.925744 0.994977 0.993158
0.990564 0.990546 0.989806
1.000000 0.989238 0.988899
0.000000 1.000000 1.000000
0.000000 1.000000 1.000000
0.000000 1.000000 1.000000
0.000000 1.000000 1.000000
0.000000 1.000000 1.000000
0.000000 1.000000 1.000000
0.000000 1.000000 1.000000
0.984929 1.000000 0.992822
1.000000 1.000000 0.991687
0.619260 0.853293 1.000000
0.628894 0.852866 1.000000
0.643319 0.852213 1.000000
0.682635 0.850360 1.000000
0.767963 0.846031 1.000000
0.883660 0.840373 0.999987
0.958444 0.842336 0.996781
0.982800 0.860561 0.997123
1.000000 0.901177 0.999410
0.617941 0.855447 1.000000
0.627675 0.855016 1.000000
0.642114 0.854365 1.000000
0.681760 0.852501 1.000000
0.767457 0.848157 1.000000
0.883578 0.842458 1.000000
0.958523 0.844206 0.996917
0.982880 0.862049 0.997233
1.000000 0.902051 0.999479
0.615820 0.858791 1.000000
0.625715 0.858356 1.000000
0.640196 0.857707 1.000000
0.680355 0.855826 1.000000
0.766646 0.851461 1.000000
0.883443 0.845696 1.000000
0.958637 0.846935 0.997116
0.983005 0.864367 0.997406
1.000000 0.903421 0.999587
0.608875 0.868542 1.000000
0.619304 0.868085 1.000000
0.634362 0.867410 1.000000
0.675789 0.865467 1.000000
0.764011 0.860948 1.000000
0.882954 0.854713 1.000000
0.958972 0.855051 0.997714
0.983382 0.871323 0.997926
1.000000 0.907005 0.999870
0.584707 0.892702 1.000000
0.596390 0.892220 1.000000
0.614170 0.891464 1.000000
0.659871 0.889416 1.000000
0.755007 0.884668 1.000000
0.881130 0.877914 1.000000
0.959825 0.877122 0.999377
0.984334 0.888721 0.999251
1.000000 0.916973 1.000000
0.477263 0.941216 1.000000
0.496907 0.940584 1.000000
0.525854 0.939597 1.000000
0.594294 0.937004 1.000000
0.720618 0.931225 1.000000
0.873251 0.922678 1.000000
0.960851 0.918759 1.000000
0.986310 0.924270 1.000000
1.000000 0.939305 1.000000
0.000000 1.000000 1.000000
0.000000 1.000000 1.000000
0.000000 1.000000 1.000000
0.000000 1.000000 1.000000
0.499609 0.989704 1.000000
0.829897 0.974802 1.000000
0.958640 0.966758 1.000000
0.988521 0.966310 1.000000
1.000000 0.969461 1.000000
0.000000 1.000000 1.000000
0.000000 1.000000 1.000000
0.000000 1.000000 1.000000
0.000000 1.000000 1.000000
0.000000 1.000000 1.000000
0.000000 1.000000 1.000000
0.933313 0.992451 1.000000
0.988702 0.988673 1.000000
1.000000 0.987367 1.000000
0.000000 1.000000 1.000000
0.000000 1.000000 1.000000
0.000000 1.000000 1.000000
0.000000 1.000000 1.000000
0.000000 1.000000 1.000000
0.000000 1.000000 1.000000
0.000000 1.000000 1.000000
0.983691 1.000000 1.000000
1.000000 1.000000 1.000000
