s709/sP3Cubes/SL3SG3CtosP3DCI.cube
# sP3DCI LUT
# S-Log3/S-Gamut3.Cine to P3(DCI)
LUT_3D_SIZE 33
0.000000 0.000000 0.000000
0.000000 0.000000 0.000000
0.018450 0.000000 0.000000
0.039184 0.000000 0.000000
0.060661 0.000000 0.000000
0.085191 0.000000 0.000000
0.113219 0.000000 0.000000
0.145432 0.000000 0.000000
0.182097 0.000000 0.000000
0.227125 0.000000 0.000000
0.281135 0.000000 0.000000
0.340089 0.000000 0.000000
0.401661 0.000000 0.000000
0.463703 0.000000 0.000000
0.524137 0.000000 0.000000
0.583140 0.000000 0.000000
0.640990 0.000000 0.000000
0.697971 0.000000 0.000000
0.753048 0.000000 0.000000
0.806156 0.000000 0.000000
0.855615 0.000000 0.000000
0.896169 0.000000 0.000000
0.928635 0.000000 0.000000
0.954057 0.000000 0.000000
0.973346 0.000000 0.000000
0.986921 0.000000 0.000000
0.996301 0.000000 0.000000
1.000000 0.000000 0.000000
1.000000 0.000000 0.000000
1.000000 0.000000 0.000000
1.000000 0.000000 0.000000
1.000000 0.000000 0.000000
1.000000 0.000000 0.000000
0.000000 0.001628 0.000000
0.000000 0.000081 0.000000
0.020071 0.000000 0.000000
0.040805 0.000000 0.000000
0.062283 0.000000 0.000000
0.086698 0.000000 0.000000
0.114504 0.000000 0.000000
0.146506 0.000000 0.000000
0.182997 0.000000 0.000000
0.227847 0.000000 0.000000
0.281724 0.000000 0.000000
0.340571 0.000000 0.000000
0.402059 0.000000 0.000000
0.464043 0.000000 0.000000
0.524431 0.000000 0.000000
0.583398 0.000000 0.000000
0.641221 0.000000 0.000000
0.698178 0.000000 0.000000
0.753237 0.000000 0.000000
0.806329 0.000000 0.000000
0.855776 0.000000 0.000000
0.896320 0.000000 0.000000
0.928779 0.000000 0.000000
0.954196 0.000000 0.000000
0.973482 0.000000 0.000000
0.987054 0.000000 0.000000
0.996433 0.000000 0.000000
1.000000 0.000000 0.000000
1.000000 0.000000 0.000000
1.000000 0.000000 0.000000
1.000000 0.000000 0.000000
1.000000 0.000000 0.000000
1.000000 0.000000 0.000000
0.000000 0.026149 0.000000
0.000963 0.024603 0.000000
0.021692 0.023057 0.000000
0.042426 0.021511 0.000000
0.063903 0.019910 0.000000
0.088204 0.018072 0.000000
0.115788 0.015684 0.000000
0.147579 0.012378 0.000000
0.183878 0.007829 0.000000
0.228568 0.001018 0.000000
0.282304 0.000000 0.000000
0.341053 0.000000 0.000000
0.402456 0.000000 0.000000
0.464382 0.000000 0.000000
0.524725 0.000000 0.000000
0.583656 0.000000 0.000000
0.641451 0.000000 0.000000
0.698386 0.000000 0.000000
0.753425 0.000000 0.000000
0.806502 0.000000 0.000000
0.855936 0.000000 0.000000
0.896471 0.000000 0.000000
0.928924 0.000000 0.000000
0.954336 0.000000 0.000000
0.973617 0.000000 0.000000
0.987188 0.000000 0.000000
0.996564 0.000000 0.000000
1.000000 0.000000 0.000000
1.000000 0.000000 0.000000
1.000000 0.000000 0.000000
1.000000 0.000000 0.000000
1.000000 0.000000 0.000000
1.000000 0.000000 0.000000
0.000000 0.050678 0.000000
0.002584 0.049132 0.000000
0.023313 0.047586 0.000000
0.044047 0.046040 0.000000
0.065524 0.044438 0.000000
0.089711 0.042600 0.000000
0.117073 0.040213 0.000000
0.148653 0.036906 0.000000
0.184746 0.032357 0.000000
0.229290 0.025547 0.000000
0.282884 0.015494 0.000000
0.341528 0.002014 0.000000
0.402854 0.000000 0.000000
0.464721 0.000000 0.000000
0.525019 0.000000 0.000000
0.583915 0.000000 0.000000
0.641682 0.000000 0.000000
0.698593 0.000000 0.000000
0.753614 0.000000 0.000000
0.806675 0.000000 0.000000
0.856097 0.000000 0.000000
0.896622 0.000000 0.000000
0.929068 0.000000 0.000000
0.954475 0.000000 0.000000
0.973753 0.000000 0.000000
0.987321 0.000000 0.000000
0.996696 0.000000 0.000000
1.000000 0.000000 0.000000
1.000000 0.000000 0.000000
1.000000 0.000000 0.000000
1.000000 0.000000 0.000000
1.000000 0.000000 0.000000
1.000000 0.000000 0.000000
0.000000 0.076050 0.000000
0.004263 0.074510 0.000000
0.024991 0.072969 0.000000
0.045725 0.071429 0.000000
0.067203 0.069831 0.000000
0.091270 0.067993 0.000000
0.118403 0.065605 0.000000
0.149765 0.062299 0.000000
0.185643 0.057750 0.000000
0.230037 0.050940 0.000000
0.283485 0.040887 0.000000
0.342021 0.027406 0.000000
0.403266 0.010363 0.000000
0.465072 0.000000 0.000000
0.525322 0.000000 0.000000
0.584183 0.000000 0.000000
0.641920 0.000000 0.000000
0.698807 0.000000 0.000000
0.753809 0.000000 0.000000
0.806854 0.000000 0.000000
0.856263 0.000000 0.000000
0.896779 0.000000 0.000000
0.929218 0.000000 0.000000
0.954620 0.000000 0.000000
0.973894 0.000000 0.000000
0.987460 0.000000 0.000000
0.996833 0.000000 0.000000
1.000000 0.000000 0.000000
1.000000 0.000000 0.000000
1.000000 0.000000 0.000000
1.000000 0.000000 0.000000
1.000000 0.000000 0.000000
1.000000 0.000000 0.000000
0.000000 0.103166 0.000000
0.006188 0.101846 0.000000
0.026916 0.100526 0.000000
0.047650 0.099207 0.000000
0.069128 0.097839 0.000000
0.093059 0.096171 0.000000
0.119929 0.093952 0.000000
0.150997 0.090879 0.000000
0.186673 0.086651 0.000000
0.230894 0.080033 0.000000
0.284175 0.070016 0.000000
0.342586 0.056535 0.000000
0.403739 0.039492 0.000000
0.465473 0.019072 0.000000
0.525670 0.000000 0.000000
0.584489 0.000000 0.000000
0.642193 0.000000 0.000000
0.699053 0.000000 0.000000
0.754032 0.000000 0.000000
0.807060 0.000000 0.000000
0.856453 0.000000 0.000000
0.896958 0.000000 0.000000
0.929390 0.000000 0.000000
0.954785 0.000000 0.000000
0.974055 0.000000 0.000000
0.987618 0.000000 0.000000
0.996989 0.000000 0.000000
1.000000 0.000000 0.000000
1.000000 0.000000 0.000000
1.000000 0.000000 0.000000
1.000000 0.000000 0.000000
1.000000 0.000000 0.000000
1.000000 0.000000 0.000000
0.000000 0.132704 0.000000
0.008692 0.131622 0.000000
0.029420 0.130515 0.000000
0.050154 0.129368 0.000000
0.071627 0.128179 0.000000
0.095387 0.126816 0.000000
0.121827 0.125044 0.000000
0.152576 0.122591 0.000000
0.188013 0.119125 0.000000
0.231992 0.113727 0.000000
0.285071 0.105479 0.000000
0.343320 0.093669 0.000000
0.404354 0.077361 0.000000
0.465993 0.056966 0.000000
0.526121 0.033785 0.000000
0.584888 0.007875 0.000000
0.642548 0.000000 0.000000
0.699373 0.000000 0.000000
0.754323 0.000000 0.000000
0.807326 0.000000 0.000000
0.856701 0.000000 0.000000
0.897191 0.000000 0.000000
0.929613 0.000000 0.000000
0.955001 0.000000 0.000000
0.974265 0.000000 0.000000
0.987824 0.000000 0.000000
0.997193 0.000000 0.000000
1.000000 0.000000 0.000000
1.000000 0.000000 0.000000
1.000000 0.000000 0.000000
1.000000 0.000000 0.000000
1.000000 0.000000 0.000000
1.000000 0.000000 0.000000
0.000000 0.166682 0.000704
0.012161 0.165751 0.000000
0.032888 0.164819 0.000000
0.053622 0.163888 0.000000
0.075083 0.162923 0.000000
0.098511 0.161815 0.000000
0.124400 0.160377 0.000000
0.154763 0.158356 0.000000
0.189868 0.155488 0.000000
0.233496 0.151194 0.000000
0.286313 0.144587 0.000000
0.344338 0.135371 0.000000
0.405203 0.122993 0.000000
0.466714 0.106789 0.000000
0.526747 0.086080 0.000000
0.585438 0.060353 0.000000
0.643039 0.031676 0.000000
0.699816 0.000147 0.000000
0.754726 0.000000 0.000000
0.807696 0.000000 0.000000
0.857044 0.000000 0.000000
0.897515 0.000000 0.000000
0.929921 0.000000 0.000000
0.955299 0.000000 0.000000
0.974556 0.000000 0.000000
0.988109 0.000000 0.000000
0.997475 0.000000 0.000000
1.000000 0.000000 0.000000
1.000000 0.000000 0.000000
1.000000 0.000000 0.000000
1.000000 0.000000 0.000000
1.000000 0.000000 0.000000
1.000000 0.000000 0.000000
0.000000 0.205427 0.007129
0.016923 0.204661 0.005939
0.037651 0.203888 0.004750
0.058384 0.203115 0.003561
0.079828 0.202314 0.002329
0.102576 0.201395 0.000915
0.127933 0.200202 0.000000
0.157765 0.198549 0.000000
0.192365 0.196211 0.000000
0.235563 0.192693 0.000000
0.287993 0.187378 0.000000
0.345728 0.180044 0.000000
0.406361 0.170381 0.000000
0.467704 0.158167 0.000000
0.527606 0.143217 0.000000
0.586194 0.124882 0.000000
0.643715 0.101913 0.000000
0.700424 0.072196 0.000000
0.755279 0.038528 0.000000
0.808204 0.002989 0.000000
0.857514 0.000000 0.000000
0.897958 0.000000 0.000000
0.930345 0.000000 0.000000
0.955708 0.000000 0.000000
0.974955 0.000000 0.000000
0.988501 0.000000 0.000000
0.997863 0.000000 0.000000
1.000000 0.000000 0.000000
1.000000 0.000000 0.000000
1.000000 0.000000 0.000000
1.000000 0.000000 0.000000
1.000000 0.000000 0.000000
1.000000 0.000000 0.000000
0.003311 0.253156 0.016738
0.024046 0.252531 0.015549
0.044774 0.251907 0.014360
0.065508 0.251282 0.013170
0.086751 0.250635 0.011938
0.108656 0.249892 0.010524
0.133090 0.248921 0.008688
0.162112 0.247554 0.006144
0.196045 0.245674 0.002645
0.238624 0.242846 0.000000
0.290499 0.238590 0.000000
0.347791 0.232770 0.000000
0.408093 0.225220 0.000000
0.469176 0.215806 0.000000
0.528884 0.204671 0.000000
0.587322 0.191502 0.000000
0.644720 0.175909 0.000000
0.701331 0.157212 0.000000
0.756105 0.134953 0.000000
0.808961 0.107922 0.000000
0.858217 0.074877 0.000000
0.898621 0.043428 0.000000
0.930978 0.016883 0.000000
0.956320 0.000000 0.000000
0.975551 0.000000 0.000000
0.989087 0.000000 0.000000
0.998441 0.000000 0.000000
1.000000 0.000000 0.000000
1.000000 0.000000 0.000000
1.000000 0.000000 0.000000
1.000000 0.000000 0.000000
1.000000 0.000000 0.000000
1.000000 0.000000 0.000000
0.013853 0.310706 0.030960
0.034588 0.310200 0.029770
0.055316 0.309691 0.028581
0.076029 0.309182 0.027392
0.096548 0.308655 0.026160
0.117065 0.308050 0.024746
0.140461 0.307265 0.022909
0.168422 0.306177 0.020366
0.201384 0.304661 0.016867
0.243087 0.302384 0.011628
0.294161 0.298987 0.003894
0.350825 0.294372 0.000000
0.410636 0.288426 0.000000
0.471349 0.281140 0.000000
0.530772 0.272611 0.000000
0.588988 0.262749 0.000000
0.646207 0.251386 0.000000
0.702670 0.238283 0.000000
0.757324 0.223451 0.000000
0.810082 0.206715 0.000000
0.859256 0.188429 0.000000
0.899601 0.170972 0.000000
0.931915 0.154950 0.000000
0.957225 0.140858 0.000000
0.976433 0.128908 0.000000
0.989953 0.119830 0.000000
0.999296 0.113061 0.000000
1.000000 0.108518 0.000000
1.000000 0.105620 0.000000
1.000000 0.102977 0.000000
1.000000 0.099458 0.000000
1.000000 0.094534 0.000000
1.000000 0.087715 0.000000
0.027999 0.373660 0.050043
0.048734 0.373248 0.048854
0.069462 0.372836 0.047665
0.089734 0.372421 0.046475
0.108692 0.371989 0.045243
0.127783 0.371493 0.043829
0.149852 0.370850 0.041993
0.176553 0.369958 0.039449
0.208356 0.368730 0.035950
0.248941 0.366873 0.030711
0.299006 0.364121 0.022978
0.354852 0.360393 0.012608
0.414023 0.355616 0.000000
0.474243 0.349804 0.000000
0.533292 0.343070 0.000000
0.591213 0.335373 0.000000
0.648195 0.326626 0.000000
0.704463 0.316711 0.000000
0.758957 0.305752 0.000000
0.811582 0.293704 0.000000
0.860648 0.281014 0.000000
0.900914 0.269366 0.000000
0.933169 0.259136 0.000000
0.958436 0.250487 0.000000
0.977614 0.243521 0.000000
0.991113 0.238370 0.000000
1.000000 0.234688 0.000000
1.000000 0.232235 0.000000
1.000000 0.230747 0.000000
1.000000 0.229369 0.000000
1.000000 0.227534 0.000000
1.000000 0.225087 0.000000
1.000000 0.221732 0.000000
0.045854 0.439365 0.074117
0.066589 0.439020 0.072932
0.087059 0.438676 0.071747
0.105600 0.438332 0.070562
0.122745 0.437975 0.069331
0.140452 0.437563 0.067917
0.161029 0.437027 0.066080
0.186354 0.436285 0.063536
0.216863 0.435263 0.060037
0.256134 0.433726 0.054798
0.305011 0.431450 0.047065
0.359865 0.428372 0.036695
0.418256 0.424441 0.023585
0.477867 0.419678 0.007877
0.536451 0.414198 0.000000
0.594006 0.407974 0.000000
0.650693 0.400957 0.000000
0.706719 0.393077 0.000000
0.761012 0.384465 0.000000
0.813471 0.375134 0.000000
0.862401 0.365451 0.000000
0.902567 0.356717 0.000000
0.934749 0.349165 0.000000
0.959963 0.342868 0.000000
0.979102 0.337861 0.000000
0.992575 0.334206 0.000000
1.000000 0.331619 0.000000
1.000000 0.329892 0.000000
1.000000 0.328855 0.000000
1.000000 0.327903 0.000000
1.000000 0.326626 0.000000
1.000000 0.324923 0.000000
1.000000 0.322630 0.000000
0.067308 0.505810 0.101350
0.087733 0.505518 0.100335
0.106214 0.505225 0.099320
0.122727 0.504933 0.098304
0.138220 0.504630 0.097240
0.154465 0.504282 0.095926
0.173686 0.503828 0.094219
0.197594 0.503198 0.091855
0.226680 0.502332 0.088603
0.264528 0.501032 0.083692
0.312060 0.499107 0.075986
0.365790 0.496509 0.065637
0.423273 0.493201 0.052526
0.482182 0.489204 0.036819
0.540221 0.484620 0.018986
0.597342 0.479437 0.000000
0.653680 0.473621 0.000000
0.709416 0.467128 0.000000
0.763472 0.460079 0.000000
0.815733 0.452499 0.000000
0.864501 0.444697 0.000000
0.904548 0.437723 0.000000
0.936644 0.431739 0.000000
0.961794 0.426786 0.000000
0.980886 0.422869 0.000000
0.994328 0.420025 0.000000
1.000000 0.418019 0.000000
1.000000 0.416682 0.000000
1.000000 0.415880 0.000000
1.000000 0.415147 0.000000
1.000000 0.414163 0.000000
1.000000 0.412852 0.000000
1.000000 0.411094 0.000000
0.091104 0.570560 0.127499
0.109316 0.570307 0.126617
0.125419 0.570053 0.125735
0.140237 0.569799 0.124852
0.154286 0.569537 0.123938
0.169267 0.569235 0.122889
0.187143 0.568843 0.121526
0.209651 0.568299 0.119577
0.237369 0.567549 0.116803
0.273744 0.566426 0.112651
0.319873 0.564761 0.106300
0.372393 0.562519 0.097449
0.428895 0.559671 0.085269
0.487026 0.556234 0.069683
0.544461 0.552304 0.051851
0.601104 0.547868 0.031919
0.657051 0.542909 0.009859
0.712464 0.537393 0.000000
0.766254 0.531426 0.000000
0.818292 0.525043 0.000000
0.866878 0.518501 0.000000
0.906792 0.512685 0.000000
0.938789 0.507715 0.000000
0.963867 0.503622 0.000000
0.982907 0.500393 0.000000
0.996314 0.498056 0.000000
1.000000 0.496409 0.000000
1.000000 0.495313 0.000000
1.000000 0.494654 0.000000
1.000000 0.494054 0.000000
1.000000 0.493252 0.000000
1.000000 0.492179 0.000000
1.000000 0.490746 0.000000
0.114473 0.633791 0.152603
0.130245 0.633568 0.151853
0.144573 0.633345 0.151103
0.157915 0.633121 0.150353
0.170761 0.632890 0.149548
0.184585 0.632624 0.148612
0.201239 0.632279 0.147395
0.222423 0.631801 0.145710
0.248769 0.631142 0.143391
0.283690 0.630154 0.139871
0.328370 0.628692 0.134464
0.379620 0.626725 0.126983
0.435080 0.624228 0.117030
0.492375 0.621221 0.104209
0.549156 0.617782 0.088242
0.605275 0.613913 0.068658
0.660794 0.609595 0.046598
0.715852 0.604806 0.022344
0.769348 0.599637 0.000000
0.821140 0.594124 0.000000
0.869526 0.588495 0.000000
0.909292 0.583503 0.000000
0.941179 0.579251 0.000000
0.966178 0.575760 0.000000
0.985161 0.573008 0.000000
0.998528 0.571021 0.000000
1.000000 0.569620 0.000000
1.000000 0.568693 0.000000
1.000000 0.568133 0.000000
1.000000 0.567623 0.000000
1.000000 0.566943 0.000000
1.000000 0.566035 0.000000
1.000000 0.564819 0.000000
0.136841 0.695724 0.176895
0.150755 0.695525 0.176235
0.163610 0.695327 0.175574
0.175738 0.695128 0.174887
0.187507 0.694922 0.174176
0.200286 0.694685 0.173359
0.215835 0.694377 0.172298
0.235781 0.693951 0.170829
0.260806 0.693365 0.168809
0.294283 0.692485 0.165710
0.337491 0.691184 0.161051
0.387441 0.689435 0.154608
0.441801 0.687214 0.146149
0.498211 0.684543 0.135461
0.554291 0.681495 0.122504
0.609845 0.678067 0.106643
0.664904 0.674250 0.086962
0.719574 0.670020 0.062959
0.772750 0.665467 0.037054
0.824275 0.660618 0.009716
0.872440 0.655679 0.000000
0.912044 0.651310 0.000000
0.943813 0.647596 0.000000
0.968724 0.644547 0.000000
0.987644 0.642152 0.000000
1.000000 0.640422 0.000000
1.000000 0.639205 0.000000
1.000000 0.638397 0.000000
1.000000 0.637912 0.000000
1.000000 0.637469 0.000000
1.000000 0.636878 0.000000
1.000000 0.636090 0.000000
1.000000 0.635035 0.000000
0.158584 0.756826 0.200628
0.170945 0.756647 0.200033
0.182632 0.756468 0.199439
0.193655 0.756289 0.198844
0.204538 0.756103 0.198228
0.216371 0.755890 0.197499
0.230916 0.755613 0.196550
0.249692 0.755230 0.195236
0.273436 0.754702 0.193428
0.305514 0.753911 0.190715
0.347238 0.752741 0.186578
0.395847 0.751169 0.180941
0.449069 0.749175 0.173585
0.504546 0.746778 0.164386
0.559880 0.744044 0.153392
0.614832 0.740974 0.140327
0.669391 0.737556 0.124531
0.723646 0.733777 0.105285
0.776475 0.729713 0.081737
0.827709 0.725393 0.054439
0.875636 0.720999 0.026840
0.915064 0.717117 0.002635
0.946702 0.713822 0.000000
0.971517 0.711122 0.000000
0.990368 0.709002 0.000000
1.000000 0.707472 0.000000
1.000000 0.706396 0.000000
1.000000 0.705683 0.000000
1.000000 0.705254 0.000000
1.000000 0.704862 0.000000
1.000000 0.704340 0.000000
1.000000 0.703645 0.000000
1.000000 0.702714 0.000000
0.179274 0.815894 0.223434
0.190517 0.815731 0.222890
0.201140 0.815569 0.222346
0.211312 0.815406 0.221802
0.221359 0.815237 0.221239
0.232402 0.815043 0.220592
0.246014 0.814792 0.219752
0.263735 0.814443 0.218587
0.286323 0.813963 0.216941
0.317039 0.813244 0.214477
0.357342 0.812181 0.210803
0.404618 0.810753 0.205779
0.456689 0.808942 0.199242
0.511210 0.806767 0.191163
0.565778 0.804288 0.181565
0.620103 0.801506 0.170295
0.674145 0.798412 0.157039
0.727964 0.794993 0.141320
0.780430 0.791321 0.122762
0.831357 0.787422 0.100617
0.879032 0.783461 0.074599
0.918274 0.779966 0.050410
0.949776 0.777002 0.029990
0.974491 0.774575 0.013344
0.993268 0.772671 0.000326
1.000000 0.771297 0.000000
1.000000 0.770331 0.000000
1.000000 0.769692 0.000000
1.000000 0.769307 0.000000
1.000000 0.768956 0.000000
1.000000 0.768488 0.000000
1.000000 0.767864 0.000000
1.000000 0.767030 0.000000
0.199098 0.872855 0.245312
0.209333 0.872705 0.244820
0.219148 0.872556 0.244328
0.228536 0.872407 0.243837
0.237914 0.872252 0.243326
0.248231 0.872074 0.242727
0.261040 0.871843 0.241950
0.277795 0.871524 0.240873
0.299289 0.871084 0.239392
0.328751 0.870424 0.237167
0.367668 0.869450 0.233812
0.413644 0.868140 0.229260
0.464573 0.866481 0.223378
0.518135 0.864488 0.216124
0.571923 0.862218 0.207607
0.625609 0.859673 0.197703
0.679117 0.856844 0.186142
0.732486 0.853720 0.172668
0.784576 0.850366 0.157206
0.835186 0.846810 0.139377
0.882599 0.843199 0.119335
0.921647 0.840016 0.099439
0.953007 0.837320 0.080377
0.977616 0.835113 0.063768
0.996317 0.833382 0.050749
1.000000 0.832134 0.041385
1.000000 0.831257 0.034815
1.000000 0.830676 0.030467
1.000000 0.830327 0.027855
1.000000 0.830008 0.025473
1.000000 0.829583 0.022302
1.000000 0.829017 0.018075
1.000000 0.828260 0.012431
0.217438 0.925987 0.265651
0.226905 0.925848 0.265190
0.236011 0.925710 0.264730
0.244789 0.925571 0.264270
0.253567 0.925428 0.263793
0.263278 0.925263 0.263246
0.275388 0.925049 0.262535
0.291314 0.924753 0.261551
0.311840 0.924345 0.260191
0.340149 0.923734 0.258120
0.377798 0.922831 0.255062
0.422554 0.921618 0.250876
0.472390 0.920082 0.245495
0.525029 0.918237 0.238897
0.578058 0.916137 0.231192
0.631117 0.913782 0.222243
0.684101 0.911167 0.211967
0.737025 0.908280 0.200056
0.788741 0.905184 0.186587
0.839035 0.901901 0.171367
0.886187 0.898572 0.154717
0.925042 0.895639 0.138808
0.956258 0.893154 0.124136
0.980763 0.891123 0.111188
0.999388 0.889531 0.100213
1.000000 0.888382 0.091759
1.000000 0.887575 0.085654
1.000000 0.887042 0.081417
1.000000 0.886720 0.078815
1.000000 0.886427 0.076442
1.000000 0.886036 0.073282
1.000000 0.885516 0.069065
1.000000 0.884820 0.063421
0.232412 0.969572 0.282276
0.241312 0.969441 0.281850
0.249913 0.969311 0.281421
0.258217 0.969180 0.280987
0.266562 0.969045 0.280538
0.275818 0.968890 0.280022
0.287385 0.968688 0.279352
0.302652 0.968409 0.278424
0.322428 0.968025 0.277148
0.349825 0.967449 0.275213
0.386447 0.966599 0.272338
0.430199 0.965456 0.268427
0.479131 0.964009 0.263406
0.530990 0.962272 0.257259
0.583377 0.960296 0.250106
0.635902 0.958080 0.241852
0.688436 0.955620 0.232390
0.740979 0.952906 0.221526
0.792373 0.949995 0.209344
0.842395 0.946912 0.195729
0.889321 0.943786 0.181049
0.928008 0.941033 0.167283
0.959100 0.938703 0.154793
0.983514 0.936797 0.144001
1.000000 0.935303 0.135075
1.000000 0.934227 0.128377
1.000000 0.933472 0.123502
1.000000 0.932971 0.120258
1.000000 0.932670 0.118188
1.000000 0.932395 0.116300
1.000000 0.932029 0.113787
1.000000 0.931541 0.110436
1.000000 0.930890 0.105698
0.244361 1.000000 0.295564
0.252848 1.000000 0.295153
0.261073 1.000000 0.294742
0.269033 1.000000 0.294331
0.277050 1.000000 0.293905
0.285958 1.000000 0.293416
0.297120 1.000000 0.292781
0.311892 1.000000 0.291902
0.331084 1.000000 0.290677
0.357770 1.000000 0.288834
0.393582 1.000000 0.286106
0.436532 1.000000 0.282393
0.484732 0.999162 0.277625
0.535960 0.997504 0.271807
0.587821 0.995617 0.265039
0.639907 0.993503 0.257258
0.692069 0.991156 0.248379
0.744295 0.988568 0.238231
0.795422 0.985794 0.226899
0.845216 0.982854 0.214325
0.891954 0.979876 0.200888
0.930502 0.977254 0.188387
0.961491 0.975034 0.177239
0.985828 0.973221 0.167693
1.000000 0.971799 0.159859
1.000000 0.970775 0.153994
1.000000 0.970056 0.149837
1.000000 0.969579 0.146957
1.000000 0.969293 0.145226
1.000000 0.969031 0.143648
1.000000 0.968683 0.141547
1.000000 0.968219 0.138632
1.000000 0.967599 0.134686
0.253693 1.000000 0.305963
0.261885 1.000000 0.305567
0.269826 1.000000 0.305169
0.277542 1.000000 0.304771
0.285307 1.000000 0.304360
0.293956 1.000000 0.303887
0.304817 1.000000 0.303273
0.319222 1.000000 0.302423
0.337968 1.000000 0.301253
0.364106 1.000000 0.299473
0.399294 1.000000 0.296845
0.441621 1.000000 0.293268
0.489245 1.000000 0.288687
0.539973 1.000000 0.283100
0.591416 1.000000 0.276623
0.643149 1.000000 0.269175
0.695015 1.000000 0.260706
0.746985 1.000000 0.251039
0.797897 1.000000 0.240301
0.847509 1.000000 0.228437
0.894095 1.000000 0.215828
0.932530 1.000000 0.204182
0.963434 1.000000 0.193833
0.987709 1.000000 0.185032
1.000000 1.000000 0.177866
1.000000 0.999310 0.172550
1.000000 0.998618 0.168756
1.000000 0.998159 0.166192
1.000000 0.997883 0.164618
1.000000 0.997631 0.163183
1.000000 0.997296 0.161272
1.000000 0.996849 0.158713
1.000000 0.996252 0.155154
0.260785 1.000000 0.313853
0.268751 1.000000 0.313467
0.276505 1.000000 0.313082
0.284023 1.000000 0.312697
0.291622 1.000000 0.312298
0.300079 1.000000 0.311840
0.310719 1.000000 0.311245
0.324839 1.000000 0.310419
0.343259 1.000000 0.309268
0.368995 1.000000 0.307544
0.403708 1.000000 0.304985
0.445562 1.000000 0.301519
0.492749 1.000000 0.297069
0.543093 1.000000 0.291650
0.594214 1.000000 0.285357
0.645677 1.000000 0.278158
0.697312 1.000000 0.269963
0.749086 1.000000 0.260661
0.799831 1.000000 0.250325
0.849300 1.000000 0.238946
0.895768 1.000000 0.226896
0.934114 1.000000 0.215796
0.964954 1.000000 0.206015
0.989181 1.000000 0.197704
1.000000 1.000000 0.190978
1.000000 1.000000 0.185970
1.000000 1.000000 0.182420
1.000000 1.000000 0.180006
1.000000 1.000000 0.178556
1.000000 1.000000 0.177234
1.000000 1.000000 0.175469
1.000000 1.000000 0.173028
1.000000 1.000000 0.169768
0.265766 1.000000 0.319410
0.273585 1.000000 0.319031
0.281201 1.000000 0.318651
0.288596 1.000000 0.318272
0.296071 1.000000 0.317879
0.304399 1.000000 0.317428
0.314888 1.000000 0.316842
0.328821 1.000000 0.316030
0.347011 1.000000 0.314912
0.372465 1.000000 0.313215
0.406850 1.000000 0.310710
0.448373 1.000000 0.307301
0.495251 1.000000 0.302940
0.545325 1.000000 0.297631
0.596217 1.000000 0.291486
0.647488 1.000000 0.284438
0.698959 1.000000 0.276444
0.750592 1.000000 0.267350
0.801218 1.000000 0.257288
0.850586 1.000000 0.246228
0.896969 1.000000 0.234542
0.935252 1.000000 0.223817
0.966046 1.000000 0.214358
0.990238 1.000000 0.206363
1.000000 1.000000 0.199891
1.000000 1.000000 0.195110
1.000000 1.000000 0.191716
1.000000 1.000000 0.189418
1.000000 1.000000 0.188021
1.000000 1.000000 0.186747
1.000000 1.000000 0.185051
1.000000 1.000000 0.182766
1.000000 1.000000 0.179633
0.269191 1.000000 0.323239
0.276931 1.000000 0.322866
0.284439 1.000000 0.322492
0.291766 1.000000 0.322118
0.299143 1.000000 0.321730
0.307392 1.000000 0.321286
0.317769 1.000000 0.320709
0.331577 1.000000 0.319909
0.349620 1.000000 0.318798
0.374873 1.000000 0.317126
0.409039 1.000000 0.314653
0.450334 1.000000 0.311294
0.496997 1.000000 0.306992
0.546882 1.000000 0.301759
0.597618 1.000000 0.295696
0.648753 1.000000 0.288758
0.700112 1.000000 0.280885
0.751647 1.000000 0.271952
0.802189 1.000000 0.262066
0.851486 1.000000 0.251214
0.897810 1.000000 0.239766
0.936049 1.000000 0.229269
0.966810 1.000000 0.220045
0.990978 1.000000 0.212254
1.000000 1.000000 0.205953
1.000000 1.000000 0.201295
1.000000 1.000000 0.198005
1.000000 1.000000 0.195759
