s709/sP3Cubes/SL3SG3tosP3DCI.cube
# sP3DCI LUT
# S-Log3/S-Gamut3 to P3(DCI)
LUT_3D_SIZE 33
0.000000 0.000000 0.000000
0.001112 0.000000 0.000000
0.025237 0.000000 0.000000
0.049407 0.000000 0.000000
0.076589 0.000000 0.000000
0.103781 0.000000 0.000000
0.132553 0.000000 0.000000
0.167223 0.000000 0.000000
0.207113 0.000000 0.000000
0.255994 0.000000 0.000000
0.313959 0.000000 0.000000
0.375111 0.000000 0.000000
0.436256 0.000000 0.000000
0.496416 0.000000 0.000000
0.556524 0.000000 0.000000
0.615171 0.000000 0.000000
0.672217 0.000000 0.000000
0.727646 0.000000 0.000000
0.781861 0.000000 0.000000
0.833336 0.000000 0.000000
0.878209 0.000000 0.000000
0.914614 0.000000 0.000000
0.942804 0.000000 0.000000
0.964299 0.063156 0.083218
0.980106 0.193078 0.192180
0.991120 0.290432 0.283490
0.998061 0.376767 0.364464
1.000000 0.454394 0.438650
1.000000 0.525967 0.509293
1.000000 0.593385 0.575797
1.000000 0.658041 0.638923
1.000000 0.719058 0.699132
1.000000 0.776757 0.757079
0.000000 0.000226 0.000000
0.000000 0.000000 0.000000
0.023038 0.000000 0.000000
0.047163 0.000000 0.000000
0.073899 0.000000 0.000000
0.101475 0.000000 0.000000
0.130323 0.000000 0.000000
0.165293 0.000000 0.000000
0.205548 0.000000 0.000000
0.254289 0.000000 0.000000
0.312364 0.000000 0.000000
0.373993 0.000000 0.000000
0.435502 0.000000 0.000000
0.495858 0.000000 0.000000
0.556130 0.000000 0.000000
0.614931 0.000000 0.000000
0.672082 0.000000 0.000000
0.727589 0.000000 0.000000
0.781873 0.000000 0.000000
0.833389 0.000000 0.000000
0.878302 0.000000 0.000000
0.914732 0.000000 0.000000
0.942987 0.000000 0.000000
0.964487 0.098939 0.086885
0.980280 0.210231 0.194120
0.991299 0.302420 0.284824
0.998216 0.384673 0.365345
1.000000 0.459691 0.439246
1.000000 0.529624 0.509709
1.000000 0.596224 0.576112
1.000000 0.660029 0.639144
1.000000 0.720462 0.699291
1.000000 0.777755 0.757190
0.000000 0.023346 0.000000
0.000000 0.022115 0.000000
0.020839 0.020885 0.000000
0.044967 0.019653 0.000000
0.071088 0.018272 0.000000
0.099251 0.016638 0.000000
0.128041 0.014662 0.000000
0.163196 0.011699 0.000000
0.203877 0.007445 0.000000
0.252640 0.001023 0.000000
0.310742 0.000000 0.000000
0.372865 0.000000 0.000000
0.434740 0.000000 0.000000
0.495296 0.000000 0.000000
0.555732 0.000000 0.000000
0.614691 0.000000 0.000000
0.671965 0.000000 0.000000
0.727557 0.000000 0.000000
0.781886 0.000000 0.000000
0.833443 0.000000 0.000000
0.878405 0.000000 0.000000
0.914873 0.000000 0.000000
0.943158 0.009035 0.000000
0.964661 0.126744 0.090276
0.980458 0.226553 0.196098
0.991478 0.313952 0.286160
0.998367 0.392191 0.366198
1.000000 0.464810 0.439832
1.000000 0.533193 0.510117
1.000000 0.599017 0.576424
1.000000 0.661992 0.639363
1.000000 0.721855 0.699448
1.000000 0.778745 0.757302
0.000000 0.046473 0.000000
0.000000 0.045239 0.000000
0.018640 0.044008 0.000000
0.042768 0.042775 0.000000
0.068161 0.041451 0.000000
0.096751 0.039814 0.000000
0.125820 0.037847 0.000000
0.161080 0.034919 0.000000
0.202163 0.030661 0.000000
0.251143 0.024259 0.000000
0.309077 0.014677 0.000000
0.371707 0.001963 0.000000
0.433969 0.000000 0.000000
0.494735 0.000000 0.000000
0.555351 0.000000 0.000000
0.614480 0.000000 0.000000
0.671872 0.000000 0.000000
0.727530 0.000000 0.000000
0.781898 0.000000 0.000000
0.833499 0.000000 0.000000
0.878498 0.000000 0.000000
0.914994 0.000000 0.000000
0.943318 0.042126 0.000000
0.964847 0.151987 0.093841
0.980657 0.243498 0.198257
0.991651 0.324658 0.287440
0.998514 0.399352 0.367032
1.000000 0.469763 0.440408
1.000000 0.536785 0.510529
1.000000 0.601759 0.576732
1.000000 0.663933 0.639581
1.000000 0.723235 0.699604
1.000000 0.779729 0.757413
0.000000 0.069895 0.000000
0.000000 0.068690 0.000000
0.016466 0.067485 0.000000
0.040593 0.066280 0.000000
0.065267 0.065035 0.000000
0.093560 0.063465 0.000000
0.123757 0.061483 0.000000
0.159088 0.058741 0.000000
0.200418 0.054781 0.000000
0.249674 0.048783 0.000000
0.307477 0.039820 0.000000
0.370578 0.027748 0.000000
0.433235 0.013588 0.000000
0.494243 0.000000 0.000000
0.555001 0.000000 0.000000
0.614290 0.000000 0.000000
0.671777 0.000000 0.000000
0.727503 0.000000 0.000000
0.781917 0.000000 0.000000
0.833568 0.000000 0.000000
0.878613 0.000000 0.000000
0.915153 0.000000 0.000000
0.943513 0.081334 0.000000
0.965051 0.176103 0.097662
0.980846 0.258607 0.200265
0.991817 0.334635 0.288675
0.998657 0.406186 0.367848
1.000000 0.474560 0.440975
1.000000 0.540376 0.510945
1.000000 0.604459 0.577038
1.000000 0.665849 0.639797
1.000000 0.724600 0.699760
1.000000 0.780708 0.757523
0.000000 0.095551 0.000000
0.000000 0.094487 0.000000
0.014501 0.093426 0.000000
0.038632 0.092362 0.000000
0.063050 0.091279 0.000000
0.090579 0.089944 0.000000
0.121915 0.088123 0.000000
0.157255 0.085627 0.000000
0.198721 0.082040 0.000000
0.248255 0.076353 0.000000
0.305926 0.067878 0.000000
0.369486 0.056258 0.000000
0.432532 0.042297 0.000000
0.493798 0.026573 0.000000
0.554651 0.010360 0.000000
0.614091 0.000000 0.000000
0.671682 0.000000 0.000000
0.727483 0.000000 0.000000
0.781934 0.000000 0.000000
0.833624 0.000000 0.000000
0.878726 0.000000 0.000000
0.915314 0.032373 0.000000
0.943703 0.115056 0.000089
0.965244 0.196548 0.101036
0.981026 0.272243 0.202195
0.991977 0.343977 0.289874
0.998796 0.412719 0.368645
1.000000 0.479203 0.441528
1.000000 0.544075 0.511373
1.000000 0.607108 0.577341
1.000000 0.667740 0.640011
1.000000 0.725955 0.699915
1.000000 0.781680 0.757634
0.000000 0.124248 0.000000
0.000000 0.123425 0.000000
0.012164 0.122601 0.000000
0.036301 0.121815 0.000000
0.060530 0.121026 0.000000
0.087568 0.120028 0.000000
0.119336 0.118559 0.000000
0.155114 0.116560 0.000000
0.196536 0.113615 0.000000
0.246461 0.109009 0.000000
0.304083 0.101663 0.000000
0.368072 0.090696 0.000000
0.431617 0.076829 0.000000
0.493225 0.061521 0.000000
0.554211 0.045546 0.000000
0.613847 0.030029 0.000000
0.671569 0.015069 0.000000
0.727455 0.004411 0.000000
0.781961 0.000000 0.000000
0.833729 0.002546 0.000000
0.878875 0.023251 0.000000
0.915493 0.073793 0.000000
0.943919 0.146952 0.004708
0.965469 0.218336 0.105030
0.981240 0.287645 0.204516
0.992168 0.354873 0.291328
0.998964 0.420504 0.369611
1.000000 0.485087 0.442234
1.000000 0.548628 0.511906
1.000000 0.610367 0.577716
1.000000 0.670078 0.640277
1.000000 0.727635 0.700107
1.000000 0.782889 0.757771
0.000000 0.158089 0.004038
0.000000 0.157429 0.003163
0.008923 0.156770 0.002289
0.033060 0.156108 0.001416
0.057194 0.155445 0.000544
0.083692 0.154667 0.000000
0.115347 0.153556 0.000000
0.152304 0.151930 0.000000
0.193333 0.149631 0.000000
0.243809 0.145656 0.000000
0.301630 0.139764 0.000000
0.366053 0.131224 0.000000
0.430327 0.120668 0.000000
0.492424 0.108633 0.000000
0.553602 0.095198 0.000000
0.613513 0.081071 0.000000
0.671423 0.066562 0.000000
0.727427 0.056099 0.000000
0.782030 0.053264 0.000000
0.833865 0.057536 0.000000
0.879120 0.085730 0.000000
0.915805 0.132011 0.000000
0.944246 0.186147 0.011544
0.965779 0.245372 0.110472
0.981527 0.307188 0.207598
0.992430 0.369225 0.293296
0.999204 0.431304 0.370977
1.000000 0.493501 0.443254
1.000000 0.554802 0.512637
1.000000 0.614823 0.578233
1.000000 0.673298 0.640645
1.000000 0.729959 0.700375
1.000000 0.784570 0.757963
0.000000 0.196158 0.011421
0.000000 0.195598 0.010543
0.004732 0.195037 0.009666
0.028866 0.194462 0.008789
0.052997 0.193887 0.007911
0.077825 0.193283 0.006990
0.111126 0.192305 0.005509
0.148298 0.190943 0.003452
0.189480 0.188984 0.000591
0.240094 0.185846 0.000000
0.298890 0.181052 0.000000
0.363328 0.174607 0.000000
0.428619 0.166611 0.000000
0.491383 0.157935 0.000000
0.552822 0.148872 0.000000
0.613103 0.139268 0.000000
0.671265 0.129783 0.000000
0.727433 0.122789 0.000000
0.782157 0.124379 0.000000
0.834107 0.130191 0.000000
0.879464 0.152162 0.000000
0.916170 0.183193 0.000000
0.944678 0.228736 0.020576
0.966222 0.279379 0.117681
0.981936 0.332837 0.211879
0.992800 0.388424 0.296029
0.999536 0.445757 0.372851
1.000000 0.504161 0.444578
1.000000 0.562628 0.513581
1.000000 0.620544 0.578905
1.000000 0.677466 0.641127
1.000000 0.732988 0.700725
1.000000 0.786771 0.758215
0.000000 0.240150 0.021637
0.000000 0.239756 0.020773
0.000000 0.239362 0.019908
0.023667 0.238968 0.019045
0.047815 0.238574 0.018182
0.071960 0.238178 0.017319
0.103982 0.237556 0.016012
0.142962 0.236570 0.013966
0.185431 0.235210 0.011127
0.234936 0.233108 0.006848
0.295218 0.229607 0.000000
0.359731 0.225069 0.000000
0.426428 0.219307 0.000000
0.490101 0.213179 0.000000
0.551877 0.206742 0.000000
0.612649 0.200196 0.000000
0.671143 0.194201 0.000000
0.727535 0.190355 0.000000
0.782377 0.192957 0.000000
0.834476 0.199314 0.000000
0.879908 0.213376 0.000000
0.916710 0.239966 0.000000
0.945227 0.274082 0.032192
0.966732 0.314524 0.126086
0.982428 0.361318 0.217003
0.993256 0.410819 0.299401
0.999948 0.463031 0.375184
1.000000 0.517254 0.446254
1.000000 0.572431 0.514793
1.000000 0.627817 0.579774
1.000000 0.682822 0.641753
1.000000 0.736908 0.701183
1.000000 0.789680 0.758548
0.000000 0.296111 0.037123
0.000000 0.295853 0.036274
0.000000 0.295595 0.035427
0.018223 0.295334 0.034579
0.042382 0.295073 0.033733
0.066536 0.294811 0.032887
0.097235 0.294444 0.031740
0.137370 0.293747 0.029730
0.180131 0.292793 0.027005
0.228798 0.291345 0.023004
0.290343 0.288688 0.016194
0.355589 0.285094 0.007124
0.423636 0.280487 0.000000
0.488517 0.275569 0.000000
0.550816 0.270581 0.000000
0.612137 0.265602 0.000000
0.671052 0.261220 0.000000
0.727731 0.258921 0.000000
0.782702 0.261079 0.000000
0.834963 0.266258 0.000000
0.880505 0.275903 0.000000
0.917374 0.296493 0.000000
0.945915 0.322248 0.046953
0.967426 0.356470 0.136845
0.983047 0.394137 0.223390
0.993804 0.436222 0.303510
1.000000 0.483253 0.378069
1.000000 0.533046 0.448371
1.000000 0.584533 0.516329
1.000000 0.636954 0.580889
1.000000 0.689644 0.642562
1.000000 0.742008 0.701784
1.000000 0.793464 0.758986
0.000000 0.359236 0.058500
0.000000 0.359004 0.057643
0.000000 0.358771 0.056786
0.011555 0.358538 0.055929
0.035729 0.358305 0.055075
0.059881 0.358072 0.054222
0.089643 0.357780 0.053155
0.129821 0.357233 0.051278
0.173452 0.356428 0.048602
0.223069 0.355196 0.044632
0.283141 0.353139 0.038224
0.350999 0.350058 0.028889
0.419733 0.346252 0.017407
0.486348 0.342041 0.004638
0.549510 0.337811 0.000000
0.611445 0.333576 0.000000
0.670925 0.329995 0.000000
0.727987 0.328673 0.000000
0.783110 0.329657 0.000000
0.835564 0.332947 0.000000
0.881266 0.340053 0.000000
0.918180 0.354011 0.004916
0.946790 0.374644 0.065962
0.968236 0.400142 0.149056
0.983821 0.431494 0.231269
0.994540 0.467848 0.308915
1.000000 0.508191 0.381801
1.000000 0.552290 0.451080
1.000000 0.599383 0.518280
1.000000 0.648390 0.582319
1.000000 0.698390 0.643618
1.000000 0.748813 0.702589
1.000000 0.798338 0.759555
0.000000 0.424977 0.085616
0.000000 0.424757 0.084811
0.000000 0.424537 0.083982
0.001909 0.424315 0.083117
0.026099 0.424093 0.082253
0.050272 0.423872 0.081392
0.080442 0.423595 0.080315
0.118201 0.423193 0.078761
0.164133 0.422476 0.076094
0.213613 0.421459 0.072358
0.273544 0.419754 0.066258
0.343854 0.417057 0.056781
0.414043 0.413738 0.045194
0.483084 0.409921 0.031899
0.547802 0.406119 0.018348
0.610350 0.402632 0.004795
0.670630 0.399860 0.000000
0.728187 0.398173 0.000000
0.783515 0.397740 0.000000
0.836227 0.399077 0.000000
0.882132 0.403498 0.000000
0.919133 0.412706 0.028812
0.947821 0.428415 0.088658
0.969227 0.447684 0.163344
0.984770 0.473099 0.240756
0.995395 0.502077 0.315290
1.000000 0.537341 0.386444
1.000000 0.576386 0.454611
1.000000 0.618598 0.520873
1.000000 0.663363 0.584224
1.000000 0.709945 0.645027
1.000000 0.757506 0.703635
1.000000 0.804564 0.760291
0.000000 0.490626 0.114379
0.000000 0.490426 0.113687
0.000000 0.490226 0.112995
0.000000 0.490025 0.112303
0.011028 0.489825 0.111610
0.035214 0.489624 0.110918
0.065468 0.489373 0.110053
0.105413 0.489022 0.108801
0.150185 0.488484 0.106835
0.201604 0.487617 0.103725
0.261035 0.486257 0.098897
0.331935 0.484088 0.090604
0.406835 0.481154 0.078943
0.477915 0.477904 0.065442
0.544998 0.474554 0.051341
0.608480 0.471312 0.037437
0.669876 0.468304 0.024153
0.728135 0.465939 0.013307
0.783784 0.464455 0.008223
0.836869 0.464260 0.010536
0.883066 0.466499 0.024889
0.920217 0.472436 0.057859
0.949018 0.483872 0.112965
0.970412 0.498755 0.179915
0.985882 0.517642 0.251846
0.996477 0.541988 0.323253
1.000000 0.570587 0.392122
1.000000 0.603442 0.458856
1.000000 0.641005 0.524058
1.000000 0.681376 0.586608
1.000000 0.724060 0.646802
1.000000 0.768331 0.704967
1.000000 0.812437 0.761238
0.000000 0.556421 0.143228
0.000000 0.556233 0.142644
0.000000 0.556045 0.142060
0.000000 0.555856 0.141477
0.000000 0.555667 0.140893
0.012119 0.555478 0.140282
0.042373 0.555242 0.139511
0.084730 0.554910 0.138428
0.131195 0.554470 0.137000
0.184262 0.553742 0.134653
0.243767 0.552620 0.131047
0.316484 0.550697 0.124551
0.395123 0.547962 0.115009
0.469651 0.544837 0.103438
0.540280 0.541464 0.089995
0.605523 0.538167 0.075891
0.668301 0.534950 0.061893
0.727597 0.532125 0.050772
0.783810 0.529917 0.045309
0.837379 0.528613 0.047238
0.884009 0.529210 0.060744
0.921408 0.532943 0.091904
0.950375 0.540848 0.138246
0.971769 0.551789 0.198436
0.987197 0.565687 0.264800
0.997738 0.584985 0.332625
1.000000 0.607748 0.398962
1.000000 0.635835 0.464228
1.000000 0.667325 0.528006
1.000000 0.702453 0.589535
1.000000 0.740985 0.649013
1.000000 0.781598 0.706648
1.000000 0.822266 0.762445
0.000000 0.620785 0.171757
0.000000 0.620599 0.171240
0.000000 0.620414 0.170725
0.000000 0.620228 0.170209
0.000000 0.620043 0.169694
0.000000 0.619857 0.169178
0.006976 0.619625 0.168532
0.049398 0.619299 0.167625
0.103519 0.618865 0.166379
0.157199 0.618291 0.164725
0.219834 0.617314 0.161860
0.292275 0.615726 0.157083
0.376317 0.613196 0.149182
0.458242 0.610068 0.138994
0.532394 0.606766 0.127790
0.601109 0.603384 0.115861
0.665404 0.600065 0.103969
0.726247 0.596907 0.094365
0.783400 0.594177 0.089357
0.837613 0.592112 0.089710
0.884882 0.591570 0.100796
0.922654 0.593789 0.125560
0.951861 0.598828 0.164879
0.973290 0.606451 0.218713
0.988721 0.616747 0.279672
0.999195 0.630938 0.343534
1.000000 0.649335 0.407226
1.000000 0.671336 0.470608
1.000000 0.697922 0.532875
1.000000 0.728190 0.593264
1.000000 0.761572 0.651802
1.000000 0.797622 0.708749
1.000000 0.834340 0.763969
0.000000 0.683583 0.200236
0.000000 0.683402 0.199784
0.000000 0.683222 0.199333
0.000000 0.683041 0.198881
0.000000 0.682861 0.198428
0.000000 0.682680 0.197969
0.000000 0.682455 0.197385
0.000000 0.682138 0.196566
0.052787 0.681716 0.195480
0.121056 0.681158 0.194039
0.184828 0.680400 0.192081
0.258843 0.679106 0.188543
0.347124 0.676901 0.182252
0.438399 0.673847 0.173197
0.520008 0.670507 0.163089
0.593654 0.667057 0.152632
0.660494 0.663649 0.143084
0.723615 0.660278 0.134926
0.782254 0.657225 0.130543
0.837364 0.654751 0.130295
0.885559 0.653612 0.138513
0.923848 0.654406 0.158682
0.953406 0.657218 0.192789
0.974955 0.662177 0.240486
0.990417 0.669403 0.296301
1.000000 0.679491 0.356118
1.000000 0.693678 0.416972
1.000000 0.710827 0.478268
1.000000 0.732361 0.538753
1.000000 0.757026 0.597725
1.000000 0.785923 0.655260
1.000000 0.816834 0.711369
1.000000 0.847847 0.765761
0.000000 0.744871 0.228913
0.000000 0.744699 0.228508
0.000000 0.744527 0.228102
0.000000 0.744355 0.227696
0.000000 0.744183 0.227290
0.000000 0.744010 0.226884
0.000000 0.743795 0.226377
0.000000 0.743493 0.225665
0.000000 0.743091 0.224711
0.050340 0.742559 0.223426
0.136829 0.741853 0.221723
0.214616 0.740853 0.219282
0.304302 0.739114 0.214724
0.407652 0.736229 0.206819
0.501029 0.732848 0.197444
0.581096 0.729421 0.188462
0.653270 0.725964 0.179914
0.718959 0.722591 0.173555
0.779865 0.719443 0.168912
0.836323 0.716675 0.168228
0.885827 0.714748 0.174646
0.924866 0.714310 0.191586
0.954958 0.715450 0.221306
0.976719 0.718334 0.263658
0.992257 0.723059 0.314612
1.000000 0.729997 0.370398
1.000000 0.740394 0.428361
1.000000 0.753565 0.487306
1.000000 0.769944 0.545709
1.000000 0.790272 0.603192
1.000000 0.813357 0.659405
1.000000 0.838973 0.714551
1.000000 0.863763 0.767962
0.000000 0.805213 0.258260
0.000000 0.805050 0.257897
0.000000 0.804886 0.257537
0.000000 0.804722 0.257181
0.000000 0.804558 0.256825
0.000000 0.804394 0.256469
0.000000 0.804189 0.256024
0.000000 0.803902 0.255400
0.000000 0.803520 0.254565
0.000000 0.803014 0.253446
0.039428 0.802343 0.251962
0.150987 0.801452 0.250010
0.245237 0.800158 0.247258
0.356474 0.797762 0.241562
0.469408 0.794289 0.232812
0.562098 0.790671 0.224131
0.641272 0.787056 0.216480
0.711267 0.783547 0.209863
0.775525 0.780131 0.205184
0.834076 0.776988 0.204113
0.885419 0.774451 0.209043
0.925556 0.773111 0.223642
0.956352 0.773006 0.250098
0.978514 0.774296 0.288053
0.994197 0.777056 0.334522
1.000000 0.781611 0.386559
1.000000 0.788811 0.441654
1.000000 0.798458 0.497736
1.000000 0.810688 0.553906
1.000000 0.825810 0.609550
1.000000 0.843639 0.664315
1.000000 0.862173 0.718166
1.000000 0.881598 0.770579
0.000000 0.863637 0.289072
0.000000 0.863480 0.288768
0.000000 0.863322 0.288464
0.000000 0.863164 0.288160
0.000000 0.863006 0.287856
0.000000 0.862848 0.287552
0.000000 0.862651 0.287171
0.000000 0.862374 0.286637
0.000000 0.862006 0.285919
0.000000 0.861519 0.284965
0.000000 0.860873 0.283702
0.015242 0.860009 0.282158
0.162281 0.858860 0.280143
0.278063 0.857168 0.276979
0.412793 0.853979 0.269451
0.529880 0.850045 0.260374
0.621636 0.846211 0.252361
0.699642 0.842462 0.245622
0.768075 0.838855 0.241099
0.829921 0.835402 0.239948
0.883913 0.832399 0.243767
0.925657 0.830402 0.256184
0.957368 0.829389 0.279771
0.980239 0.829469 0.313960
0.996149 0.830716 0.356626
1.000000 0.833345 0.405153
1.000000 0.837679 0.456532
1.000000 0.843951 0.509503
1.000000 0.852335 0.563203
1.000000 0.862350 0.616768
1.000000 0.873772 0.669772
1.000000 0.886956 0.722357
1.000000 0.900324 0.773567
0.000000 0.918845 0.321280
0.000000 0.918693 0.321015
0.000000 0.918541 0.320749
0.000000 0.918388 0.320483
0.000000 0.918236 0.320224
0.000000 0.918083 0.319969
0.000000 0.917891 0.319650
0.000000 0.917623 0.319194
0.000000 0.917267 0.318598
0.000000 0.916795 0.317806
0.000000 0.916169 0.316771
0.000000 0.915340 0.315343
0.000000 0.914244 0.313341
0.169903 0.912787 0.310695
0.314163 0.910572 0.306465
0.472216 0.906449 0.297546
0.588889 0.902178 0.288842
0.679707 0.898117 0.281691
0.755993 0.894198 0.277137
0.822668 0.890453 0.275230
0.880544 0.886997 0.278313
0.924684 0.884335 0.290819
0.957717 0.882535 0.312298
0.981607 0.881593 0.342832
0.997876 0.881336 0.381193
1.000000 0.881917 0.425118
1.000000 0.883586 0.472497
1.000000 0.886560 0.522173
1.000000 0.890992 0.573164
1.000000 0.896829 0.624562
1.000000 0.903157 0.675804
1.000000 0.911204 0.726980
1.000000 0.919686 0.776976
0.000000 0.966536 0.353759
0.000000 0.966387 0.353530
0.000000 0.966238 0.353300
0.000000 0.966089 0.353066
0.000000 0.965941 0.352832
0.000000 0.965792 0.352598
0.000000 0.965606 0.352293
0.000000 0.965346 0.351860
0.000000 0.965001 0.351283
0.000000 0.964543 0.350523
0.000000 0.963937 0.349521
0.000000 0.963132 0.348191
0.000000 0.962062 0.346445
0.000000 0.960642 0.344149
0.170701 0.958749 0.341192
0.354466 0.955756 0.336011
0.530409 0.950708 0.325796
0.646799 0.946043 0.317635
0.736160 0.941628 0.312806
0.810078 0.937437 0.310313
0.873350 0.933336 0.314161
0.921858 0.929937 0.324162
0.956871 0.927290 0.342888
0.982153 0.925212 0.370737
0.999016 0.923807 0.405429
1.000000 0.923016 0.445295
1.000000 0.922912 0.488942
1.000000 0.923631 0.535404
1.000000 0.925263 0.583690
1.000000 0.927877 0.632859
1.000000 0.930483 0.682481
1.000000 0.934224 0.732058
1.000000 0.939108 0.780828
0.000000 1.000000 0.386681
0.000000 1.000000 0.386459
0.000000 1.000000 0.386237
0.000000 1.000000 0.386028
0.000000 1.000000 0.385823
0.000000 1.000000 0.385618
0.000000 1.000000 0.385362
0.000000 1.000000 0.385000
0.000000 1.000000 0.384520
0.000000 1.000000 0.383892
0.000000 1.000000 0.383054
0.000000 1.000000 0.381963
0.000000 1.000000 0.380556
0.000000 0.999167 0.378725
0.000000 0.997301 0.376202
0.161352 0.994826 0.372726
0.399874 0.990744 0.365824
0.586376 0.984792 0.355527
0.702335 0.979576 0.350018
0.789757 0.974813 0.347506
0.860988 0.970268 0.350121
0.916047 0.966277 0.358651
0.954192 0.963066 0.375853
0.981324 0.960470 0.399460
0.999402 0.958407 0.429707
1.000000 0.956759 0.465738
1.000000 0.955524 0.505909
1.000000 0.954770 0.549244
1.000000 0.954524 0.594839
1.000000 0.954723 0.641905
1.000000 0.954721 0.689762
1.000000 0.955346 0.737639
1.000000 0.956895 0.785044
0.000000 1.000000 0.423540
0.000000 1.000000 0.423389
0.000000 1.000000 0.423237
0.000000 1.000000 0.423085
0.000000 1.000000 0.422932
0.000000 1.000000 0.422779
0.000000 1.000000 0.422588
0.000000 1.000000 0.422318
0.000000 1.000000 0.421959
0.000000 1.000000 0.421476
0.000000 1.000000 0.420824
0.000000 1.000000 0.419954
0.000000 1.000000 0.418776
0.000000 1.000000 0.417181
0.000000 1.000000 0.415032
0.000000 1.000000 0.412044
0.137469 1.000000 0.407976
0.449648 1.000000 0.400265
0.640227 1.000000 0.391817
0.755331 1.000000 0.387860
0.840561 0.999511 0.388305
0.905060 0.994893 0.395609
0.949209 0.991224 0.408759
0.978844 0.988197 0.429726
0.998773 0.985640 0.456642
1.000000 0.983491 0.488476
1.000000 0.981596 0.524648
1.000000 0.979933 0.564582
1.000000 0.978485 0.607399
1.000000 0.976952 0.652027
1.000000 0.975209 0.697690
1.000000 0.973707 0.743771
1.000000 0.972661 0.789703
0.000000 1.000000 0.466993
0.000000 1.000000 0.466851
0.000000 1.000000 0.466709
0.000000 1.000000 0.466566
0.000000 1.000000 0.466424
0.000000 1.000000 0.466281
0.000000 1.000000 0.466102
0.000000 1.000000 0.465851
0.000000 1.000000 0.465516
0.000000 1.000000 0.465071
0.000000 1.000000 0.464473
0.000000 1.000000 0.463675
0.000000 1.000000 0.462610
0.000000 1.000000 0.461164
0.000000 1.000000 0.459211
0.000000 1.000000 0.456600
0.000000 1.000000 0.453546
0.086254 1.000000 0.449695
0.499879 1.000000 0.440596
0.692992 1.000000 0.432599
0.805923 1.000000 0.430224
0.887163 1.000000 0.434610
0.940184 1.000000 0.444585
0.974355 1.000000 0.461906
0.996840 1.000000 0.483952
1.000000 1.000000 0.512368
1.000000 1.000000 0.545154
1.000000 0.999388 0.581665
1.000000 0.997073 0.621294
1.000000 0.994455 0.663115
1.000000 0.991647 0.706434
1.000000 0.988782 0.750573
1.000000 0.986007 0.794917
0.000000 1.000000 0.515783
0.000000 1.000000 0.515646
0.000000 1.000000 0.515509
0.000000 1.000000 0.515372
0.000000 1.000000 0.515235
0.000000 1.000000 0.515098
0.000000 1.000000 0.514926
0.000000 1.000000 0.514683
0.000000 1.000000 0.514360
0.000000 1.000000 0.513932
0.000000 1.000000 0.513362
0.000000 1.000000 0.512618
0.000000 1.000000 0.511698
0.000000 1.000000 0.510466
0.000000 1.000000 0.508935
0.000000 1.000000 0.506963
0.000000 1.000000 0.504259
0.000000 1.000000 0.500521
0.000000 1.000000 0.495303
0.549577 1.000000 0.483922
0.744045 1.000000 0.476451
0.854254 1.000000 0.476804
0.924719 1.000000 0.483062
0.967125 1.000000 0.495620
0.992792 1.000000 0.514688
1.000000 1.000000 0.538644
1.000000 1.000000 0.566915
1.000000 1.000000 0.600004
1.000000 1.000000 0.636485
1.000000 1.000000 0.675431
1.000000 1.000000 0.716232
1.000000 1.000000 0.758245
1.000000 0.996542 0.800831
0.000000 1.000000 0.569496
0.000000 1.000000 0.569380
0.000000 1.000000 0.569265
0.000000 1.000000 0.569149
0.000000 1.000000 0.569033
0.000000 1.000000 0.568918
0.000000 1.000000 0.568772
0.000000 1.000000 0.568567
0.000000 1.000000 0.568295
0.000000 1.000000 0.567934
0.000000 1.000000 0.567454
0.000000 1.000000 0.566816
0.000000 1.000000 0.565964
0.000000 1.000000 0.564824
0.000000 1.000000 0.563295
0.000000 1.000000 0.561239
0.000000 1.000000 0.558454
0.000000 1.000000 0.554672
0.000000 1.000000 0.549489
0.000000 1.000000 0.542331
0.599152 1.000000 0.528526
0.793098 1.000000 0.522628
0.897046 1.000000 0.524083
0.954010 1.000000 0.532139
0.986475 1.000000 0.547415
1.000000 1.000000 0.566901
1.000000 1.000000 0.592189
1.000000 1.000000 0.621104
