s709/sP3Cubes/SL3SG3CtosP3D65.cube
# sP3D65 LUT
# S-Log3/S-Gamut3.Cine to P3(D65)
LUT_3D_SIZE 9
0.000000 0.000000 0.000000
0.055366 0.000000 0.000000
0.173393 0.000000 0.000000
0.387662 0.000000 0.000000
0.620866 0.000000 0.000000
0.829919 0.000000 0.000000
0.944581 0.000000 0.000000
0.976495 0.000000 0.000000
0.997256 0.000000 0.000000
0.000000 0.076008 0.000000
0.067729 0.069896 0.000000
0.180341 0.058024 0.000000
0.390820 0.011457 0.000000
0.622691 0.000000 0.000000
0.831191 0.000000 0.000000
0.945659 0.000000 0.000000
0.977528 0.000000 0.000000
0.998261 0.000000 0.000000
0.013267 0.205369 0.007667
0.091093 0.202309 0.003396
0.193173 0.196313 0.000000
0.396850 0.170969 0.000000
0.626204 0.104231 0.000000
0.833645 0.000000 0.000000
0.947740 0.000000 0.000000
0.979522 0.000000 0.000000
1.000000 0.000000 0.000000
0.104826 0.439272 0.076132
0.160635 0.437907 0.071876
0.237352 0.435241 0.063613
0.419582 0.424608 0.031179
0.639763 0.401556 0.000000
0.843187 0.366754 0.000000
0.955848 0.339778 0.000000
0.987295 0.330982 0.000000
1.000000 0.324915 0.000000
0.221757 0.695591 0.179728
0.255211 0.694803 0.177357
0.309839 0.693272 0.172653
0.462799 0.687228 0.153073
0.666847 0.674490 0.104033
0.862576 0.656254 0.012706
0.972412 0.642978 0.000000
1.000000 0.638819 0.000000
1.000000 0.635997 0.000000
0.323125 0.925817 0.269219
0.346730 0.925267 0.267599
0.388055 0.924203 0.264435
0.516183 0.920013 0.251628
0.702466 0.911252 0.222809
0.888700 0.898879 0.175574
0.994900 0.889998 0.133906
1.000000 0.887239 0.118863
1.000000 0.885373 0.107877
0.378280 1.000000 0.317840
0.398360 1.000000 0.316477
0.434299 1.000000 0.313821
0.550385 1.000000 0.303158
0.726410 1.000000 0.279719
0.906636 1.000000 0.243318
1.000000 1.000000 0.213930
1.000000 1.000000 0.204082
1.000000 1.000000 0.197189
0.393622 1.000000 0.331357
0.412868 1.000000 0.330052
0.447497 1.000000 0.327515
0.560450 1.000000 0.317338
0.733612 1.000000 0.295077
0.912085 1.000000 0.260848
1.000000 1.000000 0.233615
1.000000 1.000000 0.224593
1.000000 1.000000 0.218307
0.403505 1.000000 0.340066
0.422247 1.000000 0.338796
0.456068 1.000000 0.336330
0.567055 1.000000 0.326446
0.738372 1.000000 0.304889
0.915702 1.000000 0.271927
1.000000 1.000000 0.245918
1.000000 1.000000 0.237353
1.000000 1.000000 0.231398
0.000000 0.000000 0.051988
0.046108 0.000000 0.047717
0.168046 0.000000 0.039448
0.385274 0.000000 0.007014
0.619496 0.000000 0.000000
0.828965 0.000000 0.000000
0.943773 0.000000 0.000000
0.975721 0.000000 0.000000
0.996503 0.000000 0.000000
0.000000 0.064553 0.061007
0.058471 0.058421 0.056736
0.175186 0.046549 0.048467
0.388455 0.000000 0.016034
0.621326 0.000000 0.000000
0.830239 0.000000 0.000000
0.944852 0.000000 0.000000
0.976755 0.000000 0.000000
0.997508 0.000000 0.000000
0.004009 0.199638 0.078435
0.082357 0.196518 0.074179
0.188301 0.190366 0.065924
0.394532 0.164206 0.033490
0.624848 0.094173 0.000000
0.832697 0.000000 0.000000
0.946935 0.000000 0.000000
0.978751 0.000000 0.000000
0.999451 0.000000 0.000000
0.096881 0.436707 0.135400
0.154874 0.435330 0.132414
0.233334 0.432647 0.126366
0.417402 0.421942 0.100414
0.638440 0.398711 0.034771
0.842252 0.363609 0.000000
0.955053 0.336360 0.000000
0.986532 0.327464 0.000000
1.000000 0.321321 0.000000
0.217491 0.694114 0.215763
0.251477 0.693323 0.213754
0.306793 0.691788 0.209799
0.460851 0.685728 0.193582
0.665592 0.672955 0.155337
0.861668 0.654666 0.083455
0.971633 0.641350 0.017404
1.000000 0.637177 0.000000
1.000000 0.634347 0.000000
0.320215 0.924789 0.294765
0.344034 0.924239 0.293288
0.385672 0.923173 0.290410
0.514472 0.918977 0.278815
0.701289 0.910203 0.253079
0.887826 0.897811 0.212243
0.994144 0.888917 0.178182
1.000000 0.886152 0.166482
1.000000 0.884285 0.158177
0.375833 1.000000 0.339593
0.396045 1.000000 0.338324
0.432203 1.000000 0.335851
0.548798 1.000000 0.325954
0.725282 1.000000 0.304358
0.905784 1.000000 0.271336
1.000000 1.000000 0.245261
1.000000 1.000000 0.236664
1.000000 1.000000 0.230693
0.391281 1.000000 0.352217
0.410647 1.000000 0.350995
0.445471 1.000000 0.348622
0.558899 1.000000 0.339125
0.732497 1.000000 0.318483
0.911240 1.000000 0.287150
1.000000 1.000000 0.262666
1.000000 1.000000 0.254655
1.000000 1.000000 0.249107
0.401229 1.000000 0.360382
0.420081 1.000000 0.359190
0.454086 1.000000 0.356877
0.565524 1.000000 0.347624
0.737266 1.000000 0.327559
0.914861 1.000000 0.297232
1.000000 1.000000 0.273674
1.000000 1.000000 0.265997
1.000000 1.000000 0.260689
0.000000 0.000000 0.162798
0.028175 0.000000 0.160224
0.157186 0.000000 0.155068
0.380612 0.000000 0.133443
0.616829 0.000000 0.076922
0.827114 0.000000 0.000000
0.942205 0.000000 0.000000
0.974220 0.000000 0.000000
0.995042 0.000000 0.000000
0.000000 0.042326 0.168200
0.040538 0.036193 0.165659
0.164715 0.024321 0.160676
0.383837 0.000000 0.139749
0.618669 0.000000 0.085802
0.828391 0.000000 0.000000
0.943287 0.000000 0.000000
0.975255 0.000000 0.000000
0.996049 0.000000 0.000000
0.000000 0.188107 0.178177
0.064467 0.184826 0.175806
0.178530 0.178289 0.171040
0.389987 0.150433 0.151311
0.622210 0.072736 0.101648
0.830856 0.000000 0.009912
0.945375 0.000000 0.000000
0.977256 0.000000 0.000000
0.997996 0.000000 0.000000
0.079919 0.431691 0.213362
0.143233 0.430293 0.211332
0.225403 0.427575 0.207325
0.413143 0.416717 0.190944
0.635871 0.393139 0.152118
0.840438 0.357433 0.078368
0.953509 0.329621 0.012299
0.985052 0.320527 0.000000
1.000000 0.314243 0.000000
0.208966 0.691242 0.272875
0.244117 0.690446 0.271287
0.300806 0.688904 0.268152
0.457053 0.682812 0.255543
0.663152 0.669969 0.227200
0.859906 0.651578 0.180974
0.970124 0.638182 0.140707
1.000000 0.633983 0.126188
1.000000 0.631136 0.115695
0.314495 0.922793 0.338599
0.338742 0.922242 0.337329
0.381014 0.921173 0.334844
0.511134 0.916966 0.324918
0.699002 0.908166 0.303240
0.886130 0.895738 0.270070
0.992679 0.886817 0.243879
1.000000 0.884045 0.235213
1.000000 0.882170 0.229204
0.371034 1.000000 0.377920
0.391525 1.000000 0.376794
0.428112 1.000000 0.374594
0.545710 1.000000 0.365838
0.723090 1.000000 0.346913
0.904131 1.000000 0.318556
1.000000 1.000000 0.296774
1.000000 1.000000 0.289706
1.000000 1.000000 0.284848
0.386695 1.000000 0.389189
0.406308 1.000000 0.388098
0.441520 1.000000 0.385971
0.555877 1.000000 0.377505
0.730331 1.000000 0.359257
0.909600 1.000000 0.332043
1.000000 1.000000 0.311256
1.000000 1.000000 0.304544
1.000000 1.000000 0.299936
0.396771 1.000000 0.396518
0.415855 1.000000 0.395449
0.450223 1.000000 0.393367
0.562545 1.000000 0.385081
0.735119 1.000000 0.367250
0.913229 1.000000 0.340733
1.000000 1.000000 0.320547
1.000000 1.000000 0.314047
1.000000 1.000000 0.309587
0.000000 0.000000 0.368350
0.000000 0.000000 0.367185
0.106676 0.000000 0.364928
0.361590 0.000000 0.355904
0.606190 0.000000 0.336374
0.819769 0.000000 0.306970
0.935998 0.000000 0.284251
0.968277 0.000000 0.276870
0.989261 0.000000 0.271776
0.000000 0.000000 0.370787
0.000000 0.000000 0.369636
0.116670 0.000000 0.367390
0.365000 0.000000 0.358438
0.608068 0.000000 0.339063
0.821060 0.000000 0.309938
0.937088 0.000000 0.287465
0.969320 0.000000 0.280161
0.990276 0.000000 0.275129
0.000000 0.134918 0.375461
0.000000 0.130609 0.374323
0.134459 0.121800 0.372113
0.371497 0.081647 0.363285
0.611685 0.000000 0.344211
0.823553 0.000000 0.315594
0.939194 0.000000 0.293570
0.971336 0.000000 0.286437
0.992237 0.000000 0.281522
0.009322 0.411243 0.393203
0.087426 0.409766 0.392123
0.191135 0.406892 0.390022
0.395862 0.395392 0.381655
0.625627 0.370286 0.363638
0.833241 0.331868 0.336812
0.947397 0.301534 0.316355
0.979193 0.291517 0.309764
0.999882 0.284550 0.305238
0.171755 0.679781 0.427446
0.212705 0.678969 0.426462
0.275899 0.677394 0.424553
0.441723 0.671173 0.416962
0.653431 0.658048 0.400717
0.852919 0.639233 0.376800
0.964148 0.625512 0.358820
0.995256 0.621209 0.353081
1.000000 0.618287 0.349154
0.290809 0.914881 0.470504
0.316979 0.914323 0.469623
0.362015 0.913242 0.467916
0.497735 0.908987 0.461139
0.689904 0.900087 0.446722
0.879409 0.887513 0.425723
0.986880 0.878484 0.410135
1.000000 0.875679 0.405198
1.000000 0.873782 0.401831
0.351439 1.000000 0.498446
0.373121 1.000000 0.497623
0.411542 1.000000 0.496028
0.533337 1.000000 0.489703
0.714372 1.000000 0.476288
0.897582 1.000000 0.456854
1.000000 1.000000 0.442518
1.000000 1.000000 0.437994
1.000000 1.000000 0.434913
0.368020 1.000000 0.506715
0.388684 1.000000 0.505907
0.425546 1.000000 0.504343
0.543780 1.000000 0.498143
0.721723 1.000000 0.485002
0.903101 1.000000 0.465990
1.000000 1.000000 0.451989
1.000000 1.000000 0.447574
1.000000 1.000000 0.444570
0.378649 1.000000 0.512152
0.398707 1.000000 0.511353
0.434615 1.000000 0.509808
0.550624 1.000000 0.503687
0.726581 1.000000 0.490721
0.906764 1.000000 0.471978
1.000000 1.000000 0.458190
1.000000 1.000000 0.453844
1.000000 1.000000 0.450887
0.000000 0.000000 0.598881
0.000000 0.000000 0.598221
0.000000 0.000000 0.596940
0.316462 0.000000 0.591883
0.582514 0.000000 0.581234
0.803687 0.000000 0.566015
0.922470 0.000000 0.554952
0.955337 0.000000 0.551488
0.976681 0.000000 0.549140
0.000000 0.000000 0.600273
0.000000 0.000000 0.599614
0.000000 0.000000 0.598337
0.320394 0.000000 0.593295
0.584485 0.000000 0.582678
0.805012 0.000000 0.567504
0.923580 0.000000 0.556477
0.956399 0.000000 0.553025
0.977713 0.000000 0.550685
0.000000 0.000000 0.602955
0.000000 0.000000 0.602301
0.000000 0.000000 0.601030
0.327860 0.000000 0.596015
0.588277 0.000000 0.585458
0.807567 0.000000 0.570374
0.925726 0.000000 0.559415
0.958450 0.000000 0.555984
0.979706 0.000000 0.553659
0.000000 0.362873 0.613341
0.000000 0.361181 0.612700
0.087352 0.357868 0.611455
0.355523 0.344545 0.606546
0.602879 0.315005 0.596214
0.817497 0.268210 0.581467
0.934082 0.229376 0.570765
0.966443 0.216045 0.567417
0.987477 0.206618 0.565148
0.052451 0.654297 0.634252
0.123719 0.653446 0.633638
0.212668 0.651795 0.632443
0.406513 0.645267 0.627733
0.631907 0.631477 0.617832
0.837645 0.611651 0.603727
0.951135 0.597151 0.593509
0.982776 0.592595 0.590316
1.000000 0.589503 0.588154
0.231641 0.897563 0.662056
0.263844 0.896991 0.661472
0.316954 0.895883 0.660339
0.467392 0.891521 0.655874
0.669821 0.882394 0.646500
0.864731 0.869491 0.633174
0.974259 0.860220 0.623543
1.000000 0.857337 0.620537
1.000000 0.855388 0.618502
0.304695 1.000000 0.680921
0.329713 1.000000 0.680358
0.373100 1.000000 0.679263
0.505509 1.000000 0.674953
0.695167 1.000000 0.665910
0.883291 1.000000 0.653069
0.990228 0.997508 0.643803
1.000000 0.995127 0.640912
1.000000 0.993518 0.638957
0.323875 1.000000 0.686620
0.347420 1.000000 0.686063
0.388664 1.000000 0.684980
0.516623 1.000000 0.680714
0.702768 1.000000 0.671767
0.888925 1.000000 0.659067
0.995094 1.000000 0.649906
1.000000 1.000000 0.647049
1.000000 1.000000 0.645116
0.336030 1.000000 0.690395
0.358723 1.000000 0.689840
0.398687 1.000000 0.688765
0.523890 1.000000 0.684528
0.707789 1.000000 0.675643
0.892662 1.000000 0.663037
0.998327 1.000000 0.653942
1.000000 1.000000 0.651108
1.000000 1.000000 0.649191
0.000000 0.000000 0.807263
0.000000 0.000000 0.806807
0.000000 0.000000 0.805924
0.237469 0.000000 0.802449
0.546820 0.000000 0.795185
0.780175 0.000000 0.784937
0.902849 0.000000 0.777590
0.936602 0.000000 0.775308
0.958485 0.000000 0.773766
0.000000 0.000000 0.808224
0.000000 0.000000 0.807769
0.000000 0.000000 0.806887
0.242703 0.000000 0.803417
0.548946 0.000000 0.796165
0.781550 0.000000 0.785933
0.903991 0.000000 0.778598
0.937692 0.000000 0.776319
0.959542 0.000000 0.774780
0.000000 0.000000 0.810080
0.000000 0.000000 0.809627
0.000000 0.000000 0.808747
0.252533 0.000000 0.805287
0.553034 0.000000 0.798056
0.784203 0.000000 0.787856
0.906197 0.000000 0.780544
0.939796 0.000000 0.778272
0.961585 0.000000 0.776737
0.000000 0.278858 0.817311
0.000000 0.276621 0.816862
0.000000 0.272210 0.815993
0.287909 0.254191 0.812572
0.568733 0.212136 0.805424
0.794503 0.135591 0.795343
0.914783 0.052319 0.788119
0.947992 0.023072 0.785875
0.969545 0.003368 0.784359
0.000000 0.615940 0.832074
0.000000 0.615024 0.831637
0.067426 0.613245 0.830786
0.349770 0.606206 0.827443
0.599772 0.591294 0.820459
0.815373 0.569754 0.810615
0.932292 0.553916 0.803564
0.964729 0.548924 0.801375
0.985812 0.545531 0.799896
0.106374 0.872260 0.852108
0.161727 0.871667 0.851682
0.238121 0.870518 0.850858
0.420007 0.865991 0.847615
0.640020 0.856516 0.840844
0.843370 0.843103 0.831306
0.956004 0.833454 0.824480
0.987444 0.830453 0.822361
1.000000 0.828422 0.820929
0.221483 1.000000 0.865950
0.254974 1.000000 0.865533
0.309641 1.000000 0.864726
0.462674 1.000000 0.861550
0.666766 0.994449 0.854920
0.862517 0.983413 0.845583
0.972361 0.975514 0.838904
1.000000 0.973063 0.836832
1.000000 0.971407 0.835433
0.247295 1.000000 0.870170
0.277712 1.000000 0.869756
0.328513 1.000000 0.868953
0.474967 1.000000 0.865796
0.674766 1.000000 0.859208
0.868324 1.000000 0.849933
0.977343 1.000000 0.843298
1.000000 1.000000 0.841239
1.000000 1.000000 0.839849
0.263151 1.000000 0.872974
0.291909 1.000000 0.872561
0.340493 1.000000 0.871762
0.482977 1.000000 0.868618
0.680044 1.000000 0.862058
0.872175 1.000000 0.852822
0.980652 1.000000 0.846215
1.000000 1.000000 0.844166
1.000000 1.000000 0.842782
0.000000 0.000000 0.927387
0.000000 0.000000 0.927006
0.000000 0.000000 0.926266
0.154778 0.000000 0.923359
0.518090 0.000000 0.917297
0.761929 0.000000 0.908776
0.887761 0.000000 0.902689
0.922222 0.000000 0.900803
0.944535 0.000000 0.899529
0.000000 0.000000 0.928192
0.000000 0.000000 0.927811
0.000000 0.000000 0.927073
0.162415 0.000000 0.924168
0.520358 0.000000 0.918113
0.763346 0.000000 0.909602
0.888928 0.000000 0.903522
0.923334 0.000000 0.901639
0.945613 0.000000 0.900367
0.000000 0.000000 0.929749
0.000000 0.000000 0.929368
0.000000 0.000000 0.928631
0.176410 0.000000 0.925733
0.524712 0.000000 0.919692
0.766079 0.000000 0.911199
0.891181 0.000000 0.905133
0.925480 0.000000 0.903253
0.947693 0.000000 0.901984
0.000000 0.192657 0.935820
0.000000 0.189438 0.935443
0.000000 0.183075 0.934712
0.223665 0.155869 0.931839
0.541395 0.081325 0.925848
0.776682 0.000000 0.917428
0.899951 0.000000 0.911417
0.933838 0.000000 0.909554
0.955803 0.000000 0.908296
0.000000 0.585127 0.948270
0.000000 0.584151 0.947900
0.000000 0.582258 0.947181
0.299508 0.574754 0.944357
0.574214 0.558820 0.938470
0.798141 0.535699 0.930197
0.917824 0.518608 0.924291
0.950897 0.513205 0.922462
0.972367 0.509528 0.921227
0.000000 0.852642 0.965275
0.025897 0.852031 0.964913
0.155749 0.850848 0.964211
0.380017 0.846187 0.961451
0.616489 0.836422 0.955699
0.826878 0.822590 0.947621
0.942006 0.812632 0.941856
0.974029 0.809531 0.940071
0.994856 0.807433 0.938865
0.130566 0.991256 0.977097
0.179766 0.990753 0.976741
0.251063 0.989779 0.976049
0.427233 0.985946 0.973333
0.644434 0.977941 0.967672
0.846501 0.966660 0.959724
0.958671 0.958581 0.954054
0.990002 0.956074 0.952298
1.000000 0.954380 0.951112
0.169018 1.000000 0.980712
0.210429 1.000000 0.980357
0.274137 1.000000 0.979669
0.440674 1.000000 0.976966
0.652772 1.000000 0.971332
0.852447 1.000000 0.963423
0.963745 0.998256 0.957782
0.994870 0.995877 0.956034
1.000000 0.994271 0.954854
0.191038 1.000000 0.983116
0.228773 1.000000 0.982762
0.288509 1.000000 0.982077
0.449393 1.000000 0.979382
0.658268 1.000000 0.973767
0.856390 1.000000 0.965884
0.967115 1.000000 0.960261
0.998104 1.000000 0.958519
1.000000 1.000000 0.957344
0.000000 0.000000 0.962465
0.000000 0.000000 0.962101
0.000000 0.000000 0.961397
0.118126 0.000000 0.958626
0.508309 0.000000 0.952852
0.755863 0.000000 0.944743
0.882772 0.000000 0.938955
0.917473 0.000000 0.937162
0.939931 0.000000 0.935952
0.000000 0.000000 0.963232
0.000000 0.000000 0.962869
0.000000 0.000000 0.962165
0.127454 0.000000 0.959397
0.510628 0.000000 0.953629
0.757294 0.000000 0.945529
0.883948 0.000000 0.939748
0.918592 0.000000 0.937957
0.941015 0.000000 0.936747
0.000000 0.000000 0.964716
0.000000 0.000000 0.964353
0.000000 0.000000 0.963651
0.144201 0.000000 0.960888
0.515081 0.000000 0.955132
0.760054 0.000000 0.947047
0.886217 0.000000 0.941279
0.920752 0.000000 0.939492
0.943110 0.000000 0.938286
0.000000 0.155465 0.970506
0.000000 0.151598 0.970147
0.000000 0.143807 0.969450
0.198462 0.109511 0.966709
0.532122 0.016152 0.960998
0.770762 0.000000 0.952978
0.895050 0.000000 0.947255
0.929166 0.000000 0.945483
0.951269 0.000000 0.944286
0.000000 0.574650 0.982392
0.000000 0.573653 0.982038
0.000000 0.571717 0.981352
0.281089 0.564045 0.978655
0.565583 0.547736 0.973034
0.792423 0.524025 0.965143
0.913045 0.506467 0.959514
0.946333 0.500909 0.957772
0.967933 0.497123 0.956595
0.000000 0.846122 0.998651
0.000000 0.845506 0.998304
0.119347 0.844311 0.997633
0.365922 0.839603 0.994992
0.608581 0.829740 0.989492
0.821412 0.815764 0.981772
0.937386 0.805697 0.976267
0.969606 0.802563 0.974563
0.990553 0.800443 0.973412
0.087190 0.985893 1.000000
0.148205 0.985387 1.000000
0.228744 0.984405 1.000000
0.414934 0.980545 1.000000
0.636948 0.972482 1.000000
0.841197 0.961118 0.993340
0.954155 0.952979 0.987919
0.985672 0.950452 0.986241
1.000000 0.948745 0.985108
0.135398 1.000000 1.000000
0.183576 1.000000 1.000000
0.253842 1.000000 1.000000
0.428812 1.000000 1.000000
0.645404 1.000000 1.000000
0.847192 1.000000 0.996879
0.959260 0.992942 0.991483
0.990567 0.990547 0.989812
1.000000 0.988929 0.988684
0.161325 1.000000 1.000000
0.204155 1.000000 1.000000
0.269310 1.000000 1.000000
0.437805 1.000000 1.000000
0.650978 1.000000 1.000000
0.851164 1.000000 0.999233
0.962650 1.000000 0.993854
0.993818 1.000000 0.992188
1.000000 1.000000 0.991064
0.000000 0.000000 0.981647
0.000000 0.000000 0.981293
0.000000 0.000000 0.980606
0.092961 0.000000 0.977906
0.502661 0.000000 0.972280
0.752395 0.000000 0.964381
0.879927 0.000000 0.958746
0.914766 0.000000 0.957001
0.937306 0.000000 0.955823
0.000000 0.000000 0.982395
0.000000 0.000000 0.982041
0.000000 0.000000 0.981355
0.103876 0.000000 0.978657
0.505011 0.000000 0.973037
0.753834 0.000000 0.965146
0.881107 0.000000 0.959517
0.915889 0.000000 0.957775
0.938395 0.000000 0.956598
0.000000 0.000000 0.983842
0.000000 0.000000 0.983488
0.000000 0.000000 0.982803
0.123065 0.000000 0.980111
0.509521 0.000000 0.974501
0.756611 0.000000 0.966626
0.883386 0.000000 0.961008
0.918057 0.000000 0.959268
0.940496 0.000000 0.958094
0.000000 0.130679 0.989488
0.000000 0.126130 0.989137
0.000000 0.117101 0.988457
0.182750 0.075633 0.985785
0.526774 0.000000 0.980217
0.767378 0.000000 0.972402
0.892254 0.000000 0.966828
0.926502 0.000000 0.965102
0.948685 0.000000 0.963936
0.000000 0.568605 1.000000
0.000000 0.567594 1.000000
0.000000 0.565633 1.000000
0.270059 0.557859 0.997436
0.560616 0.541326 0.991953
0.789156 0.517266 0.984259
0.910321 0.499426 0.978772
0.943732 0.493774 0.977073
0.965407 0.489923 0.975926
0.000000 0.842396 1.000000
0.000000 0.841776 1.000000
0.094393 0.840574 1.000000
0.357659 0.835840 1.000000
0.604038 0.825919 1.000000
0.818292 0.811859 1.000000
0.934752 0.801730 0.995107
0.967085 0.798576 0.993444
0.988101 0.796442 0.992322
0.057614 0.982833 1.000000
0.127549 0.982325 1.000000
0.215096 0.981340 1.000000
0.407768 0.977464 1.000000
0.632653 0.969369 1.000000
0.838170 0.957957 1.000000
0.951581 0.949782 1.000000
0.983203 0.947244 1.000000
1.000000 0.945531 1.000000
0.113046 1.000000 1.000000
0.166635 1.000000 1.000000
0.241569 1.000000 1.000000
0.421915 1.000000 1.000000
0.641179 1.000000 1.000000
0.844191 0.997663 1.000000
0.956704 0.989912 1.000000
0.988114 0.987507 1.000000
1.000000 0.985883 1.000000
0.142234 1.000000 1.000000
0.188866 1.000000 1.000000
0.257774 1.000000 1.000000
0.431070 1.000000 1.000000
0.646797 1.000000 1.000000
0.848182 1.000000 1.000000
0.960105 1.000000 1.000000
0.991377 1.000000 1.000000
1.000000 1.000000 1.000000
