s709/sP3Cubes/SL3SG3CtosP3DCI.cube
# sP3DCI LUT
# S-Log3/S-Gamut3.Cine to P3(DCI)
LUT_3D_SIZE 5
0.000000 0.000000 0.000000
0.182097 0.000000 0.000000
0.640990 0.000000 0.000000
0.973346 0.000000 0.000000
1.000000 0.000000 0.000000
0.000000 0.205427 0.007129
0.192365 0.196211 0.000000
0.643715 0.101913 0.000000
0.974955 0.000000 0.000000
1.000000 0.000000 0.000000
0.136841 0.695724 0.176895
0.260806 0.693365 0.168809
0.664904 0.674250 0.086962
0.987644 0.642152 0.000000
1.000000 0.635035 0.000000
0.260785 1.000000 0.313853
0.343259 1.000000 0.309268
0.697312 1.000000 0.269963
1.000000 1.000000 0.190978
1.000000 1.000000 0.169768
0.280530 1.000000 0.335887
0.358298 1.000000 0.331627
0.704001 1.000000 0.295450
1.000000 1.000000 0.225350
1.000000 1.000000 0.207388
0.000000 0.000000 0.164013
0.167541 0.000000 0.155360
0.637329 0.000000 0.065064
0.971189 0.000000 0.000000
1.000000 0.000000 0.000000
0.000000 0.188270 0.178979
0.178512 0.178283 0.170976
0.640072 0.070216 0.090450
0.972803 0.000000 0.000000
1.000000 0.000000 0.000000
0.117999 0.691400 0.271715
0.250577 0.689022 0.266380
0.661404 0.669752 0.219473
0.985528 0.637375 0.113554
1.000000 0.630192 0.079392
0.250555 1.000000 0.375149
0.335643 1.000000 0.371378
0.694014 1.000000 0.339772
1.000000 1.000000 0.281248
1.000000 1.000000 0.267010
0.271065 1.000000 0.393496
0.351034 1.000000 0.389921
0.700741 1.000000 0.360111
1.000000 1.000000 0.305766
1.000000 1.000000 0.292758
0.000000 0.000000 0.601692
0.000000 0.000000 0.599521
0.606347 0.000000 0.581930
0.953311 0.000000 0.552331
1.000000 0.000000 0.545756
0.000000 0.000000 0.605655
0.006267 0.000000 0.603502
0.609260 0.000000 0.586055
0.954963 0.000000 0.556721
1.000000 0.000000 0.550210
0.000000 0.654678 0.636136
0.143727 0.652134 0.634109
0.631871 0.631466 0.617714
0.967992 0.596513 0.590284
1.000000 0.588719 0.584222
0.143692 1.000000 0.681682
0.264686 1.000000 0.679821
0.666264 1.000000 0.664805
0.988469 0.997293 0.639840
1.000000 0.993233 0.634349
0.175918 1.000000 0.690939
0.284158 1.000000 0.689109
0.673337 1.000000 0.674349
0.992774 1.000000 0.649837
1.000000 1.000000 0.644450
0.000000 0.000000 0.931458
0.000000 0.000000 0.930205
0.548996 0.000000 0.920172
0.922015 0.000000 0.903800
0.979775 0.000000 0.900254
0.000000 0.000000 0.933755
0.000000 0.000000 0.932506
0.552281 0.000000 0.922505
0.923740 0.000000 0.906188
0.981371 0.000000 0.902653
0.000000 0.585976 0.951783
0.000000 0.583061 0.950564
0.577614 0.559243 0.940811
0.937331 0.518329 0.924909
0.993954 0.509081 0.921467
0.000000 0.991814 0.979866
0.049308 0.990313 0.978693
0.615730 0.978273 0.969304
0.958656 0.958577 0.954015
1.000000 0.954302 0.950708
0.000000 1.000000 0.985735
0.100266 1.000000 0.984570
0.623513 1.000000 0.975255
0.963135 1.000000 0.960088
1.000000 1.000000 0.956809
0.000000 0.000000 0.985928
0.000000 0.000000 0.984764
0.535449 0.000000 0.975450
0.914979 0.000000 0.960288
0.973274 0.000000 0.957009
0.000000 0.000000 0.988062
0.000000 0.000000 0.986901
0.538829 0.000000 0.977615
0.916721 0.000000 0.962497
0.974884 0.000000 0.959227
0.000000 0.569576 1.000000
0.000000 0.566560 1.000000
0.564886 0.541864 0.994624
0.930444 0.499244 0.979846
0.987574 0.489567 0.976652
0.000000 0.983446 1.000000
0.000000 0.981927 1.000000
0.603972 0.969753 1.000000
0.951968 0.949827 1.000000
1.000000 0.945501 1.000000
0.000000 1.000000 1.000000
0.023995 1.000000 1.000000
0.611935 1.000000 1.000000
0.956487 1.000000 1.000000
1.000000 1.000000 1.000000
