s709/sP3Cubes/SL3SG3CtosP3DCI.cube
# sP3DCI LUT
# S-Log3/S-Gamut3.Cine to P3(DCI)
LUT_3D_SIZE 9
0.000000 0.000000 0.000000
0.060661 0.000000 0.000000
0.182097 0.000000 0.000000
0.401661 0.000000 0.000000
0.640990 0.000000 0.000000
0.855615 0.000000 0.000000
0.973346 0.000000 0.000000
1.000000 0.000000 0.000000
1.000000 0.000000 0.000000
0.000000 0.076050 0.000000
0.067203 0.069831 0.000000
0.185643 0.057750 0.000000
0.403266 0.010363 0.000000
0.641920 0.000000 0.000000
0.856263 0.000000 0.000000
0.973894 0.000000 0.000000
1.000000 0.000000 0.000000
1.000000 0.000000 0.000000
0.000000 0.205427 0.007129
0.079828 0.202314 0.002329
0.192365 0.196211 0.000000
0.406361 0.170381 0.000000
0.643715 0.101913 0.000000
0.857514 0.000000 0.000000
0.974955 0.000000 0.000000
1.000000 0.000000 0.000000
1.000000 0.000000 0.000000
0.045854 0.439365 0.074117
0.122745 0.437975 0.069331
0.216863 0.435263 0.060037
0.418256 0.424441 0.023585
0.650693 0.400957 0.000000
0.862401 0.365451 0.000000
0.979102 0.337861 0.000000
1.000000 0.328855 0.000000
1.000000 0.322630 0.000000
0.136841 0.695724 0.176895
0.187507 0.694922 0.174176
0.260806 0.693365 0.168809
0.441801 0.687214 0.146149
0.664904 0.674250 0.086962
0.872440 0.655679 0.000000
0.987644 0.642152 0.000000
1.000000 0.637912 0.000000
1.000000 0.635035 0.000000
0.217438 0.925987 0.265651
0.253567 0.925428 0.263793
0.311840 0.924345 0.260191
0.472390 0.920082 0.245495
0.684101 0.911167 0.211967
0.886187 0.898572 0.154717
0.999388 0.889531 0.100213
1.000000 0.886720 0.078815
1.000000 0.884820 0.063421
0.260785 1.000000 0.313853
0.291622 1.000000 0.312298
0.343259 1.000000 0.309268
0.492749 1.000000 0.297069
0.697312 1.000000 0.269963
0.895768 1.000000 0.226896
1.000000 1.000000 0.190978
1.000000 1.000000 0.178556
1.000000 1.000000 0.169768
0.272792 1.000000 0.327254
0.302379 1.000000 0.325767
0.352361 1.000000 0.322871
0.498844 1.000000 0.311233
0.701332 1.000000 0.285525
0.898702 1.000000 0.245193
1.000000 1.000000 0.212209
1.000000 1.000000 0.200991
1.000000 1.000000 0.193117
0.280530 1.000000 0.335887
0.309351 1.000000 0.334441
0.358298 1.000000 0.331627
0.502863 1.000000 0.320327
0.704001 1.000000 0.295450
0.900654 1.000000 0.256702
1.000000 1.000000 0.225350
1.000000 1.000000 0.214779
1.000000 1.000000 0.207388
0.000000 0.000000 0.052698
0.051925 0.000000 0.047898
0.177247 0.000000 0.038605
0.399496 0.000000 0.002152
0.639748 0.000000 0.000000
0.854749 0.000000 0.000000
0.972612 0.000000 0.000000
1.000000 0.000000 0.000000
1.000000 0.000000 0.000000
0.000000 0.064660 0.061522
0.058466 0.058419 0.056722
0.180878 0.046339 0.047428
0.401117 0.000000 0.010976
0.640678 0.000000 0.000000
0.855398 0.000000 0.000000
0.973161 0.000000 0.000000
1.000000 0.000000 0.000000
1.000000 0.000000 0.000000
0.000000 0.199729 0.078571
0.071124 0.196557 0.073788
0.187743 0.190294 0.064507
0.404229 0.163632 0.028054
0.642476 0.091709 0.000000
0.856651 0.000000 0.000000
0.974223 0.000000 0.000000
1.000000 0.000000 0.000000
1.000000 0.000000 0.000000
0.037118 0.436815 0.134458
0.115971 0.435414 0.131102
0.212753 0.432684 0.124214
0.416190 0.421789 0.094251
0.649473 0.398128 0.019525
0.861544 0.362308 0.000000
0.978374 0.334436 0.000000
1.000000 0.325326 0.000000
1.000000 0.319035 0.000000
0.130717 0.694255 0.213680
0.182812 0.693451 0.211404
0.257360 0.691890 0.206901
0.439862 0.685724 0.188326
0.663715 0.672723 0.143459
0.871596 0.654098 0.053588
0.986924 0.640530 0.000000
1.000000 0.636276 0.000000
1.000000 0.633392 0.000000
0.213329 0.924964 0.291750
0.250037 0.924405 0.290065
0.308986 0.923321 0.286796
0.470598 0.919052 0.273545
0.682953 0.910123 0.243817
0.885360 0.897510 0.195278
0.998680 0.888454 0.152941
1.000000 0.885639 0.137755
1.000000 0.883737 0.126725
0.257339 1.000000 0.336085
0.288550 1.000000 0.334638
0.340691 1.000000 0.331827
0.491043 1.000000 0.320532
0.696192 1.000000 0.295676
0.894952 1.000000 0.256960
1.000000 1.000000 0.225642
1.000000 1.000000 0.215087
1.000000 1.000000 0.207706
0.269510 1.000000 0.348574
0.299430 1.000000 0.347184
0.349862 1.000000 0.344483
0.497160 1.000000 0.333648
0.700219 1.000000 0.309908
0.897888 1.000000 0.273273
1.000000 1.000000 0.244028
1.000000 1.000000 0.234275
1.000000 1.000000 0.227485
0.277343 1.000000 0.356653
0.306477 1.000000 0.355296
0.355843 1.000000 0.352663
0.501197 1.000000 0.342108
0.702893 1.000000 0.319042
0.899843 1.000000 0.283639
1.000000 1.000000 0.255588
1.000000 1.000000 0.246287
1.000000 1.000000 0.239827
0.000000 0.000000 0.164013
0.035003 0.000000 0.161121
0.167541 0.000000 0.155360
0.395274 0.000000 0.130956
0.637329 0.000000 0.065064
0.853069 0.000000 0.000000
0.971189 0.000000 0.000000
1.000000 0.000000 0.000000
1.000000 0.000000 0.000000
0.000000 0.042556 0.169253
0.041545 0.036315 0.166438
0.171319 0.024234 0.160838
0.396911 0.000000 0.137127
0.638265 0.000000 0.073875
0.853719 0.000000 0.000000
0.971739 0.000000 0.000000
1.000000 0.000000 0.000000
1.000000 0.000000 0.000000
0.000000 0.188270 0.178979
0.054204 0.184932 0.176314
0.178512 0.178283 0.170976
0.400061 0.149899 0.148636
0.640072 0.070216 0.090450
0.854975 0.000000 0.000000
0.972803 0.000000 0.000000
1.000000 0.000000 0.000000
1.000000 0.000000 0.000000
0.020196 0.431828 0.213343
0.102032 0.430406 0.211057
0.204555 0.427641 0.206553
0.412161 0.416592 0.187943
0.647099 0.392575 0.142984
0.859881 0.356138 0.052872
0.976963 0.327699 0.000000
1.000000 0.318380 0.000000
1.000000 0.311936 0.000000
0.117999 0.691400 0.271715
0.173330 0.690591 0.269904
0.250577 0.689022 0.266380
0.436079 0.682823 0.252045
0.661404 0.669752 0.219473
0.869957 0.651024 0.164550
0.985528 0.637375 0.113554
1.000000 0.633095 0.094058
1.000000 0.630192 0.079392
0.205167 0.922981 0.336388
0.243053 0.922420 0.334942
0.303378 0.921332 0.332135
0.467100 0.917051 0.320849
0.680723 0.908098 0.296024
0.883754 0.895447 0.257358
0.997305 0.886364 0.226090
1.000000 0.883541 0.215561
1.000000 0.881633 0.208193
0.250555 1.000000 0.375149
0.282526 1.000000 0.373870
0.335643 1.000000 0.371378
0.487716 1.000000 0.361425
0.694014 1.000000 0.339772
0.893368 1.000000 0.306910
1.000000 1.000000 0.281248
1.000000 1.000000 0.272827
1.000000 1.000000 0.267010
0.263036 1.000000 0.386265
0.293632 1.000000 0.385026
0.344965 1.000000 0.382615
0.493882 1.000000 0.372994
0.698057 1.000000 0.352120
0.896311 1.000000 0.320619
1.000000 1.000000 0.296201
1.000000 1.000000 0.288230
1.000000 1.000000 0.282736
0.271065 1.000000 0.393496
0.300823 1.000000 0.392283
0.351034 1.000000 0.389921
0.497950 1.000000 0.380504
0.700741 1.000000 0.360111
0.898270 1.000000 0.329438
1.000000 1.000000 0.305766
1.000000 1.000000 0.298061
1.000000 1.000000 0.292758
0.000000 0.000000 0.370288
0.000000 0.000000 0.368994
0.123356 0.000000 0.366461
0.378122 0.000000 0.356355
0.627695 0.000000 0.334346
0.846409 0.000000 0.300858
0.965560 0.000000 0.274597
0.998660 0.000000 0.265981
1.000000 0.000000 0.260005
0.000000 0.000000 0.372667
0.000000 0.000000 0.371373
0.128210 0.000000 0.368867
0.379847 0.000000 0.358828
0.628648 0.000000 0.337003
0.847066 0.000000 0.303814
0.966115 0.000000 0.277851
0.999190 0.000000 0.269328
1.000000 0.000000 0.263429
0.000000 0.135472 0.377211
0.000000 0.131108 0.375940
0.137221 0.122153 0.373463
0.383152 0.081305 0.363567
0.630489 0.000000 0.342067
0.848334 0.000000 0.309466
0.967186 0.000000 0.284034
1.000000 0.000000 0.275715
1.000000 0.000000 0.269955
0.000000 0.411506 0.394496
0.037222 0.410003 0.393282
0.168822 0.407080 0.390931
0.395829 0.395381 0.381535
0.637647 0.369816 0.361214
0.853289 0.330614 0.330645
0.971376 0.299577 0.307068
1.000000 0.289304 0.299404
1.000000 0.282174 0.294124
0.056702 0.680007 0.427913
0.130794 0.679181 0.426808
0.221874 0.677579 0.424663
0.420801 0.671250 0.416124
0.652205 0.657893 0.397771
0.863463 0.638735 0.370528
0.980005 0.624755 0.349856
1.000000 0.620369 0.343207
1.000000 0.617392 0.338649
0.169529 0.915114 0.470037
0.213377 0.914547 0.469047
0.280163 0.913447 0.467122
0.453023 0.909118 0.459487
0.671850 0.900063 0.443173
0.877391 0.887265 0.419258
0.991867 0.878073 0.401376
1.000000 0.875216 0.395677
1.000000 0.873284 0.391787
0.221849 1.000000 0.497423
0.257380 1.000000 0.496498
0.314940 1.000000 0.494696
0.474347 1.000000 0.487561
0.685355 1.000000 0.472371
0.887094 1.000000 0.450243
1.000000 1.000000 0.433808
1.000000 1.000000 0.428600
1.000000 1.000000 0.425049
0.235830 1.000000 0.505533
0.269549 1.000000 0.504625
0.324891 1.000000 0.502858
0.480714 1.000000 0.495862
0.689462 1.000000 0.480978
0.890063 1.000000 0.459333
1.000000 1.000000 0.443286
1.000000 1.000000 0.438206
1.000000 1.000000 0.434745
0.244735 1.000000 0.510867
0.277381 1.000000 0.509969
0.331361 1.000000 0.508224
0.484913 1.000000 0.501315
0.692187 1.000000 0.486628
0.892039 1.000000 0.465288
1.000000 1.000000 0.449488
1.000000 1.000000 0.444490
1.000000 1.000000 0.441085
0.000000 0.000000 0.601692
0.000000 0.000000 0.600953
0.000000 0.000000 0.599521
0.337992 0.000000 0.593865
0.606347 0.000000 0.581930
0.831862 0.000000 0.564814
0.953311 0.000000 0.552331
0.986941 0.000000 0.548413
1.000000 0.000000 0.545756
0.000000 0.000000 0.603045
0.000000 0.000000 0.602310
0.000000 0.000000 0.600881
0.339937 0.000000 0.595240
0.607341 0.000000 0.583339
0.832533 0.000000 0.566276
0.953874 0.000000 0.553830
0.987480 0.000000 0.549928
1.000000 0.000000 0.547279
0.000000 0.000000 0.605655
0.000000 0.000000 0.604923
0.006267 0.000000 0.603502
0.343666 0.000000 0.597892
0.609260 0.000000 0.586055
0.833830 0.000000 0.569091
0.954963 0.000000 0.556721
0.988522 0.000000 0.552842
1.000000 0.000000 0.550210
0.000000 0.363462 0.615763
0.000000 0.361741 0.615047
0.055934 0.358376 0.613654
0.357897 0.344839 0.608156
0.616719 0.314779 0.596568
0.838894 0.267050 0.579976
0.959223 0.227271 0.567891
0.992595 0.213578 0.564105
1.000000 0.203868 0.561536
0.000000 0.654678 0.636136
0.000000 0.653813 0.635447
0.143727 0.652134 0.634109
0.385620 0.645495 0.628830
0.631871 0.631466 0.617714
0.849288 0.611284 0.601829
0.967992 0.596513 0.590284
1.000000 0.591871 0.586671
1.000000 0.588719 0.584222
0.057157 0.897899 0.663259
0.131122 0.897318 0.662603
0.222082 0.896191 0.661333
0.420907 0.891754 0.656320
0.652269 0.882469 0.645784
0.863508 0.869338 0.630760
0.980043 0.859900 0.619871
1.000000 0.856965 0.616467
1.000000 0.854980 0.614161
0.143692 1.000000 0.681682
0.192803 1.000000 0.681049
0.264686 1.000000 0.679821
0.444016 1.000000 0.674979
0.666264 1.000000 0.664805
0.873408 1.000000 0.650321
0.988469 0.997293 0.639840
1.000000 0.994870 0.636566
1.000000 0.993233 0.634349
0.163632 1.000000 0.687251
0.208604 1.000000 0.686624
0.276538 1.000000 0.685408
0.450879 1.000000 0.680615
0.670516 1.000000 0.670547
0.876438 1.000000 0.656219
0.991053 1.000000 0.645856
1.000000 1.000000 0.642620
1.000000 1.000000 0.640429
0.175918 1.000000 0.690939
0.218592 1.000000 0.690316
0.284158 1.000000 0.689109
0.455398 1.000000 0.684348
0.673337 1.000000 0.674349
0.878453 1.000000 0.660123
0.992774 1.000000 0.649837
1.000000 1.000000 0.646625
1.000000 1.000000 0.644450
0.000000 0.000000 0.810871
0.000000 0.000000 0.810362
0.000000 0.000000 0.809375
0.270296 0.000000 0.805489
0.574427 0.000000 0.797359
0.810675 0.000000 0.785869
0.935596 0.000000 0.777619
0.970019 0.000000 0.775053
0.992346 0.000000 0.773319
0.000000 0.000000 0.811806
0.000000 0.000000 0.811298
0.000000 0.000000 0.810312
0.272746 0.000000 0.806432
0.575490 0.000000 0.798314
0.811369 0.000000 0.786843
0.936173 0.000000 0.778604
0.970570 0.000000 0.776043
0.992880 0.000000 0.774312
0.000000 0.000000 0.813612
0.000000 0.000000 0.813105
0.000000 0.000000 0.812122
0.277434 0.000000 0.808252
0.577537 0.000000 0.800159
0.812709 0.000000 0.788721
0.937289 0.000000 0.780508
0.971635 0.000000 0.777955
0.993915 0.000000 0.776229
0.000000 0.280178 0.820648
0.000000 0.277902 0.820147
0.000000 0.273437 0.819175
0.295079 0.255187 0.815348
0.585489 0.212505 0.807343
0.817939 0.134487 0.796037
0.941652 0.049072 0.787920
0.975801 0.019310 0.785398
0.997961 0.000000 0.783692
0.000000 0.616572 0.835023
0.000000 0.615641 0.834532
0.000000 0.613833 0.833581
0.328602 0.606678 0.829838
0.601601 0.591514 0.822013
0.828669 0.569596 0.810966
0.950631 0.553469 0.803040
0.984379 0.548384 0.800577
1.000000 0.544928 0.798913
0.000000 0.872753 0.854543
0.000000 0.872150 0.854066
0.098538 0.870982 0.853143
0.369960 0.866378 0.849509
0.623215 0.856740 0.841917
0.843332 0.843093 0.831205
0.962963 0.833274 0.823526
0.996174 0.830218 0.821140
1.000000 0.828151 0.819529
0.000000 1.000000 0.868039
0.039657 1.000000 0.867572
0.170229 1.000000 0.866667
0.396438 1.000000 0.863106
0.637995 0.994684 0.855669
0.853531 0.983456 0.845178
0.971581 0.975418 0.837662
1.000000 0.972923 0.835328
1.000000 0.971238 0.833751
0.000000 1.000000 0.872155
0.071128 1.000000 0.871691
0.187745 1.000000 0.870792
0.404231 1.000000 0.867252
0.642477 1.000000 0.859860
0.856651 1.000000 0.849436
0.974223 1.000000 0.841968
1.000000 1.000000 0.839649
1.000000 1.000000 0.838083
0.008477 1.000000 0.874891
0.091552 1.000000 0.874429
0.198697 1.000000 0.873533
0.409341 1.000000 0.870008
0.645449 1.000000 0.862645
0.858726 1.000000 0.852265
0.975983 1.000000 0.844828
1.000000 1.000000 0.842520
1.000000 1.000000 0.840960
0.000000 0.000000 0.931458
0.000000 0.000000 0.931032
0.000000 0.000000 0.930205
0.205165 0.000000 0.926955
0.548996 0.000000 0.920172
0.794305 0.000000 0.910627
0.922015 0.000000 0.903800
0.957067 0.000000 0.901684
0.979775 0.000000 0.900254
0.000000 0.000000 0.932242
0.000000 0.000000 0.931816
0.000000 0.000000 0.930990
0.208336 0.000000 0.927743
0.550118 0.000000 0.920968
0.795017 0.000000 0.911433
0.922603 0.000000 0.904615
0.957628 0.000000 0.902500
0.980320 0.000000 0.901072
0.000000 0.000000 0.933755
0.000000 0.000000 0.933330
0.000000 0.000000 0.932506
0.214399 0.000000 0.929266
0.552281 0.000000 0.922505
0.796392 0.000000 0.912991
0.923740 0.000000 0.906188
0.958711 0.000000 0.904078
0.981371 0.000000 0.902653
0.000000 0.195100 0.939663
0.000000 0.191877 0.939241
0.000000 0.185448 0.938425
0.236767 0.158135 0.935210
0.560664 0.083215 0.928505
0.801758 0.000000 0.919072
0.928185 0.000000 0.912327
0.962949 0.000000 0.910235
0.985484 0.000000 0.908823
0.000000 0.585976 0.951783
0.000000 0.584986 0.951368
0.000000 0.583061 0.950564
0.277607 0.575439 0.947403
0.577614 0.559243 0.940811
0.812759 0.535726 0.931537
0.937331 0.518329 0.924909
0.971675 0.512828 0.922854
0.993954 0.509081 0.921467
0.000000 0.853259 0.968345
0.000000 0.852639 0.967940
0.000000 0.851436 0.967154
0.325939 0.846696 0.964063
0.600277 0.836766 0.957619
0.827780 0.822696 0.948557
0.949886 0.812562 0.942084
0.983667 0.809406 0.940077
1.000000 0.807272 0.938722
0.000000 0.991814 0.979866
0.000000 0.991303 0.979467
0.049308 0.990313 0.978693
0.356032 0.986415 0.975649
0.615730 0.978273 0.969304
0.838220 0.966798 0.960385
0.958656 0.958577 0.954015
0.992053 0.956026 0.952041
1.000000 0.954302 0.950708
0.000000 1.000000 0.983390
0.000000 1.000000 0.982992
0.080744 1.000000 0.982222
0.364789 1.000000 0.979193
0.620410 1.000000 0.972878
0.841413 1.000000 0.964001
0.961345 0.998268 0.957663
0.994625 0.995847 0.955698
1.000000 0.994212 0.954371
0.000000 1.000000 0.985735
0.000000 1.000000 0.985338
0.100266 1.000000 0.984570
0.370506 1.000000 0.981551
0.623513 1.000000 0.975255
0.843536 1.000000 0.966407
0.963135 1.000000 0.960088
0.996338 1.000000 0.958131
1.000000 1.000000 0.956809
0.000000 0.000000 0.966671
0.000000 0.000000 0.966265
0.000000 0.000000 0.965477
0.179200 0.000000 0.962379
0.540399 0.000000 0.955920
0.788878 0.000000 0.946837
0.917533 0.000000 0.940348
0.952797 0.000000 0.938337
0.975634 0.000000 0.936978
0.000000 0.000000 0.967418
0.000000 0.000000 0.967012
0.000000 0.000000 0.966225
0.182832 0.000000 0.963130
0.541540 0.000000 0.956678
0.789595 0.000000 0.947604
0.918125 0.000000 0.941122
0.953361 0.000000 0.939113
0.976181 0.000000 0.937756
0.000000 0.000000 0.968861
0.000000 0.000000 0.968455
0.000000 0.000000 0.967670
0.189625 0.000000 0.964581
0.543743 0.000000 0.958141
0.790982 0.000000 0.949086
0.919270 0.000000 0.942617
0.954451 0.000000 0.940612
0.977238 0.000000 0.939258
0.000000 0.158676 0.974495
0.000000 0.154741 0.974093
0.000000 0.146971 0.973314
0.214408 0.112647 0.970248
0.552284 0.018411 0.963857
0.796394 0.000000 0.954871
0.923742 0.000000 0.948454
0.958713 0.000000 0.946465
0.981373 0.000000 0.945122
0.000000 0.575578 0.986065
0.000000 0.574564 0.985669
0.000000 0.572597 0.984902
0.258751 0.564804 0.981883
0.569532 0.548230 0.975590
0.807487 0.524119 0.966747
0.932944 0.506249 0.960431
0.967489 0.500589 0.958474
0.989889 0.496734 0.957152
0.000000 0.846782 1.000000
0.000000 0.846156 1.000000
0.000000 0.844941 1.000000
0.310144 0.840155 0.997803
0.592568 0.830126 0.991642
0.822632 0.815909 0.982984
0.945574 0.805666 0.976805
0.979547 0.802476 0.974890
1.000000 0.800318 0.973597
0.000000 0.986486 1.000000
0.000000 0.985971 1.000000
0.000000 0.984973 1.000000
0.341728 0.981047 1.000000
0.608259 0.972848 1.000000
0.833154 0.961288 0.994286
0.954395 0.953007 0.988198
0.987978 0.950435 0.986312
1.000000 0.948698 0.985039
0.000000 1.000000 1.000000
0.000000 1.000000 1.000000
0.031135 1.000000 1.000000
0.350868 1.000000 1.000000
0.613010 1.000000 1.000000
0.836370 1.000000 0.997744
0.957100 0.992983 0.991683
0.990564 0.990546 0.989806
1.000000 0.988900 0.988538
0.000000 1.000000 1.000000
0.000000 1.000000 1.000000
0.052156 1.000000 1.000000
0.356837 1.000000 1.000000
0.616155 1.000000 1.000000
0.838510 1.000000 1.000000
0.958900 1.000000 0.994002
0.992286 1.000000 0.992131
1.000000 1.000000 0.990867
0.000000 0.000000 0.985928
0.000000 0.000000 0.985531
0.000000 0.000000 0.984764
0.162893 0.000000 0.981744
0.535449 0.000000 0.975450
0.785778 0.000000 0.966605
0.914979 0.000000 0.960288
0.950363 0.000000 0.958331
0.973274 0.000000 0.957009
0.000000 0.000000 0.986655
0.000000 0.000000 0.986260
0.000000 0.000000 0.985493
0.166834 0.000000 0.982476
0.536602 0.000000 0.976189
0.786499 0.000000 0.967352
0.915573 0.000000 0.961041
0.950929 0.000000 0.959086
0.973823 0.000000 0.957766
0.000000 0.000000 0.988062
0.000000 0.000000 0.987667
0.000000 0.000000 0.986901
0.174171 0.000000 0.983891
0.538829 0.000000 0.977615
0.787893 0.000000 0.968795
0.916721 0.000000 0.962497
0.952023 0.000000 0.960545
0.974884 0.000000 0.959227
0.000000 0.134401 0.993555
0.000000 0.129981 0.993163
0.000000 0.121017 0.992403
0.200695 0.079780 0.989415
0.547461 0.000000 0.983185
0.793331 0.000000 0.974430
0.921210 0.000000 0.968179
0.956300 0.000000 0.966243
0.979031 0.000000 0.964935
0.000000 0.569576 1.000000
0.000000 0.568551 1.000000
0.000000 0.566560 1.000000
0.247417 0.558663 1.000000
0.564886 0.541864 0.994624
0.804478 0.517400 0.986001
0.930444 0.499244 0.979846
0.965103 0.493490 0.977939
0.987574 0.489567 0.976652
0.000000 0.843081 1.000000
0.000000 0.842450 1.000000
0.000000 0.841229 1.000000
0.300791 0.836415 1.000000
0.588140 0.826328 1.000000
0.819693 0.812026 1.000000
0.943117 0.801721 0.995808
0.977200 0.798511 0.993941
0.999319 0.796339 0.992680
0.000000 0.983446 1.000000
0.000000 0.982929 1.000000
0.000000 0.981927 1.000000
0.333317 0.977986 1.000000
0.603972 0.969753 1.000000
0.830262 0.958144 1.000000
0.951968 0.949827 1.000000
0.985657 0.947245 1.000000
1.000000 0.945501 1.000000
0.000000 1.000000 1.000000
0.000000 1.000000 1.000000
0.002974 1.000000 1.000000
0.342700 1.000000 1.000000
0.608762 1.000000 1.000000
0.833493 0.997856 1.000000
0.954680 0.989970 1.000000
0.988251 0.987523 1.000000
1.000000 0.985870 1.000000
0.000000 1.000000 1.000000
0.000000 1.000000 1.000000
0.023995 1.000000 1.000000
0.348820 1.000000 1.000000
0.611935 1.000000 1.000000
0.835642 1.000000 1.000000
0.956487 1.000000 1.000000
0.989978 1.000000 1.000000
1.000000 1.000000 1.000000
