s709/sP3Cubes/SL3SG3CtosP3D65.cube
# sP3D65 LUT
# S-Log3/S-Gamut3.Cine to P3(D65)
LUT_3D_SIZE 33
0.000000 0.000000 0.000000
0.000000 0.000000 0.000000
0.015820 0.000000 0.000000
0.035244 0.000000 0.000000
0.055366 0.000000 0.000000
0.078426 0.000000 0.000000
0.105938 0.000000 0.000000
0.137525 0.000000 0.000000
0.173393 0.000000 0.000000
0.217408 0.000000 0.000000
0.270121 0.000000 0.000000
0.327634 0.000000 0.000000
0.387662 0.000000 0.000000
0.448133 0.000000 0.000000
0.507023 0.000000 0.000000
0.564508 0.000000 0.000000
0.620866 0.000000 0.000000
0.676372 0.000000 0.000000
0.730020 0.000000 0.000000
0.781748 0.000000 0.000000
0.829919 0.000000 0.000000
0.869417 0.000000 0.000000
0.901037 0.000000 0.000000
0.925796 0.000000 0.000000
0.944581 0.000000 0.000000
0.957802 0.000000 0.000000
0.966938 0.000000 0.000000
0.972923 0.000000 0.000000
0.976495 0.000000 0.000000
0.979738 0.000000 0.000000
0.984035 0.000000 0.000000
0.989725 0.000000 0.000000
0.997256 0.000000 0.000000
0.000000 0.001615 0.000000
0.000000 0.000095 0.000000
0.018884 0.000000 0.000000
0.038309 0.000000 0.000000
0.058430 0.000000 0.000000
0.081480 0.000000 0.000000
0.108554 0.000000 0.000000
0.139667 0.000000 0.000000
0.175162 0.000000 0.000000
0.218844 0.000000 0.000000
0.271282 0.000000 0.000000
0.328580 0.000000 0.000000
0.388445 0.000000 0.000000
0.448799 0.000000 0.000000
0.507599 0.000000 0.000000
0.565016 0.000000 0.000000
0.621320 0.000000 0.000000
0.676779 0.000000 0.000000
0.730390 0.000000 0.000000
0.782088 0.000000 0.000000
0.830235 0.000000 0.000000
0.869714 0.000000 0.000000
0.901321 0.000000 0.000000
0.926070 0.000000 0.000000
0.944849 0.000000 0.000000
0.958064 0.000000 0.000000
0.967197 0.000000 0.000000
0.973180 0.000000 0.000000
0.976752 0.000000 0.000000
0.979993 0.000000 0.000000
0.984288 0.000000 0.000000
0.989976 0.000000 0.000000
0.997505 0.000000 0.000000
0.000000 0.026126 0.000000
0.002528 0.024607 0.000000
0.021947 0.023088 0.000000
0.041372 0.021568 0.000000
0.061493 0.019995 0.000000
0.084518 0.018188 0.000000
0.111042 0.015842 0.000000
0.141757 0.012593 0.000000
0.176879 0.008122 0.000000
0.220245 0.001430 0.000000
0.272421 0.000000 0.000000
0.329515 0.000000 0.000000
0.389227 0.000000 0.000000
0.449465 0.000000 0.000000
0.508175 0.000000 0.000000
0.565524 0.000000 0.000000
0.621772 0.000000 0.000000
0.677186 0.000000 0.000000
0.730761 0.000000 0.000000
0.782428 0.000000 0.000000
0.830550 0.000000 0.000000
0.870011 0.000000 0.000000
0.901605 0.000000 0.000000
0.926344 0.000000 0.000000
0.945116 0.000000 0.000000
0.958326 0.000000 0.000000
0.967456 0.000000 0.000000
0.973437 0.000000 0.000000
0.977007 0.000000 0.000000
0.980248 0.000000 0.000000
0.984541 0.000000 0.000000
0.990228 0.000000 0.000000
0.997754 0.000000 0.000000
0.000000 0.050645 0.000000
0.005592 0.049126 0.000000
0.025011 0.047607 0.000000
0.044436 0.046087 0.000000
0.064557 0.044513 0.000000
0.087365 0.042707 0.000000
0.113471 0.040361 0.000000
0.143787 0.037111 0.000000
0.178580 0.032641 0.000000
0.221646 0.025948 0.000000
0.273560 0.016070 0.000000
0.330451 0.002822 0.000000
0.390010 0.000000 0.000000
0.450131 0.000000 0.000000
0.508751 0.000000 0.000000
0.566031 0.000000 0.000000
0.622223 0.000000 0.000000
0.677593 0.000000 0.000000
0.731131 0.000000 0.000000
0.782768 0.000000 0.000000
0.830865 0.000000 0.000000
0.870308 0.000000 0.000000
0.901888 0.000000 0.000000
0.926618 0.000000 0.000000
0.945383 0.000000 0.000000
0.958589 0.000000 0.000000
0.967715 0.000000 0.000000
0.973694 0.000000 0.000000
0.977263 0.000000 0.000000
0.980503 0.000000 0.000000
0.984795 0.000000 0.000000
0.990479 0.000000 0.000000
0.998003 0.000000 0.000000
0.000000 0.076008 0.000000
0.008764 0.074494 0.000000
0.028183 0.072980 0.000000
0.047608 0.071466 0.000000
0.067729 0.069896 0.000000
0.090313 0.068090 0.000000
0.115985 0.065744 0.000000
0.145888 0.062494 0.000000
0.180341 0.058024 0.000000
0.223097 0.051331 0.000000
0.274740 0.041453 0.000000
0.331420 0.028205 0.000000
0.390820 0.011457 0.000000
0.450816 0.000000 0.000000
0.509348 0.000000 0.000000
0.566556 0.000000 0.000000
0.622691 0.000000 0.000000
0.678015 0.000000 0.000000
0.731514 0.000000 0.000000
0.783119 0.000000 0.000000
0.831191 0.000000 0.000000
0.870615 0.000000 0.000000
0.902182 0.000000 0.000000
0.926902 0.000000 0.000000
0.945659 0.000000 0.000000
0.958860 0.000000 0.000000
0.967983 0.000000 0.000000
0.973960 0.000000 0.000000
0.977528 0.000000 0.000000
0.980766 0.000000 0.000000
0.985057 0.000000 0.000000
0.990739 0.000000 0.000000
0.998261 0.000000 0.000000
0.000000 0.103120 0.000000
0.012403 0.101822 0.000000
0.031822 0.100526 0.000000
0.051246 0.099229 0.000000
0.071364 0.097885 0.000000
0.093695 0.096250 0.000000
0.118869 0.094070 0.000000
0.148299 0.091050 0.000000
0.182361 0.086895 0.000000
0.224761 0.080412 0.000000
0.276093 0.070569 0.000000
0.332532 0.057322 0.000000
0.391742 0.040574 0.000000
0.451601 0.020507 0.000000
0.510029 0.000000 0.000000
0.567156 0.000000 0.000000
0.623227 0.000000 0.000000
0.678497 0.000000 0.000000
0.731954 0.000000 0.000000
0.783523 0.000000 0.000000
0.831565 0.000000 0.000000
0.870968 0.000000 0.000000
0.902518 0.000000 0.000000
0.927227 0.000000 0.000000
0.945976 0.000000 0.000000
0.959171 0.000000 0.000000
0.968290 0.000000 0.000000
0.974265 0.000000 0.000000
0.977831 0.000000 0.000000
0.981068 0.000000 0.000000
0.985357 0.000000 0.000000
0.991038 0.000000 0.000000
0.998556 0.000000 0.000000
0.000000 0.132655 0.000000
0.017137 0.131593 0.000000
0.036555 0.130503 0.000000
0.055980 0.129376 0.000000
0.076081 0.128208 0.000000
0.098037 0.126868 0.000000
0.122488 0.125127 0.000000
0.151372 0.122716 0.000000
0.184931 0.119321 0.000000
0.226877 0.114017 0.000000
0.277826 0.105939 0.000000
0.333960 0.094386 0.000000
0.392939 0.078424 0.000000
0.452623 0.058386 0.000000
0.510914 0.035606 0.000000
0.567936 0.010144 0.000000
0.623923 0.000000 0.000000
0.679124 0.000000 0.000000
0.732524 0.000000 0.000000
0.784046 0.000000 0.000000
0.832051 0.000000 0.000000
0.871426 0.000000 0.000000
0.902956 0.000000 0.000000
0.927649 0.000000 0.000000
0.946388 0.000000 0.000000
0.959576 0.000000 0.000000
0.968690 0.000000 0.000000
0.974662 0.000000 0.000000
0.978226 0.000000 0.000000
0.981462 0.000000 0.000000
0.985748 0.000000 0.000000
0.991425 0.000000 0.000000
0.998940 0.000000 0.000000
0.004266 0.166628 0.001101
0.023692 0.165713 0.000042
0.043111 0.164797 0.000000
0.062535 0.163882 0.000000
0.082613 0.162933 0.000000
0.103633 0.161845 0.000000
0.127352 0.160432 0.000000
0.155506 0.158449 0.000000
0.188438 0.155631 0.000000
0.229795 0.151411 0.000000
0.280218 0.144931 0.000000
0.335935 0.135896 0.000000
0.394597 0.123769 0.000000
0.454031 0.107984 0.000000
0.512139 0.087752 0.000000
0.569016 0.062601 0.000000
0.624886 0.034420 0.000000
0.679992 0.003436 0.000000
0.733314 0.000000 0.000000
0.784771 0.000000 0.000000
0.832723 0.000000 0.000000
0.872060 0.000000 0.000000
0.903561 0.000000 0.000000
0.928234 0.000000 0.000000
0.946958 0.000000 0.000000
0.960136 0.000000 0.000000
0.969244 0.000000 0.000000
0.975210 0.000000 0.000000
0.978772 0.000000 0.000000
0.982005 0.000000 0.000000
0.986289 0.000000 0.000000
0.991962 0.000000 0.000000
0.999472 0.000000 0.000000
0.013267 0.205369 0.007667
0.032693 0.204615 0.006609
0.052112 0.203855 0.005551
0.071532 0.203096 0.004493
0.091093 0.202309 0.003396
0.111179 0.201406 0.002138
0.133855 0.200233 0.000504
0.161084 0.198609 0.000000
0.193173 0.196313 0.000000
0.233740 0.192856 0.000000
0.283466 0.187640 0.000000
0.338623 0.180446 0.000000
0.396850 0.170969 0.000000
0.455958 0.159030 0.000000
0.513812 0.144390 0.000000
0.570493 0.126528 0.000000
0.626204 0.104231 0.000000
0.681181 0.075445 0.000000
0.734396 0.042371 0.000000
0.785765 0.007446 0.000000
0.833645 0.000000 0.000000
0.872929 0.000000 0.000000
0.904392 0.000000 0.000000
0.929037 0.000000 0.000000
0.947740 0.000000 0.000000
0.960904 0.000000 0.000000
0.970003 0.000000 0.000000
0.975963 0.000000 0.000000
0.979522 0.000000 0.000000
0.982752 0.000000 0.000000
0.987031 0.000000 0.000000
0.992699 0.000000 0.000000
1.000000 0.000000 0.000000
0.026731 0.253091 0.017490
0.046157 0.252477 0.016431
0.065576 0.251863 0.015373
0.084906 0.251249 0.014315
0.103099 0.250613 0.013219
0.121767 0.249883 0.011961
0.143140 0.248929 0.010327
0.169125 0.247586 0.008063
0.200066 0.245738 0.004950
0.239530 0.242962 0.000288
0.288257 0.238780 0.000000
0.342606 0.233065 0.000000
0.400199 0.225654 0.000000
0.458821 0.216431 0.000000
0.516304 0.205525 0.000000
0.572693 0.192626 0.000000
0.628171 0.177392 0.000000
0.682954 0.159230 0.000000
0.736011 0.137610 0.000000
0.787249 0.111526 0.000000
0.835023 0.079894 0.000000
0.874228 0.049007 0.000000
0.905634 0.022920 0.000000
0.930236 0.001656 0.000000
0.948908 0.000000 0.000000
0.962052 0.000000 0.000000
0.971136 0.000000 0.000000
0.977089 0.000000 0.000000
0.980642 0.000000 0.000000
0.983867 0.000000 0.000000
0.988139 0.000000 0.000000
0.993799 0.000000 0.000000
1.000000 0.000000 0.000000
0.046657 0.310633 0.032026
0.066083 0.310135 0.030968
0.085372 0.309635 0.029910
0.102933 0.309135 0.028851
0.119343 0.308617 0.027755
0.136231 0.308023 0.026497
0.156042 0.307251 0.024863
0.180437 0.306181 0.022600
0.209880 0.304691 0.019486
0.247857 0.302454 0.014825
0.295202 0.299118 0.007944
0.348410 0.294585 0.000000
0.405104 0.288747 0.000000
0.463021 0.281601 0.000000
0.519968 0.273230 0.000000
0.575932 0.263567 0.000000
0.631067 0.252440 0.000000
0.685569 0.239618 0.000000
0.738394 0.225158 0.000000
0.789439 0.208823 0.000000
0.837055 0.191082 0.000000
0.876145 0.174157 0.000000
0.907466 0.158717 0.000000
0.932007 0.145064 0.000000
0.950634 0.133671 0.000000
0.963748 0.124959 0.000000
0.972811 0.118608 0.000000
0.978750 0.114206 0.000000
0.982295 0.111561 0.000000
0.985514 0.109131 0.000000
0.989778 0.105673 0.000000
0.995425 0.101063 0.000000
1.000000 0.094688 0.000000
0.073384 0.373577 0.051532
0.092174 0.373172 0.050474
0.109175 0.372767 0.049416
0.124329 0.372359 0.048357
0.138782 0.371934 0.047261
0.153990 0.371448 0.046003
0.172083 0.370815 0.044369
0.194714 0.369939 0.042106
0.222413 0.368732 0.038992
0.258609 0.366907 0.034331
0.304258 0.364203 0.027450
0.356035 0.360542 0.018224
0.411575 0.355850 0.006558
0.468588 0.350142 0.000000
0.524834 0.343533 0.000000
0.580244 0.335984 0.000000
0.634928 0.327408 0.000000
0.689058 0.317690 0.000000
0.741576 0.306956 0.000000
0.792365 0.295179 0.000000
0.839772 0.282774 0.000000
0.878709 0.271421 0.000000
0.909918 0.261443 0.000000
0.934376 0.253017 0.000000
0.952944 0.246231 0.000000
0.966017 0.241235 0.000000
0.975053 0.237682 0.000000
0.980975 0.235278 0.000000
0.984510 0.233830 0.000000
0.987718 0.232510 0.000000
0.991970 0.230737 0.000000
0.997601 0.228333 0.000000
1.000000 0.225123 0.000000
0.104826 0.439272 0.076132
0.120549 0.438934 0.075077
0.134728 0.438595 0.074023
0.147917 0.438257 0.072969
0.160635 0.437907 0.071876
0.174253 0.437501 0.070623
0.190680 0.436974 0.068990
0.211498 0.436245 0.066727
0.237352 0.435241 0.063613
0.271585 0.433730 0.058952
0.315309 0.431493 0.052071
0.365415 0.428469 0.042845
0.419582 0.424608 0.031179
0.475507 0.419929 0.017203
0.530902 0.414549 0.001337
0.585631 0.408441 0.000000
0.639763 0.401556 0.000000
0.693430 0.393826 0.000000
0.745568 0.385380 0.000000
0.796040 0.376243 0.000000
0.843187 0.366754 0.000000
0.881932 0.358210 0.000000
0.913000 0.350821 0.000000
0.937355 0.344675 0.000000
0.955848 0.339778 0.000000
0.968871 0.336213 0.000000
0.977873 0.333684 0.000000
0.983773 0.332002 0.000000
0.987295 0.330982 0.000000
0.990492 0.330053 0.000000
0.994728 0.328815 0.000000
1.000000 0.327149 0.000000
1.000000 0.324915 0.000000
0.135921 0.505707 0.103623
0.149048 0.505420 0.102720
0.161240 0.505132 0.101817
0.172716 0.504845 0.100913
0.183976 0.504547 0.099977
0.196143 0.504205 0.098904
0.211018 0.503758 0.097509
0.230119 0.503140 0.095416
0.254144 0.502289 0.092522
0.286379 0.501011 0.088190
0.328059 0.499119 0.081613
0.376345 0.496566 0.072420
0.428983 0.493317 0.060762
0.483669 0.489389 0.046786
0.538086 0.484888 0.030919
0.592026 0.479798 0.013185
0.645510 0.474088 0.000000
0.698639 0.467717 0.000000
0.750329 0.460799 0.000000
0.800427 0.453368 0.000000
0.847267 0.445716 0.000000
0.885785 0.438882 0.000000
0.916687 0.433019 0.000000
0.940919 0.428175 0.000000
0.959323 0.424338 0.000000
0.972286 0.421556 0.000000
0.981248 0.419589 0.000000
0.987122 0.418285 0.000000
0.990628 0.417496 0.000000
0.993811 0.416776 0.000000
0.998029 0.415819 0.000000
1.000000 0.414535 0.000000
1.000000 0.412815 0.000000
0.165580 0.570447 0.130015
0.176826 0.570198 0.129230
0.187454 0.569948 0.128445
0.197608 0.569699 0.127660
0.207610 0.569441 0.126846
0.218600 0.569145 0.125913
0.232105 0.568760 0.124700
0.249659 0.568224 0.123021
0.271973 0.567487 0.120711
0.302271 0.566384 0.117028
0.341921 0.564747 0.111574
0.388341 0.562544 0.103866
0.439378 0.559746 0.093599
0.492747 0.556369 0.080342
0.546106 0.552507 0.064512
0.599187 0.548150 0.046777
0.651962 0.543281 0.027149
0.704496 0.537866 0.005569
0.755691 0.532009 0.000000
0.805371 0.525744 0.000000
0.851868 0.519328 0.000000
0.890134 0.513623 0.000000
0.920849 0.508751 0.000000
0.944945 0.504739 0.000000
0.963250 0.501575 0.000000
0.976146 0.499284 0.000000
0.985062 0.497669 0.000000
0.990906 0.496598 0.000000
0.994395 0.495953 0.000000
0.997563 0.495362 0.000000
1.000000 0.494576 0.000000
1.000000 0.493528 0.000000
1.000000 0.492120 0.000000
0.194098 0.633668 0.155254
0.203941 0.633448 0.154587
0.213350 0.633229 0.153920
0.222381 0.633009 0.153252
0.231408 0.632782 0.152561
0.241330 0.632521 0.151768
0.253673 0.632182 0.150737
0.269837 0.631712 0.149269
0.290593 0.631064 0.147206
0.319068 0.630093 0.144118
0.356735 0.628656 0.139490
0.401284 0.626723 0.133038
0.450678 0.624269 0.124509
0.502667 0.621315 0.113702
0.554909 0.617936 0.100489
0.607073 0.614135 0.084280
0.659083 0.609894 0.064702
0.710972 0.605190 0.043122
0.761627 0.600117 0.020073
0.810853 0.594704 0.000000
0.856976 0.589181 0.000000
0.894964 0.584282 0.000000
0.925474 0.580111 0.000000
0.949419 0.576684 0.000000
0.967616 0.573987 0.000000
0.980437 0.572037 0.000000
0.989303 0.570665 0.000000
0.995114 0.569754 0.000000
0.998585 0.569207 0.000000
1.000000 0.568707 0.000000
1.000000 0.568039 0.000000
1.000000 0.567149 0.000000
1.000000 0.565958 0.000000
0.221757 0.695591 0.179728
0.230493 0.695396 0.179141
0.238904 0.695200 0.178553
0.247039 0.695005 0.177966
0.255211 0.694803 0.177357
0.264257 0.694570 0.176659
0.275577 0.694267 0.175752
0.290508 0.693848 0.174451
0.309839 0.693272 0.172653
0.336604 0.692407 0.169961
0.372366 0.691129 0.165924
0.415066 0.689410 0.160365
0.462799 0.687228 0.153073
0.513373 0.684602 0.143962
0.564450 0.681608 0.133043
0.615647 0.678241 0.119974
0.666847 0.674490 0.104033
0.718048 0.670335 0.084567
0.768124 0.665863 0.061587
0.816860 0.661103 0.037263
0.862576 0.656254 0.012706
0.900264 0.651965 0.000000
0.930552 0.648320 0.000000
0.954333 0.645329 0.000000
0.972412 0.642978 0.000000
0.985153 0.641281 0.000000
0.993964 0.640087 0.000000
0.999740 0.639295 0.000000
1.000000 0.638819 0.000000
1.000000 0.638384 0.000000
1.000000 0.637805 0.000000
1.000000 0.637031 0.000000
1.000000 0.635997 0.000000
0.248855 0.756683 0.203674
0.256673 0.756507 0.203145
0.264268 0.756331 0.202616
0.271658 0.756155 0.202087
0.279089 0.755973 0.201539
0.287388 0.755763 0.200910
0.297803 0.755491 0.200093
0.311636 0.755115 0.198962
0.329666 0.754596 0.197379
0.354836 0.753818 0.194971
0.388774 0.752668 0.191416
0.429663 0.751123 0.186498
0.475734 0.749163 0.180139
0.524866 0.746808 0.172251
0.574736 0.744121 0.162899
0.624924 0.741105 0.151898
0.675269 0.737747 0.138882
0.725739 0.734035 0.123353
0.775199 0.730043 0.104959
0.823410 0.725800 0.082931
0.868691 0.721486 0.058419
0.906055 0.717675 0.036883
0.936103 0.714440 0.018714
0.959707 0.711789 0.003904
0.977658 0.709708 0.000000
0.990311 0.708206 0.000000
0.999064 0.707151 0.000000
1.000000 0.706451 0.000000
1.000000 0.706030 0.000000
1.000000 0.705646 0.000000
1.000000 0.705134 0.000000
1.000000 0.704451 0.000000
1.000000 0.703538 0.000000
0.274881 0.815742 0.226662
0.281989 0.815582 0.226191
0.288901 0.815422 0.225720
0.295661 0.815262 0.225249
0.302491 0.815096 0.224752
0.310142 0.814906 0.224177
0.319787 0.814658 0.223429
0.332657 0.814315 0.222394
0.349530 0.813844 0.220970
0.373251 0.813137 0.218838
0.405495 0.812092 0.215607
0.444660 0.810689 0.211244
0.489115 0.808909 0.205591
0.536820 0.806772 0.198616
0.585484 0.804336 0.190417
0.634650 0.801602 0.180836
0.684125 0.798562 0.169712
0.733845 0.795203 0.156705
0.782667 0.791596 0.141768
0.830334 0.787766 0.124436
0.875163 0.783876 0.104918
0.912189 0.780444 0.085571
0.941987 0.777534 0.067547
0.965406 0.775151 0.052736
0.983222 0.773281 0.041153
0.995783 0.771932 0.032821
1.000000 0.770985 0.026975
1.000000 0.770356 0.023106
1.000000 0.769979 0.020783
1.000000 0.769635 0.018664
1.000000 0.769175 0.015842
1.000000 0.768562 0.012081
1.000000 0.767744 0.007059
0.299881 0.872693 0.248730
0.306389 0.872547 0.248292
0.312743 0.872400 0.247855
0.318975 0.872253 0.247417
0.325290 0.872101 0.246964
0.332387 0.871926 0.246444
0.341363 0.871699 0.245769
0.353391 0.871385 0.244833
0.369240 0.870953 0.243546
0.391653 0.870304 0.241577
0.422336 0.869346 0.238664
0.459881 0.868060 0.234691
0.502788 0.866428 0.229585
0.549102 0.864470 0.223316
0.596575 0.862240 0.215986
0.644722 0.859738 0.207512
0.693320 0.856959 0.197758
0.742280 0.853889 0.186457
0.790453 0.850595 0.173704
0.837564 0.847101 0.159318
0.881926 0.843555 0.143530
0.918606 0.840429 0.128478
0.948145 0.837780 0.114618
0.971373 0.835613 0.102378
0.989050 0.833914 0.092055
1.000000 0.832688 0.084310
1.000000 0.831827 0.078486
1.000000 0.831257 0.074631
1.000000 0.830914 0.072316
1.000000 0.830601 0.070204
1.000000 0.830184 0.067382
1.000000 0.829628 0.063621
1.000000 0.828885 0.058599
0.323125 0.925817 0.269219
0.329145 0.925681 0.268818
0.335044 0.925545 0.268417
0.340844 0.925408 0.268015
0.346730 0.925267 0.267599
0.353366 0.925106 0.267122
0.361777 0.924895 0.266503
0.373089 0.924604 0.265639
0.388055 0.924203 0.264435
0.409329 0.923602 0.262631
0.438625 0.922715 0.259958
0.474701 0.921523 0.256310
0.516183 0.920013 0.251628
0.561198 0.918200 0.245906
0.607543 0.916137 0.239250
0.654714 0.913822 0.231600
0.702466 0.911252 0.222809
0.750689 0.908416 0.212776
0.798230 0.905374 0.201517
0.844794 0.902149 0.188996
0.888700 0.898879 0.175574
0.925036 0.895998 0.162949
0.954320 0.893558 0.151677
0.977360 0.891562 0.141943
0.994900 0.889998 0.133906
1.000000 0.888871 0.127902
1.000000 0.888078 0.123565
1.000000 0.887554 0.120695
1.000000 0.887239 0.118863
1.000000 0.886951 0.117184
1.000000 0.886568 0.114947
1.000000 0.886056 0.111966
1.000000 0.885373 0.107877
0.342144 0.969395 0.285995
0.347810 0.969266 0.285616
0.353382 0.969138 0.285238
0.358850 0.969010 0.284859
0.364428 0.968877 0.284466
0.370711 0.968725 0.284016
0.378702 0.968527 0.283431
0.389472 0.968252 0.282620
0.403767 0.967874 0.281504
0.424159 0.967309 0.279804
0.452368 0.966473 0.277294
0.487278 0.965350 0.273879
0.527610 0.963928 0.269508
0.571560 0.962221 0.264174
0.616973 0.960278 0.257981
0.663332 0.958101 0.250884
0.710371 0.955683 0.242795
0.757973 0.953017 0.233565
0.804976 0.950157 0.223315
0.851075 0.947127 0.212005
0.894590 0.944057 0.199945
0.930633 0.941352 0.188805
0.959697 0.939063 0.178922
0.982574 0.937192 0.170503
0.999996 0.935725 0.163656
1.000000 0.934668 0.158619
1.000000 0.933925 0.154933
1.000000 0.933434 0.152493
1.000000 0.933138 0.151028
1.000000 0.932868 0.149670
1.000000 0.932509 0.147801
1.000000 0.932030 0.145308
1.000000 0.931390 0.141981
0.357354 1.000000 0.299393
0.362757 1.000000 0.299033
0.368079 1.000000 0.298674
0.373318 1.000000 0.298314
0.378656 1.000000 0.297941
0.384686 1.000000 0.297514
0.392362 1.000000 0.296959
0.402726 1.000000 0.296185
0.416511 1.000000 0.295109
0.436231 1.000000 0.293498
0.463603 1.000000 0.291112
0.497602 1.000000 0.287867
0.537027 0.999070 0.283713
0.580132 0.997441 0.278654
0.624796 0.995587 0.272797
0.670496 0.993509 0.266103
0.716959 0.991203 0.258470
0.764051 0.988659 0.249829
0.810613 0.985934 0.240242
0.856331 0.983046 0.229716
0.899522 0.980120 0.218611
0.935322 0.977544 0.208374
0.964205 0.975364 0.199391
0.986947 0.973582 0.191780
1.000000 0.972186 0.185614
1.000000 0.971180 0.181072
1.000000 0.970473 0.177826
1.000000 0.970006 0.175679
1.000000 0.969724 0.174340
1.000000 0.969468 0.173117
1.000000 0.969126 0.171487
1.000000 0.968670 0.169315
1.000000 0.968061 0.166369
0.369248 1.000000 0.309881
0.374464 1.000000 0.309533
0.379605 1.000000 0.309184
0.384669 1.000000 0.308836
0.389837 1.000000 0.308475
0.395677 1.000000 0.308062
0.403120 1.000000 0.307524
0.413181 1.000000 0.306779
0.426586 1.000000 0.305752
0.445800 1.000000 0.304194
0.472536 1.000000 0.301894
0.505839 1.000000 0.298770
0.544564 1.000000 0.294778
0.587011 1.000000 0.289919
0.631088 1.000000 0.284297
0.676271 1.000000 0.277879
0.722277 1.000000 0.270596
0.768963 1.000000 0.262341
0.815174 1.000000 0.253234
0.860585 1.000000 0.243269
0.903518 1.000000 0.232759
0.939124 1.000000 0.223158
0.967861 1.000000 0.214740
0.990495 1.000000 0.207645
1.000000 1.000000 0.201931
1.000000 0.999689 0.197752
1.000000 0.999009 0.194732
1.000000 0.998558 0.192733
1.000000 0.998287 0.191533
1.000000 0.998040 0.190421
1.000000 0.997711 0.188912
1.000000 0.997272 0.186899
1.000000 0.996685 0.184213
0.378280 1.000000 0.317840
0.383367 1.000000 0.317502
0.388375 1.000000 0.317165
0.393313 1.000000 0.316827
0.398360 1.000000 0.316477
0.404060 1.000000 0.316076
0.411334 1.000000 0.315555
0.421173 1.000000 0.314829
0.434299 1.000000 0.313821
0.453141 1.000000 0.312311
0.479406 1.000000 0.310075
0.512189 1.000000 0.307039
0.550385 1.000000 0.303158
0.592334 1.000000 0.298441
0.635967 1.000000 0.292991
0.680754 1.000000 0.286778
0.726410 1.000000 0.279719
0.772787 1.000000 0.271758
0.818727 1.000000 0.262969
0.863902 1.000000 0.253374
0.906636 1.000000 0.243318
0.942090 1.000000 0.234120
0.970714 1.000000 0.226104
0.993264 1.000000 0.219358
1.000000 1.000000 0.213930
1.000000 1.000000 0.209949
1.000000 1.000000 0.207117
1.000000 1.000000 0.205242
1.000000 1.000000 0.204082
1.000000 1.000000 0.203022
1.000000 1.000000 0.201612
1.000000 1.000000 0.199731
1.000000 1.000000 0.197189
0.384637 1.000000 0.323444
0.389628 1.000000 0.323112
0.394553 1.000000 0.322779
0.399403 1.000000 0.322446
0.404363 1.000000 0.322102
0.409970 1.000000 0.321706
0.417126 1.000000 0.321193
0.426816 1.000000 0.320481
0.439749 1.000000 0.319501
0.458334 1.000000 0.318014
0.484274 1.000000 0.315819
0.516697 1.000000 0.312842
0.554528 1.000000 0.309040
0.596129 1.000000 0.304418
0.639449 1.000000 0.299080
0.683958 1.000000 0.292995
0.729366 1.000000 0.286108
0.775522 1.000000 0.278321
0.821270 1.000000 0.269758
0.866277 1.000000 0.260424
0.908869 1.000000 0.250623
0.944216 1.000000 0.241714
0.972760 1.000000 0.233937
0.995250 1.000000 0.227411
1.000000 1.000000 0.222178
1.000000 1.000000 0.218359
1.000000 1.000000 0.215609
1.000000 1.000000 0.213789
1.000000 1.000000 0.212696
1.000000 1.000000 0.211689
1.000000 1.000000 0.210322
1.000000 1.000000 0.208500
1.000000 1.000000 0.206066
0.389023 1.000000 0.327308
0.393955 1.000000 0.326980
0.398816 1.000000 0.326652
0.403611 1.000000 0.326324
0.408516 1.000000 0.325984
0.414057 1.000000 0.325595
0.421136 1.000000 0.325088
0.430724 1.000000 0.324387
0.443527 1.000000 0.323414
0.461938 1.000000 0.321949
0.487656 1.000000 0.319785
0.519832 1.000000 0.316845
0.557411 1.000000 0.313094
0.598771 1.000000 0.308536
0.641875 1.000000 0.303274
0.686192 1.000000 0.297282
0.731429 1.000000 0.290493
0.777433 1.000000 0.282836
0.823048 1.000000 0.274413
0.867938 1.000000 0.265239
0.910431 1.000000 0.255634
0.945704 1.000000 0.246897
0.974191 1.000000 0.239290
0.996639 1.000000 0.232910
1.000000 1.000000 0.227794
1.000000 1.000000 0.224058
1.000000 1.000000 0.221384
1.000000 1.000000 0.219615
