s709/sP3Cubes/SL3SG3CtosP3D65.cube
# sP3D65 LUT
# S-Log3/S-Gamut3.Cine to P3(D65)
LUT_3D_SIZE 5
0.000000 0.000000 0.000000
0.173393 0.000000 0.000000
0.620866 0.000000 0.000000
0.944581 0.000000 0.000000
0.997256 0.000000 0.000000
0.013267 0.205369 0.007667
0.193173 0.196313 0.000000
0.626204 0.104231 0.000000
0.947740 0.000000 0.000000
1.000000 0.000000 0.000000
0.221757 0.695591 0.179728
0.309839 0.693272 0.172653
0.666847 0.674490 0.104033
0.972412 0.642978 0.000000
1.000000 0.635997 0.000000
0.378280 1.000000 0.317840
0.434299 1.000000 0.313821
0.726410 1.000000 0.279719
1.000000 1.000000 0.213930
1.000000 1.000000 0.197189
0.403505 1.000000 0.340066
0.456068 1.000000 0.336330
0.738372 1.000000 0.304889
1.000000 1.000000 0.245918
1.000000 1.000000 0.231398
0.000000 0.000000 0.162798
0.157186 0.000000 0.155068
0.616829 0.000000 0.076922
0.942205 0.000000 0.000000
0.995042 0.000000 0.000000
0.000000 0.188107 0.178177
0.178530 0.178289 0.171040
0.622210 0.072736 0.101648
0.945375 0.000000 0.000000
0.997996 0.000000 0.000000
0.208966 0.691242 0.272875
0.300806 0.688904 0.268152
0.663152 0.669969 0.227200
0.970124 0.638182 0.140707
1.000000 0.631136 0.115695
0.371034 1.000000 0.377920
0.428112 1.000000 0.374594
0.723090 1.000000 0.346913
1.000000 1.000000 0.296774
1.000000 1.000000 0.284848
0.396771 1.000000 0.396518
0.450223 1.000000 0.393367
0.735119 1.000000 0.367250
1.000000 1.000000 0.320547
1.000000 1.000000 0.309587
0.000000 0.000000 0.598881
0.000000 0.000000 0.596940
0.582514 0.000000 0.581234
0.922470 0.000000 0.554952
0.976681 0.000000 0.549140
0.000000 0.000000 0.602955
0.000000 0.000000 0.601030
0.588277 0.000000 0.585458
0.925726 0.000000 0.559415
0.979706 0.000000 0.553659
0.052451 0.654297 0.634252
0.212668 0.651795 0.632443
0.631907 0.631477 0.617832
0.951135 0.597151 0.593509
1.000000 0.589503 0.588154
0.304695 1.000000 0.680921
0.373100 1.000000 0.679263
0.695167 1.000000 0.665910
0.990228 0.997508 0.643803
1.000000 0.993518 0.638957
0.336030 1.000000 0.690395
0.398687 1.000000 0.688765
0.707789 1.000000 0.675643
0.998327 1.000000 0.653942
1.000000 1.000000 0.649191
0.000000 0.000000 0.927387
0.000000 0.000000 0.926266
0.518090 0.000000 0.917297
0.887761 0.000000 0.902689
0.944535 0.000000 0.899529
0.000000 0.000000 0.929749
0.000000 0.000000 0.928631
0.524712 0.000000 0.919692
0.891181 0.000000 0.905133
0.947693 0.000000 0.901984
0.000000 0.585127 0.948270
0.000000 0.582258 0.947181
0.574214 0.558820 0.938470
0.917824 0.518608 0.924291
0.972367 0.509528 0.921227
0.130566 0.991256 0.977097
0.251063 0.989779 0.976049
0.644434 0.977941 0.967672
0.958671 0.958581 0.954054
1.000000 0.954380 0.951112
0.191038 1.000000 0.983116
0.288509 1.000000 0.982077
0.658268 1.000000 0.973767
0.967115 1.000000 0.960261
1.000000 1.000000 0.957344
0.000000 0.000000 0.981647
0.000000 0.000000 0.980606
0.502661 0.000000 0.972280
0.879927 0.000000 0.958746
0.937306 0.000000 0.955823
0.000000 0.000000 0.983842
0.000000 0.000000 0.982803
0.509521 0.000000 0.974501
0.883386 0.000000 0.961008
0.940496 0.000000 0.958094
0.000000 0.568605 1.000000
0.000000 0.565633 1.000000
0.560616 0.541326 0.991953
0.910321 0.499426 0.978772
0.965407 0.489923 0.975926
0.057614 0.982833 1.000000
0.215096 0.981340 1.000000
0.632653 0.969369 1.000000
0.951581 0.949782 1.000000
1.000000 0.945531 1.000000
0.142234 1.000000 1.000000
0.257774 1.000000 1.000000
0.646797 1.000000 1.000000
0.960105 1.000000 1.000000
1.000000 1.000000 1.000000
