s709/sP3Cubes/SL3SG3tosP3DCI.cube
# sP3DCI LUT
# S-Log3/S-Gamut3 to P3(DCI)
LUT_3D_SIZE 5
0.000000 0.000000 0.000000
0.207113 0.000000 0.000000
0.672217 0.000000 0.000000
0.980106 0.193078 0.192180
1.000000 0.776757 0.757079
0.000000 0.196158 0.011421
0.189480 0.188984 0.000591
0.671265 0.129783 0.000000
0.981936 0.332837 0.211879
1.000000 0.786771 0.758215
0.000000 0.683583 0.200236
0.052787 0.681716 0.195480
0.660494 0.663649 0.143084
0.990417 0.669403 0.296301
1.000000 0.847847 0.765761
0.000000 1.000000 0.466993
0.000000 1.000000 0.465516
0.000000 1.000000 0.453546
0.996840 1.000000 0.483952
1.000000 0.986007 0.794917
0.000000 1.000000 0.964052
0.000000 1.000000 0.963020
0.000000 1.000000 0.954908
0.000000 1.000000 0.872333
1.000000 1.000000 0.883372
0.000000 0.000000 0.158173
0.196902 0.000000 0.151449
0.669050 0.000000 0.099559
0.977399 0.177691 0.305017
1.000000 0.775840 0.765842
0.000000 0.185529 0.176665
0.178512 0.178283 0.170976
0.668098 0.113201 0.125904
0.979247 0.323938 0.317392
1.000000 0.785850 0.766949
0.000000 0.680156 0.288295
0.030006 0.678238 0.285600
0.657037 0.659723 0.257163
0.987755 0.664487 0.377041
1.000000 0.846899 0.774296
0.000000 1.000000 0.521645
0.000000 1.000000 0.520302
0.000000 1.000000 0.509192
0.994673 1.000000 0.525437
1.000000 0.985121 0.802383
0.000000 1.000000 0.971001
0.000000 1.000000 0.969970
0.000000 1.000000 0.961867
0.000000 1.000000 0.879797
1.000000 1.000000 0.886423
0.000000 0.000000 0.593406
0.083434 0.000000 0.591347
0.644015 0.000000 0.577515
0.963975 0.116158 0.601346
1.000000 0.770451 0.819641
0.000000 0.071966 0.598457
0.050151 0.060654 0.596608
0.643382 0.000000 0.582879
0.965781 0.286758 0.606475
1.000000 0.780459 0.820601
0.000000 0.652390 0.633571
0.000000 0.650405 0.632089
0.631871 0.631466 0.617714
0.974393 0.641673 0.632472
1.000000 0.841060 0.826892
0.000000 1.000000 0.728292
0.000000 1.000000 0.726955
0.000000 1.000000 0.716381
0.983088 0.988796 0.699915
1.000000 0.979340 0.849107
0.000000 1.000000 1.000000
0.000000 1.000000 1.000000
0.000000 1.000000 1.000000
0.000000 1.000000 0.925880
1.000000 1.000000 0.907330
0.000000 0.254447 0.936539
0.115294 0.246202 0.934649
0.622413 0.212215 0.925521
0.941832 0.345522 0.916914
1.000000 0.777547 0.945794
0.000000 0.357328 0.939215
0.080489 0.351460 0.937375
0.621603 0.325627 0.928045
0.943124 0.409079 0.918877
1.000000 0.786253 0.946413
0.000000 0.659117 0.953293
0.000000 0.657007 0.952047
0.607302 0.638594 0.941493
0.949963 0.646159 0.929629
1.000000 0.838059 0.950286
0.000000 1.000000 0.992076
0.000000 1.000000 0.990922
0.000000 0.994696 0.981851
0.958656 0.958577 0.954015
1.000000 0.964754 0.961564
0.000000 1.000000 1.000000
0.000000 1.000000 1.000000
0.000000 1.000000 1.000000
0.000000 1.000000 1.000000
1.000000 1.000000 0.972843
0.619260 0.853293 1.000000
0.643319 0.852213 1.000000
0.767963 0.846031 1.000000
0.958444 0.842336 0.996781
1.000000 0.901177 0.999410
0.615820 0.858791 1.000000
0.640196 0.857707 1.000000
0.766646 0.851461 1.000000
0.958637 0.846935 0.997116
1.000000 0.903421 0.999587
0.584707 0.892702 1.000000
0.614170 0.891464 1.000000
0.755007 0.884668 1.000000
0.959825 0.877122 0.999377
1.000000 0.916973 1.000000
0.000000 1.000000 1.000000
0.000000 1.000000 1.000000
0.499609 0.989704 1.000000
0.958640 0.966758 1.000000
1.000000 0.969461 1.000000
0.000000 1.000000 1.000000
0.000000 1.000000 1.000000
0.000000 1.000000 1.000000
0.000000 1.000000 1.000000
1.000000 1.000000 1.000000
