Stocked.cube
LUT_3D_SIZE 5
DOMAIN_MIN 0.000000 0.000000 0.000000
DOMAIN_MAX 0.903226 0.903226 0.903226
0.0541 0.0539 0.0544
0.1731 0.0777 0.0785
0.5495 0.0777 0.0824
0.8836 0.0458 0.0902
0.9402 0.0433 0.1039
0.0831 0.1531 0.0835
0.1616 0.1539 0.0847
0.5546 0.1371 0.0771
0.8847 0.0854 0.0824
0.9411 0.0862 0.0954
0.0598 0.4126 0.0604
0.0819 0.4308 0.0562
0.5463 0.4395 0.0372
0.8996 0.4255 0.0366
0.9574 0.4421 0.0406
0.0182 0.7275 0.0277
0.0673 0.7647 0.0286
0.3763 0.8002 0.0252
0.8873 0.8266 0.0395
0.9686 0.8054 0.0406
0.0199 0.9064 0.0319
0.0683 0.9102 0.0320
0.1745 0.9159 0.0295
0.8461 0.9332 0.0373
0.9681 0.9384 0.0402
0.0684 0.0684 0.1511
0.1973 0.0811 0.1540
0.5827 0.0750 0.1706
0.8845 0.0450 0.1908
0.9398 0.0424 0.2032
0.0836 0.1526 0.1568
0.1426 0.1510 0.1564
0.5620 0.1245 0.1632
0.8836 0.0854 0.1863
0.9380 0.0856 0.1986
0.0500 0.4558 0.0784
0.0767 0.4504 0.0794
0.5496 0.4733 0.0765
0.9047 0.4476 0.1031
0.9609 0.4717 0.1022
0.0184 0.7471 0.0774
0.0678 0.7793 0.0787
0.3247 0.8243 0.0714
0.8867 0.8460 0.0889
0.9687 0.8322 0.0904
0.0201 0.9142 0.0810
0.0694 0.9210 0.0824
0.1490 0.9236 0.0804
0.8546 0.9398 0.0844
0.9695 0.9424 0.0889
0.0849 0.0858 0.4632
0.1162 0.0853 0.4462
0.6142 0.0701 0.4250
0.8921 0.0432 0.4402
0.9453 0.0421 0.4382
0.0853 0.1082 0.4686
0.1021 0.1080 0.4786
0.5933 0.1002 0.4413
0.8939 0.0892 0.4511
0.9478 0.0905 0.4508
0.0468 0.4496 0.4874
0.0760 0.4566 0.4811
0.4494 0.4652 0.4799
0.8977 0.4812 0.4708
0.9559 0.4959 0.4705
0.0253 0.8504 0.4853
0.0721 0.8238 0.3987
0.1344 0.8329 0.3830
0.8761 0.8612 0.2516
0.9687 0.8501 0.3031
0.0218 0.9273 0.1512
0.0692 0.9224 0.1382
0.1360 0.9271 0.1489
0.8466 0.9430 0.1729
0.9692 0.9435 0.1976
0.0803 0.0849 0.8089
0.0989 0.0836 0.7903
0.5735 0.0693 0.7671
0.8963 0.0490 0.7508
0.9477 0.0567 0.7773
0.0794 0.1160 0.8082
0.0979 0.1140 0.8242
0.5003 0.1035 0.8178
0.8932 0.0970 0.7882
0.9452 0.1035 0.8073
0.0556 0.3485 0.8244
0.0807 0.3731 0.8286
0.2579 0.4063 0.8378
0.8923 0.3765 0.8164
0.9511 0.4257 0.8260
0.0267 0.8028 0.8343
0.0758 0.8082 0.8317
0.1246 0.8182 0.8319
0.8444 0.8408 0.8402
0.9692 0.8396 0.8319
0.0298 0.9411 0.8392
0.0790 0.9439 0.8343
0.1267 0.9427 0.8116
0.8105 0.9600 0.7918
0.9699 0.9577 0.7654
0.0750 0.0916 0.9315
0.0953 0.0885 0.9319
0.4761 0.0750 0.9334
0.8968 0.0607 0.9359
0.9490 0.0653 0.9353
0.0736 0.1279 0.9318
0.0947 0.1275 0.9351
0.3976 0.1138 0.9363
0.8955 0.1063 0.9432
0.9490 0.1081 0.9380
0.0496 0.3529 0.9363
0.0791 0.3727 0.9378
0.1220 0.4232 0.9405
0.8802 0.3261 0.9464
0.9514 0.3135 0.9433
0.0273 0.7948 0.9470
0.0763 0.7998 0.9475
0.1249 0.8102 0.9470
0.8205 0.8357 0.9660
0.9681 0.8146 0.9632
0.0291 0.9363 0.9455
0.0780 0.9374 0.9444
0.1269 0.9400 0.9445
0.7223 0.9568 0.9583
0.9629 0.9591 0.9568
