Stocked.cube
LUT_3D_SIZE 8
DOMAIN_MIN 0.000000 0.000000 0.000000
DOMAIN_MAX 0.903226 0.903226 0.903226
0.0541 0.0539 0.0544
0.0883 0.0644 0.0650
0.2093 0.0809 0.0818
0.4238 0.0840 0.0861
0.6660 0.0681 0.0793
0.8648 0.0475 0.0864
0.9080 0.0442 0.0990
0.9402 0.0433 0.1039
0.0718 0.0919 0.0722
0.0890 0.0922 0.0735
0.2109 0.1003 0.0831
0.4238 0.0948 0.0853
0.6613 0.0808 0.0773
0.8640 0.0676 0.0834
0.9083 0.0667 0.0965
0.9404 0.0674 0.1013
0.0847 0.1783 0.0851
0.0909 0.1782 0.0851
0.1966 0.1786 0.0856
0.4208 0.1743 0.0815
0.6736 0.1518 0.0689
0.8711 0.1060 0.0743
0.9098 0.0923 0.0881
0.9414 0.0938 0.0920
0.0762 0.3199 0.0766
0.0825 0.3254 0.0758
0.1129 0.3330 0.0744
0.4092 0.3316 0.0647
0.6747 0.3192 0.0482
0.8831 0.3202 0.0356
0.9204 0.3228 0.0411
0.9532 0.3332 0.0468
0.0376 0.5052 0.0390
0.0506 0.5205 0.0355
0.0813 0.5322 0.0325
0.3305 0.5423 0.0244
0.6789 0.5608 0.0322
0.8890 0.5474 0.0393
0.9317 0.5487 0.0429
0.9632 0.5631 0.0448
0.0176 0.6874 0.0269
0.0457 0.7079 0.0274
0.0803 0.7278 0.0273
0.1479 0.7464 0.0287
0.6147 0.7722 0.0331
0.8604 0.7804 0.0389
0.9365 0.7611 0.0394
0.9681 0.7572 0.0413
0.0191 0.8333 0.0298
0.0470 0.8552 0.0303
0.0809 0.8708 0.0301
0.1253 0.8771 0.0298
0.5431 0.8942 0.0302
0.8202 0.9019 0.0377
0.9354 0.9031 0.0400
0.9689 0.9020 0.0413
0.0199 0.9064 0.0319
0.0475 0.9070 0.0319
0.0752 0.9113 0.0321
0.1260 0.9149 0.0309
0.5019 0.9261 0.0264
0.8062 0.9331 0.0365
0.9276 0.9353 0.0386
0.9681 0.9384 0.0402
0.0597 0.0595 0.0839
0.0956 0.0672 0.0888
0.2249 0.0822 0.1036
0.4467 0.0833 0.1132
0.6803 0.0667 0.1214
0.8702 0.0472 0.1348
0.9080 0.0447 0.1467
0.9399 0.0442 0.1522
0.0717 0.0897 0.0914
0.0877 0.0900 0.0921
0.2060 0.0984 0.1014
0.4197 0.0934 0.1094
0.6657 0.0805 0.1179
0.8658 0.0680 0.1323
0.9081 0.0678 0.1450
0.9402 0.0688 0.1508
0.0850 0.1874 0.0940
0.0911 0.1826 0.0948
0.1895 0.1827 0.0956
0.4266 0.1748 0.1004
0.6668 0.1469 0.1090
0.8668 0.1020 0.1248
0.9086 0.0927 0.1382
0.9402 0.0948 0.1434
0.0746 0.3315 0.0823
0.0808 0.3380 0.0815
0.1005 0.3441 0.0803
0.4171 0.3451 0.0732
0.6945 0.3284 0.0699
0.8860 0.3210 0.0879
0.9211 0.3270 0.1019
0.9544 0.3466 0.0972
0.0358 0.5122 0.0552
0.0491 0.5334 0.0539
0.0766 0.5513 0.0525
0.3250 0.5698 0.0477
0.6925 0.5849 0.0620
0.8981 0.5586 0.0667
0.9355 0.5621 0.0694
0.9655 0.5724 0.0703
0.0175 0.6823 0.0547
0.0462 0.7170 0.0562
0.0745 0.7403 0.0568
0.1298 0.7639 0.0563
0.6273 0.7955 0.0618
0.8648 0.7975 0.0677
0.9395 0.7820 0.0684
0.9684 0.7717 0.0687
0.0191 0.8333 0.0578
0.0476 0.8679 0.0592
0.0751 0.8760 0.0594
0.1243 0.8835 0.0585
0.5477 0.8986 0.0576
0.8253 0.9049 0.0659
0.9369 0.9057 0.0684
0.9692 0.9055 0.0697
0.0200 0.9107 0.0599
0.0485 0.9175 0.0613
0.0758 0.9206 0.0616
0.1228 0.9220 0.0603
0.4998 0.9313 0.0544
0.8121 0.9375 0.0634
0.9310 0.9382 0.0664
0.9694 0.9407 0.0683
0.0714 0.0715 0.1813
0.0887 0.0728 0.1809
0.2398 0.0837 0.1808
0.4698 0.0820 0.1889
0.6957 0.0646 0.1987
0.8769 0.0451 0.2103
0.9087 0.0428 0.2194
0.9395 0.0413 0.2242
0.0743 0.0844 0.1823
0.0857 0.0851 0.1837
0.2195 0.0911 0.1803
0.4464 0.0912 0.1860
0.6829 0.0789 0.1953
0.8730 0.0663 0.2082
0.9081 0.0657 0.2180
0.9390 0.0656 0.2227
0.0851 0.1800 0.1863
0.0916 0.1798 0.1841
0.1704 0.1775 0.1844
0.4219 0.1728 0.1842
0.6789 0.1339 0.1893
0.8693 0.0920 0.2040
0.9079 0.0915 0.2148
0.9390 0.0967 0.2156
0.0671 0.3758 0.1363
0.0780 0.3594 0.1194
0.0942 0.3566 0.1230
0.3952 0.3565 0.1235
0.6965 0.3310 0.1509
0.8875 0.3357 0.1664
0.9232 0.3447 0.1722
0.9546 0.3566 0.1734
0.0233 0.5598 0.0789
0.0475 0.5445 0.0789
0.0731 0.5568 0.0800
0.2706 0.5800 0.0745
0.6779 0.6004 0.0901
0.8968 0.5746 0.0936
0.9354 0.5809 0.0942
0.9667 0.5942 0.0955
0.0181 0.7199 0.0839
0.0461 0.7172 0.0839
0.0745 0.7452 0.0852
0.1209 0.7729 0.0848
0.6066 0.8068 0.0879
0.8590 0.8082 0.0955
0.9393 0.7961 0.0968
0.9685 0.7893 0.0971
0.0195 0.8688 0.0866
0.0474 0.8606 0.0865
0.0757 0.8782 0.0879
0.1213 0.8852 0.0871
0.5279 0.9006 0.0834
0.8255 0.9077 0.0932
0.9378 0.9084 0.0964
0.9692 0.9075 0.0977
0.0202 0.9160 0.0881
0.0482 0.9149 0.0882
0.0762 0.9210 0.0891
0.1181 0.9231 0.0878
0.4827 0.9328 0.0824
0.8150 0.9410 0.0899
0.9330 0.9409 0.0938
0.9697 0.9426 0.0960
0.0822 0.0827 0.3564
0.0887 0.0822 0.3443
0.2212 0.0850 0.3315
0.4896 0.0800 0.3288
0.7142 0.0614 0.3376
0.8824 0.0436 0.3489
0.9130 0.0416 0.3564
0.9423 0.0397 0.3585
0.0827 0.0916 0.3539
0.0900 0.0924 0.3633
0.1769 0.0929 0.3571
0.4830 0.0899 0.3329
0.7039 0.0766 0.3341
0.8815 0.0654 0.3467
0.9122 0.0651 0.3542
0.9417 0.0650 0.3565
0.0845 0.1221 0.3661
0.0914 0.1234 0.3662
0.1225 0.1243 0.3688
0.4410 0.1220 0.3452
0.7039 0.0985 0.3459
0.8842 0.0918 0.3539
0.9151 0.0935 0.3618
0.9459 0.0941 0.3605
0.0703 0.3427 0.3710
0.0785 0.3455 0.3656
0.0944 0.3488 0.3635
0.3380 0.3453 0.3630
0.6684 0.3497 0.3497
0.8782 0.3580 0.3586
0.9174 0.3630 0.3626
0.9496 0.3729 0.3630
0.0201 0.6077 0.3600
0.0483 0.6134 0.3521
0.0747 0.5930 0.3080
0.1099 0.5930 0.2929
0.6526 0.6127 0.2576
0.8895 0.6063 0.2804
0.9354 0.6169 0.2833
0.9669 0.6269 0.2822
0.0233 0.7987 0.2904
0.0493 0.7723 0.1943
0.0764 0.7580 0.1747
0.1098 0.7892 0.1592
0.5616 0.8115 0.1422
0.8509 0.8207 0.1323
0.9388 0.8112 0.1596
0.9688 0.8096 0.1670
0.0206 0.8870 0.1180
0.0478 0.8828 0.1152
0.0758 0.8791 0.1162
0.1094 0.8896 0.1181
0.4834 0.9005 0.1132
0.8211 0.9098 0.1193
0.9373 0.9113 0.1232
0.9692 0.9082 0.1257
0.0205 0.9245 0.1166
0.0484 0.9212 0.1165
0.0760 0.9191 0.1159
0.1128 0.9222 0.1152
0.4430 0.9333 0.1097
0.8082 0.9427 0.1177
0.9315 0.9427 0.1203
0.9695 0.9430 0.1237
0.0854 0.0869 0.5684
0.0922 0.0866 0.5558
0.1237 0.0862 0.5452
0.4751 0.0794 0.5214
0.7267 0.0592 0.5204
0.8858 0.0457 0.5254
0.9166 0.0451 0.5198
0.9472 0.0451 0.5130
0.0853 0.0977 0.5676
0.0922 0.0974 0.5773
0.1061 0.0960 0.5624
0.4455 0.0916 0.5333
0.7302 0.0774 0.5178
0.8866 0.0703 0.5154
0.9177 0.0714 0.5171
0.9477 0.0717 0.5128
0.0850 0.1171 0.5762
0.0921 0.1162 0.5785
0.1061 0.1159 0.5909
0.3788 0.1105 0.5821
0.7071 0.1047 0.5499
0.8841 0.1020 0.5596
0.9167 0.1030 0.5615
0.9472 0.1042 0.5613
0.0747 0.2751 0.5920
0.0823 0.2827 0.5945
0.0972 0.2949 0.5958
0.2210 0.3068 0.6049
0.6670 0.3170 0.5749
0.8779 0.3234 0.5777
0.9203 0.3246 0.5755
0.9514 0.3387 0.5748
0.0209 0.5601 0.6063
0.0480 0.5649 0.6024
0.0759 0.5720 0.6020
0.1039 0.5800 0.6006
0.5801 0.5977 0.6038
0.8614 0.6010 0.5941
0.9301 0.6092 0.5929
0.9633 0.6162 0.5866
0.0256 0.7998 0.6122
0.0538 0.8083 0.6064
0.0818 0.8123 0.6033
0.1086 0.8007 0.5729
0.4423 0.7990 0.5459
0.8355 0.8206 0.5100
0.9374 0.8174 0.5191
0.9694 0.8191 0.5159
0.0275 0.9059 0.6158
0.0550 0.9048 0.5881
0.0811 0.8996 0.5306
0.1080 0.8953 0.5098
0.3153 0.8990 0.5071
0.8047 0.9154 0.4994
0.9340 0.9134 0.4109
0.9693 0.9097 0.4071
0.0270 0.9368 0.5557
0.0530 0.9357 0.4734
0.0788 0.9293 0.4080
0.1069 0.9276 0.4366
0.3222 0.9317 0.4253
0.7948 0.9464 0.4556
0.9267 0.9453 0.4314
0.9692 0.9440 0.3588
0.0817 0.0853 0.7690
0.0894 0.0846 0.7598
0.1041 0.0846 0.7357
0.4251 0.0781 0.7190
0.7238 0.0594 0.7067
0.8887 0.0474 0.6905
0.9189 0.0503 0.7098
0.9479 0.0544 0.7191
0.0812 0.0994 0.7705
0.0888 0.0979 0.7760
0.1036 0.0962 0.7653
0.3600 0.0920 0.7625
0.6987 0.0812 0.7298
0.8842 0.0761 0.7336
0.9173 0.0796 0.7466
0.9463 0.0828 0.7537
0.0805 0.1214 0.7697
0.0883 0.1193 0.7737
0.1030 0.1184 0.7902
0.2631 0.1133 0.7849
0.6868 0.1052 0.7663
0.8799 0.1038 0.7502
0.9159 0.1066 0.7600
0.9452 0.1106 0.7709
0.0789 0.1497 0.7816
0.0867 0.1542 0.7852
0.1014 0.1682 0.7881
0.1244 0.2038 0.7962
0.6202 0.1546 0.7925
0.8693 0.1854 0.7674
0.9157 0.1931 0.7752
0.9468 0.2177 0.7836
0.0235 0.5216 0.7975
0.0495 0.5291 0.7993
0.0772 0.5384 0.8006
0.1052 0.5527 0.8007
0.5043 0.5636 0.8092
0.8491 0.5562 0.7925
0.9273 0.5739 0.7983
0.9599 0.5893 0.7999
0.0258 0.7636 0.8022
0.0540 0.7673 0.8008
0.0820 0.7725 0.8000
0.1100 0.7810 0.8008
0.2428 0.7870 0.7984
0.8082 0.8065 0.8061
0.9364 0.8059 0.8047
0.9685 0.8075 0.7974
0.0281 0.8971 0.8028
0.0563 0.9007 0.8013
0.0845 0.9044 0.8014
0.1125 0.9078 0.8028
0.1396 0.9030 0.7837
0.7694 0.9182 0.7762
0.9247 0.9227 0.7569
0.9707 0.9170 0.7548
0.0299 0.9422 0.8085
0.0582 0.9446 0.8063
0.0857 0.9445 0.7914
0.1126 0.9427 0.7708
0.1394 0.9392 0.7482
0.7624 0.9578 0.7345
0.9166 0.9586 0.7466
0.9699 0.9537 0.6916
0.0768 0.0886 0.8941
0.0852 0.0871 0.8927
0.1007 0.0849 0.8881
0.3055 0.0788 0.8879
0.6897 0.0597 0.8762
0.8822 0.0545 0.8781
0.9192 0.0571 0.8805
0.9477 0.0637 0.8929
0.0762 0.1068 0.8944
0.0847 0.1060 0.8964
0.1003 0.1040 0.8962
0.2145 0.0946 0.8975
0.6812 0.0811 0.8978
0.8813 0.0797 0.8828
0.9188 0.0807 0.8800
0.9464 0.0856 0.8902
0.0753 0.1286 0.8932
0.0840 0.1286 0.8953
0.0999 0.1297 0.9010
0.1304 0.1229 0.8987
0.6310 0.1085 0.9023
0.8806 0.1090 0.9007
0.9184 0.1077 0.8891
0.9464 0.1108 0.8934
0.0740 0.1547 0.8938
0.0830 0.1551 0.8964
0.0992 0.1551 0.8979
0.1198 0.1596 0.9025
0.5732 0.1405 0.9055
0.8708 0.1369 0.9077
0.9176 0.1369 0.8977
0.9469 0.1433 0.8972
0.0231 0.5115 0.9004
0.0500 0.5212 0.9019
0.0781 0.5316 0.9037
0.1061 0.5461 0.9045
0.4533 0.5610 0.9117
0.8339 0.5174 0.9122
0.9240 0.5182 0.9041
0.9551 0.5318 0.9012
0.0261 0.7503 0.9004
0.0543 0.7549 0.9012
0.0823 0.7591 0.9014
0.1104 0.7698 0.9024
0.1800 0.7750 0.9004
0.7870 0.7958 0.9175
0.9344 0.7881 0.9130
0.9672 0.7918 0.9112
0.0280 0.8820 0.8982
0.0561 0.8835 0.8977
0.0840 0.8852 0.8971
0.1120 0.8894 0.8986
0.1395 0.8894 0.8960
0.7127 0.9077 0.9105
0.9144 0.9093 0.9084
0.9696 0.9065 0.9033
0.0292 0.9380 0.8994
0.0574 0.9389 0.8982
0.0855 0.9406 0.8978
0.1136 0.9432 0.8986
0.1412 0.9440 0.8967
0.5697 0.9553 0.8954
0.9026 0.9634 0.8946
0.9664 0.9627 0.8897
0.0750 0.0916 0.9315
0.0839 0.0900 0.9319
0.0998 0.0881 0.9319
0.1303 0.0836 0.9307
0.6514 0.0638 0.9353
0.8838 0.0605 0.9366
0.9206 0.0610 0.9340
0.9490 0.0653 0.9353
0.0743 0.1115 0.9317
0.0835 0.1103 0.9330
0.0995 0.1080 0.9341
0.1321 0.1014 0.9334
0.6268 0.0882 0.9375
0.8831 0.0868 0.9415
0.9208 0.0870 0.9382
0.9491 0.0894 0.9367
0.0734 0.1338 0.9319
0.0827 0.1335 0.9328
0.0992 0.1334 0.9359
0.1302 0.1265 0.9361
0.5919 0.1163 0.9391
0.8730 0.1121 0.9431
0.9200 0.1129 0.9414
0.9492 0.1146 0.9382
0.0720 0.1587 0.9327
0.0817 0.1586 0.9334
0.0979 0.1743 0.9351
0.1181 0.2027 0.9371
0.5347 0.1777 0.9402
0.8495 0.1405 0.9440
0.9186 0.1419 0.9439
0.9497 0.1433 0.9405
0.0226 0.5303 0.9413
0.0509 0.5374 0.9421
0.0790 0.5460 0.9432
0.1069 0.5600 0.9438
0.4104 0.5807 0.9490
0.8108 0.5420 0.9525
0.9242 0.5205 0.9514
0.9561 0.5131 0.9478
0.0267 0.7548 0.9472
0.0549 0.7601 0.9481
0.0828 0.7640 0.9480
0.1107 0.7743 0.9490
0.1400 0.7780 0.9477
0.7707 0.8014 0.9651
0.9325 0.7818 0.9661
0.9679 0.7723 0.9618
0.0282 0.8782 0.9452
0.0563 0.8800 0.9456
0.0842 0.8810 0.9451
0.1121 0.8855 0.9459
0.1397 0.8859 0.9446
0.6964 0.9036 0.9582
0.9079 0.9070 0.9623
0.9680 0.9012 0.9588
0.0291 0.9363 0.9455
0.0572 0.9372 0.9452
0.0851 0.9376 0.9445
0.1130 0.9396 0.9450
0.1407 0.9402 0.9445
0.5802 0.9518 0.9523
0.8906 0.9594 0.9609
0.9629 0.9591 0.9568
