Stocked.cube
LUT_3D_SIZE 32
0.0541 0.0539 0.0544
0.0565 0.0549 0.0554
0.0612 0.0567 0.0573
0.0711 0.0599 0.0605
0.0883 0.0644 0.0650
0.1122 0.0693 0.0699
0.1412 0.0739 0.0746
0.1731 0.0777 0.0785
0.2093 0.0809 0.0818
0.2533 0.0835 0.0845
0.3048 0.0851 0.0862
0.3623 0.0853 0.0867
0.4238 0.0840 0.0861
0.4861 0.0815 0.0845
0.5495 0.0777 0.0824
0.6088 0.0732 0.0806
0.6660 0.0681 0.0793
0.7215 0.0626 0.0793
0.7742 0.0572 0.0807
0.8238 0.0518 0.0831
0.8648 0.0475 0.0864
0.8836 0.0458 0.0902
0.8917 0.0453 0.0940
0.8996 0.0447 0.0968
0.9080 0.0442 0.0990
0.9161 0.0438 0.1009
0.9239 0.0435 0.1021
0.9322 0.0433 0.1032
0.9402 0.0433 0.1039
0.9486 0.0434 0.1047
0.9577 0.0435 0.1054
0.9682 0.0435 0.1062
0.0570 0.0580 0.0573
0.0589 0.0586 0.0579
0.0629 0.0598 0.0591
0.0720 0.0623 0.0617
0.0880 0.0660 0.0656
0.1120 0.0708 0.0703
0.1412 0.0753 0.0748
0.1736 0.0790 0.0787
0.2090 0.0820 0.0818
0.2532 0.0847 0.0845
0.3047 0.0862 0.0862
0.3623 0.0865 0.0867
0.4238 0.0854 0.0860
0.4861 0.0829 0.0844
0.5483 0.0795 0.0824
0.6085 0.0752 0.0804
0.6657 0.0705 0.0792
0.7204 0.0654 0.0790
0.7742 0.0604 0.0805
0.8238 0.0555 0.0829
0.8646 0.0518 0.0861
0.8834 0.0505 0.0900
0.8917 0.0500 0.0936
0.8997 0.0497 0.0965
0.9080 0.0494 0.0987
0.9158 0.0491 0.1004
0.9239 0.0489 0.1017
0.9322 0.0490 0.1028
0.9402 0.0491 0.1036
0.9488 0.0493 0.1043
0.9576 0.0494 0.1050
0.9681 0.0497 0.1056
0.0607 0.0643 0.0610
0.0622 0.0646 0.0613
0.0654 0.0652 0.0620
0.0734 0.0668 0.0638
0.0892 0.0698 0.0670
0.1136 0.0740 0.0713
0.1419 0.0778 0.0753
0.1736 0.0810 0.0789
0.2087 0.0838 0.0819
0.2513 0.0863 0.0844
0.3018 0.0880 0.0861
0.3602 0.0883 0.0865
0.4229 0.0873 0.0859
0.4852 0.0850 0.0843
0.5477 0.0817 0.0821
0.6082 0.0777 0.0801
0.6645 0.0734 0.0787
0.7194 0.0688 0.0783
0.7729 0.0643 0.0797
0.8222 0.0600 0.0820
0.8648 0.0567 0.0854
0.8836 0.0555 0.0892
0.8917 0.0553 0.0929
0.9000 0.0551 0.0959
0.9079 0.0549 0.0982
0.9159 0.0547 0.0999
0.9241 0.0547 0.1012
0.9323 0.0549 0.1022
0.9404 0.0551 0.1030
0.9487 0.0553 0.1036
0.9575 0.0555 0.1042
0.9680 0.0559 0.1048
0.0662 0.0758 0.0665
0.0674 0.0760 0.0667
0.0696 0.0762 0.0670
0.0757 0.0764 0.0676
0.0887 0.0783 0.0696
0.1121 0.0813 0.0728
0.1404 0.0847 0.0763
0.1737 0.0879 0.0797
0.2116 0.0903 0.0825
0.2529 0.0915 0.0846
0.3034 0.0919 0.0861
0.3604 0.0910 0.0864
0.4197 0.0898 0.0857
0.4842 0.0876 0.0840
0.5446 0.0846 0.0818
0.6055 0.0809 0.0796
0.6630 0.0769 0.0780
0.7189 0.0726 0.0775
0.7718 0.0686 0.0788
0.8216 0.0649 0.0811
0.8640 0.0620 0.0844
0.8836 0.0611 0.0885
0.8917 0.0609 0.0922
0.8999 0.0608 0.0951
0.9081 0.0607 0.0974
0.9161 0.0606 0.0992
0.9241 0.0608 0.1005
0.9322 0.0610 0.1015
0.9403 0.0611 0.1022
0.9486 0.0613 0.1028
0.9577 0.0617 0.1034
0.9680 0.0622 0.1039
0.0718 0.0919 0.0722
0.0728 0.0915 0.0722
0.0746 0.0920 0.0724
0.0791 0.0917 0.0727
0.0890 0.0922 0.0735
0.1107 0.0932 0.0753
0.1386 0.0956 0.0779
0.1735 0.0985 0.0808
0.2109 0.1003 0.0831
0.2533 0.1008 0.0849
0.3064 0.1007 0.0861
0.3637 0.0987 0.0861
0.4238 0.0948 0.0853
0.4868 0.0909 0.0835
0.5469 0.0877 0.0812
0.6058 0.0844 0.0790
0.6613 0.0808 0.0773
0.7175 0.0769 0.0767
0.7704 0.0734 0.0776
0.8213 0.0700 0.0800
0.8640 0.0676 0.0834
0.8836 0.0668 0.0874
0.8917 0.0668 0.0912
0.9000 0.0667 0.0942
0.9083 0.0667 0.0965
0.9162 0.0667 0.0982
0.9242 0.0670 0.0996
0.9325 0.0673 0.1006
0.9404 0.0674 0.1013
0.9484 0.0675 0.1018
0.9575 0.0679 0.1024
0.9679 0.0686 0.1028
0.0764 0.1094 0.0768
0.0774 0.1094 0.0768
0.0789 0.1095 0.0769
0.0822 0.1094 0.0770
0.0894 0.1091 0.0773
0.1066 0.1101 0.0783
0.1365 0.1106 0.0800
0.1716 0.1129 0.0821
0.2092 0.1145 0.0839
0.2529 0.1149 0.0853
0.3040 0.1141 0.0860
0.3641 0.1119 0.0858
0.4273 0.1071 0.0846
0.4923 0.1007 0.0827
0.5517 0.0927 0.0804
0.6116 0.0880 0.0781
0.6664 0.0848 0.0764
0.7198 0.0814 0.0756
0.7712 0.0784 0.0764
0.8213 0.0755 0.0787
0.8638 0.0734 0.0821
0.8835 0.0728 0.0861
0.8918 0.0728 0.0899
0.9001 0.0728 0.0929
0.9081 0.0729 0.0952
0.9165 0.0730 0.0970
0.9243 0.0732 0.0983
0.9326 0.0734 0.0993
0.9406 0.0735 0.0999
0.9488 0.0737 0.1003
0.9575 0.0742 0.1009
0.9678 0.0750 0.1013
0.0803 0.1302 0.0807
0.0811 0.1297 0.0806
0.0826 0.1301 0.0807
0.0848 0.1300 0.0808
0.0900 0.1307 0.0810
0.1052 0.1308 0.0814
0.1317 0.1314 0.0823
0.1689 0.1314 0.0836
0.2076 0.1329 0.0848
0.2512 0.1332 0.0857
0.3019 0.1318 0.0859
0.3622 0.1299 0.0853
0.4256 0.1259 0.0838
0.4916 0.1196 0.0815
0.5551 0.1105 0.0790
0.6157 0.1010 0.0767
0.6712 0.0906 0.0750
0.7244 0.0863 0.0741
0.7758 0.0836 0.0750
0.8253 0.0811 0.0772
0.8658 0.0794 0.0805
0.8841 0.0790 0.0846
0.8923 0.0791 0.0884
0.9006 0.0791 0.0912
0.9086 0.0792 0.0935
0.9166 0.0794 0.0953
0.9246 0.0794 0.0965
0.9327 0.0796 0.0974
0.9406 0.0797 0.0979
0.9489 0.0800 0.0984
0.9575 0.0804 0.0989
0.9680 0.0814 0.0990
0.0831 0.1531 0.0835
0.0839 0.1526 0.0834
0.0852 0.1531 0.0835
0.0870 0.1525 0.0834
0.0905 0.1525 0.0835
0.1024 0.1534 0.0837
0.1268 0.1541 0.0842
0.1616 0.1539 0.0847
0.2036 0.1540 0.0854
0.2493 0.1550 0.0859
0.3017 0.1541 0.0857
0.3595 0.1517 0.0847
0.4233 0.1491 0.0827
0.4898 0.1444 0.0800
0.5546 0.1371 0.0771
0.6157 0.1274 0.0745
0.6740 0.1161 0.0725
0.7279 0.1049 0.0718
0.7802 0.0909 0.0726
0.8287 0.0870 0.0748
0.8684 0.0856 0.0782
0.8847 0.0854 0.0824
0.8927 0.0855 0.0862
0.9012 0.0856 0.0892
0.9089 0.0857 0.0914
0.9170 0.0858 0.0930
0.9250 0.0859 0.0942
0.9330 0.0860 0.0949
0.9411 0.0862 0.0954
0.9493 0.0864 0.0957
0.9580 0.0871 0.0961
0.9683 0.0880 0.0960
0.0847 0.1783 0.0851
0.0855 0.1783 0.0851
0.0868 0.1778 0.0851
0.0886 0.1783 0.0851
0.0909 0.1782 0.0851
0.0970 0.1786 0.0851
0.1220 0.1794 0.0853
0.1570 0.1801 0.0855
0.1966 0.1786 0.0856
0.2459 0.1790 0.0856
0.2996 0.1788 0.0850
0.3589 0.1768 0.0837
0.4208 0.1743 0.0815
0.4876 0.1716 0.0781
0.5543 0.1673 0.0745
0.6155 0.1609 0.0713
0.6736 0.1518 0.0689
0.7288 0.1395 0.0679
0.7820 0.1260 0.0685
0.8315 0.1176 0.0709
0.8711 0.1060 0.0743
0.8854 0.0950 0.0789
0.8937 0.0920 0.0828
0.9018 0.0921 0.0859
0.9098 0.0923 0.0881
0.9176 0.0924 0.0897
0.9256 0.0925 0.0909
0.9336 0.0926 0.0916
0.9414 0.0938 0.0920
0.9496 0.0965 0.0921
0.9587 0.1032 0.0920
0.9695 0.1089 0.0915
0.0851 0.2069 0.0855
0.0859 0.2062 0.0855
0.0872 0.2070 0.0855
0.0890 0.2063 0.0855
0.0912 0.2069 0.0855
0.0943 0.2080 0.0855
0.1071 0.2081 0.0855
0.1469 0.2090 0.0854
0.1881 0.2084 0.0852
0.2379 0.2074 0.0847
0.2954 0.2062 0.0838
0.3566 0.2051 0.0821
0.4186 0.2019 0.0797
0.4851 0.2002 0.0761
0.5516 0.1981 0.0717
0.6149 0.1947 0.0675
0.6746 0.1899 0.0641
0.7302 0.1835 0.0621
0.7833 0.1751 0.0622
0.8340 0.1641 0.0643
0.8750 0.1515 0.0679
0.8885 0.1424 0.0727
0.8966 0.1402 0.0767
0.9049 0.1402 0.0800
0.9124 0.1393 0.0822
0.9207 0.1395 0.0839
0.9288 0.1394 0.0850
0.9363 0.1402 0.0857
0.9446 0.1416 0.0862
0.9531 0.1441 0.0864
0.9615 0.1498 0.0862
0.9716 0.1582 0.0851
0.0841 0.2395 0.0845
0.0850 0.2394 0.0845
0.0862 0.2404 0.0844
0.0880 0.2412 0.0844
0.0903 0.2405 0.0844
0.0930 0.2414 0.0844
0.0988 0.2419 0.0843
0.1260 0.2439 0.0840
0.1735 0.2445 0.0835
0.2260 0.2441 0.0827
0.2870 0.2414 0.0814
0.3535 0.2388 0.0794
0.4188 0.2378 0.0766
0.4858 0.2355 0.0729
0.5516 0.2329 0.0685
0.6155 0.2315 0.0635
0.6753 0.2293 0.0580
0.7315 0.2262 0.0548
0.7857 0.2224 0.0537
0.8360 0.2178 0.0547
0.8787 0.2133 0.0580
0.8912 0.2089 0.0628
0.8993 0.2057 0.0670
0.9077 0.2033 0.0703
0.9156 0.2022 0.0726
0.9238 0.2029 0.0742
0.9318 0.2037 0.0753
0.9398 0.2065 0.0758
0.9482 0.2094 0.0761
0.9561 0.2162 0.0759
0.9643 0.2207 0.0756
0.9748 0.2318 0.0744
0.0812 0.2778 0.0816
0.0820 0.2789 0.0815
0.0833 0.2791 0.0815
0.0851 0.2803 0.0813
0.0874 0.2806 0.0813
0.0902 0.2817 0.0811
0.0945 0.2824 0.0810
0.1042 0.2846 0.0807
0.1498 0.2867 0.0800
0.2085 0.2852 0.0791
0.2751 0.2866 0.0771
0.3451 0.2836 0.0747
0.4162 0.2788 0.0720
0.4850 0.2779 0.0681
0.5504 0.2748 0.0639
0.6150 0.2724 0.0590
0.6762 0.2722 0.0535
0.7322 0.2713 0.0486
0.7864 0.2705 0.0437
0.8374 0.2689 0.0418
0.8812 0.2672 0.0448
0.8933 0.2657 0.0495
0.9016 0.2645 0.0530
0.9099 0.2649 0.0559
0.9182 0.2654 0.0582
0.9265 0.2672 0.0597
0.9346 0.2690 0.0607
0.9429 0.2721 0.0611
0.9509 0.2747 0.0613
0.9585 0.2805 0.0606
0.9668 0.2845 0.0596
0.9771 0.2922 0.0580
0.0762 0.3199 0.0766
0.0770 0.3212 0.0764
0.0782 0.3227 0.0762
0.0801 0.3242 0.0760
0.0825 0.3254 0.0758
0.0854 0.3267 0.0756
0.0890 0.3289 0.0752
0.0957 0.3289 0.0751
0.1129 0.3330 0.0744
0.1810 0.3335 0.0732
0.2518 0.3327 0.0715
0.3318 0.3356 0.0679
0.4092 0.3316 0.0647
0.4836 0.3261 0.0612
0.5530 0.3256 0.0566
0.6164 0.3233 0.0525
0.6747 0.3192 0.0482
0.7332 0.3201 0.0432
0.7871 0.3201 0.0389
0.8388 0.3202 0.0363
0.8831 0.3202 0.0356
0.8952 0.3202 0.0357
0.9038 0.3206 0.0359
0.9119 0.3214 0.0378
0.9204 0.3228 0.0411
0.9288 0.3246 0.0434
0.9368 0.3270 0.0451
0.9449 0.3295 0.0461
0.9532 0.3332 0.0468
0.9608 0.3383 0.0466
0.9687 0.3399 0.0467
0.9796 0.3493 0.0454
0.0690 0.3657 0.0693
0.0696 0.3684 0.0688
0.0709 0.3702 0.0685
0.0730 0.3717 0.0682
0.0755 0.3735 0.0679
0.0785 0.3761 0.0674
0.0824 0.3764 0.0673
0.0892 0.3798 0.0666
0.0970 0.3814 0.0662
0.1369 0.3842 0.0652
0.2286 0.3836 0.0633
0.3046 0.3839 0.0605
0.3986 0.3897 0.0550
0.4753 0.3830 0.0519
0.5527 0.3774 0.0481
0.6199 0.3777 0.0441
0.6796 0.3762 0.0409
0.7328 0.3704 0.0383
0.7884 0.3709 0.0354
0.8398 0.3715 0.0340
0.8845 0.3728 0.0344
0.8967 0.3724 0.0349
0.9061 0.3740 0.0356
0.9144 0.3751 0.0367
0.9225 0.3766 0.0376
0.9311 0.3791 0.0381
0.9392 0.3815 0.0383
0.9474 0.3846 0.0384
0.9553 0.3882 0.0390
0.9626 0.3917 0.0393
0.9707 0.3939 0.0394
0.9816 0.4056 0.0397
0.0598 0.4126 0.0604
0.0605 0.4155 0.0598
0.0618 0.4186 0.0591
0.0640 0.4215 0.0585
0.0670 0.4230 0.0581
0.0704 0.4259 0.0575
0.0746 0.4276 0.0571
0.0819 0.4308 0.0562
0.0905 0.4326 0.0558
0.1055 0.4353 0.0551
0.1961 0.4351 0.0535
0.2868 0.4342 0.0507
0.3706 0.4376 0.0463
0.4680 0.4486 0.0395
0.5463 0.4395 0.0372
0.6206 0.4324 0.0356
0.6840 0.4323 0.0340
0.7408 0.4322 0.0336
0.7918 0.4280 0.0344
0.8399 0.4237 0.0351
0.8835 0.4241 0.0359
0.8996 0.4255 0.0366
0.9080 0.4262 0.0370
0.9164 0.4278 0.0376
0.9246 0.4292 0.0380
0.9330 0.4318 0.0386
0.9413 0.4340 0.0391
0.9495 0.4369 0.0397
0.9574 0.4421 0.0406
0.9642 0.4428 0.0407
0.9726 0.4471 0.0409
0.9850 0.4716 0.0408
0.0493 0.4590 0.0501
0.0503 0.4621 0.0494
0.0520 0.4664 0.0484
0.0548 0.4693 0.0477
0.0584 0.4724 0.0469
0.0629 0.4739 0.0465
0.0676 0.4770 0.0457
0.0755 0.4806 0.0448
0.0851 0.4819 0.0443
0.0953 0.4850 0.0435
0.1414 0.4867 0.0428
0.2657 0.4868 0.0392
0.3484 0.4880 0.0357
0.4435 0.4981 0.0301
0.5421 0.5119 0.0269
0.6152 0.5007 0.0286
0.6855 0.4924 0.0317
0.7468 0.4917 0.0342
0.8011 0.4921 0.0360
0.8478 0.4903 0.0374
0.8852 0.4879 0.0385
0.9031 0.4835 0.0392
0.9112 0.4821 0.0396
0.9192 0.4831 0.0400
0.9276 0.4847 0.0405
0.9354 0.4867 0.0410
0.9437 0.4893 0.0416
0.9524 0.4922 0.0421
0.9598 0.5022 0.0432
0.9671 0.5038 0.0432
0.9751 0.5043 0.0432
0.9884 0.5319 0.0423
0.0376 0.5052 0.0390
0.0394 0.5084 0.0383
0.0419 0.5142 0.0370
0.0458 0.5173 0.0362
0.0506 0.5205 0.0355
0.0559 0.5233 0.0348
0.0616 0.5265 0.0341
0.0704 0.5304 0.0330
0.0813 0.5322 0.0325
0.0917 0.5366 0.0315
0.1025 0.5406 0.0311
0.2171 0.5405 0.0286
0.3305 0.5423 0.0244
0.4211 0.5493 0.0224
0.5183 0.5643 0.0258
0.6097 0.5728 0.0298
0.6789 0.5608 0.0322
0.7459 0.5500 0.0349
0.8030 0.5478 0.0367
0.8523 0.5469 0.0380
0.8890 0.5474 0.0393
0.9077 0.5470 0.0404
0.9159 0.5478 0.0414
0.9236 0.5481 0.0422
0.9317 0.5487 0.0429
0.9397 0.5500 0.0436
0.9473 0.5516 0.0440
0.9560 0.5573 0.0444
0.9632 0.5631 0.0448
0.9702 0.5623 0.0451
0.9790 0.5685 0.0446
0.9902 0.5857 0.0430
0.0251 0.5529 0.0286
0.0287 0.5562 0.0280
0.0332 0.5622 0.0271
0.0389 0.5655 0.0266
0.0450 0.5701 0.0259
0.0515 0.5731 0.0255
0.0582 0.5762 0.0251
0.0670 0.5815 0.0240
0.0792 0.5845 0.0238
0.0902 0.5877 0.0235
0.1012 0.5933 0.0235
0.1499 0.5942 0.0243
0.3033 0.5966 0.0203
0.4023 0.6031 0.0221
0.4981 0.6116 0.0265
0.5903 0.6262 0.0302
0.6700 0.6309 0.0335
0.7335 0.6190 0.0349
0.7987 0.6054 0.0364
0.8502 0.6015 0.0378
0.8890 0.6001 0.0390
0.9103 0.6000 0.0400
0.9183 0.6002 0.0410
0.9264 0.6012 0.0419
0.9344 0.6025 0.0426
0.9423 0.6046 0.0434
0.9501 0.6065 0.0440
0.9581 0.6099 0.0448
0.9649 0.6131 0.0450
0.9716 0.6125 0.0454
0.9801 0.6181 0.0442
0.9912 0.6349 0.0427
0.0163 0.5991 0.0234
0.0231 0.6050 0.0236
0.0301 0.6097 0.0239
0.0371 0.6143 0.0241
0.0442 0.6187 0.0244
0.0512 0.6218 0.0246
0.0583 0.6265 0.0249
0.0671 0.6317 0.0246
0.0798 0.6346 0.0248
0.0908 0.6388 0.0249
0.1020 0.6431 0.0251
0.1208 0.6470 0.0264
0.2410 0.6482 0.0233
0.3771 0.6549 0.0230
0.4802 0.6635 0.0269
0.5664 0.6715 0.0302
0.6520 0.6834 0.0331
0.7256 0.6862 0.0358
0.7840 0.6748 0.0368
0.8428 0.6611 0.0374
0.8865 0.6567 0.0381
0.9109 0.6540 0.0390
0.9197 0.6524 0.0398
0.9279 0.6521 0.0405
0.9354 0.6519 0.0412
0.9435 0.6534 0.0418
0.9516 0.6555 0.0426
0.9593 0.6596 0.0435
0.9662 0.6604 0.0441
0.9730 0.6599 0.0446
0.9812 0.6661 0.0436
0.9924 0.6827 0.0421
0.0169 0.6443 0.0255
0.0240 0.6500 0.0257
0.0310 0.6544 0.0259
0.0380 0.6600 0.0261
0.0450 0.6643 0.0262
0.0521 0.6685 0.0264
0.0591 0.6730 0.0266
0.0665 0.6791 0.0264
0.0800 0.6835 0.0264
0.0915 0.6864 0.0265
0.1023 0.6905 0.0265
0.1135 0.6957 0.0271
0.1600 0.6974 0.0278
0.3353 0.7035 0.0231
0.4584 0.7127 0.0270
0.5515 0.7195 0.0302
0.6297 0.7255 0.0331
0.7063 0.7371 0.0354
0.7736 0.7398 0.0372
0.8268 0.7288 0.0381
0.8764 0.7181 0.0385
0.9072 0.7111 0.0387
0.9205 0.7087 0.0388
0.9286 0.7063 0.0393
0.9365 0.7050 0.0398
0.9445 0.7044 0.0404
0.9525 0.7048 0.0410
0.9604 0.7059 0.0417
0.9671 0.7078 0.0426
0.9743 0.7071 0.0430
0.9822 0.7124 0.0425
0.9929 0.7293 0.0416
0.0176 0.6874 0.0269
0.0247 0.6930 0.0271
0.0316 0.6986 0.0273
0.0387 0.7040 0.0274
0.0457 0.7079 0.0274
0.0527 0.7121 0.0275
0.0597 0.7178 0.0276
0.0669 0.7218 0.0276
0.0803 0.7278 0.0273
0.0918 0.7333 0.0274
0.1025 0.7361 0.0275
0.1136 0.7413 0.0276
0.1479 0.7464 0.0287
0.2742 0.7494 0.0237
0.4269 0.7580 0.0266
0.5330 0.7654 0.0300
0.6147 0.7722 0.0331
0.6869 0.7769 0.0348
0.7563 0.7877 0.0368
0.8139 0.7899 0.0381
0.8604 0.7804 0.0389
0.8995 0.7703 0.0392
0.9201 0.7656 0.0393
0.9286 0.7629 0.0393
0.9365 0.7611 0.0394
0.9447 0.7580 0.0396
0.9526 0.7566 0.0399
0.9608 0.7558 0.0405
0.9681 0.7572 0.0413
0.9749 0.7557 0.0417
0.9828 0.7615 0.0413
0.9931 0.7786 0.0408
0.0182 0.7275 0.0277
0.0252 0.7342 0.0279
0.0322 0.7397 0.0281
0.0392 0.7459 0.0283
0.0462 0.7500 0.0284
0.0532 0.7554 0.0285
0.0601 0.7592 0.0286
0.0673 0.7647 0.0286
0.0804 0.7717 0.0282
0.0918 0.7756 0.0282
0.1029 0.7795 0.0282
0.1136 0.7845 0.0285
0.1247 0.7903 0.0291
0.2002 0.7932 0.0282
0.3763 0.8002 0.0252
0.5102 0.8092 0.0295
0.5987 0.8148 0.0324
0.6736 0.8198 0.0348
0.7401 0.8236 0.0364
0.8017 0.8329 0.0378
0.8484 0.8328 0.0386
0.8873 0.8266 0.0395
0.9159 0.8192 0.0397
0.9288 0.8149 0.0398
0.9363 0.8122 0.0398
0.9445 0.8102 0.0398
0.9527 0.8093 0.0399
0.9608 0.8068 0.0400
0.9686 0.8054 0.0406
0.9757 0.8052 0.0406
0.9832 0.8096 0.0406
0.9938 0.8252 0.0405
0.0186 0.7662 0.0287
0.0256 0.7738 0.0288
0.0326 0.7792 0.0288
0.0396 0.7855 0.0290
0.0465 0.7903 0.0291
0.0535 0.7950 0.0292
0.0604 0.7995 0.0293
0.0676 0.8044 0.0293
0.0806 0.8107 0.0290
0.0923 0.8152 0.0290
0.1033 0.8196 0.0290
0.1140 0.8231 0.0289
0.1249 0.8284 0.0291
0.1814 0.8327 0.0291
0.3233 0.8368 0.0243
0.4760 0.8444 0.0285
0.5825 0.8523 0.0319
0.6612 0.8571 0.0345
0.7269 0.8590 0.0358
0.7879 0.8636 0.0374
0.8384 0.8693 0.0384
0.8770 0.8704 0.0391
0.9079 0.8652 0.0398
0.9281 0.8589 0.0401
0.9363 0.8566 0.0402
0.9443 0.8551 0.0403
0.9523 0.8537 0.0403
0.9609 0.8520 0.0404
0.9688 0.8506 0.0407
0.9757 0.8502 0.0407
0.9834 0.8538 0.0407
0.9937 0.8667 0.0407
0.0189 0.8011 0.0292
0.0258 0.8079 0.0294
0.0328 0.8146 0.0295
0.0398 0.8200 0.0297
0.0468 0.8249 0.0298
0.0537 0.8294 0.0298
0.0607 0.8343 0.0299
0.0678 0.8393 0.0300
0.0808 0.8448 0.0295
0.0926 0.8494 0.0296
0.1038 0.8532 0.0295
0.1143 0.8569 0.0295
0.1251 0.8607 0.0295
0.1377 0.8652 0.0304
0.2522 0.8675 0.0261
0.4430 0.8753 0.0274
0.5623 0.8805 0.0311
0.6517 0.8852 0.0341
0.7208 0.8864 0.0356
0.7776 0.8870 0.0370
0.8288 0.8902 0.0380
0.8685 0.8929 0.0387
0.9001 0.8934 0.0392
0.9245 0.8897 0.0400
0.9358 0.8879 0.0403
0.9443 0.8864 0.0405
0.9525 0.8859 0.0406
0.9611 0.8852 0.0408
0.9688 0.8846 0.0410
0.9760 0.8844 0.0410
0.9834 0.8860 0.0410
0.9939 0.8933 0.0410
0.0191 0.8333 0.0298
0.0261 0.8390 0.0299
0.0331 0.8454 0.0301
0.0400 0.8510 0.0302
0.0470 0.8552 0.0303
0.0539 0.8598 0.0304
0.0609 0.8646 0.0305
0.0679 0.8684 0.0306
0.0809 0.8708 0.0301
0.0929 0.8725 0.0300
0.1039 0.8738 0.0300
0.1148 0.8753 0.0301
0.1253 0.8771 0.0298
0.1360 0.8791 0.0303
0.2418 0.8806 0.0268
0.4190 0.8883 0.0266
0.5431 0.8942 0.0302
0.6403 0.8986 0.0336
0.7137 0.9007 0.0354
0.7727 0.9013 0.0368
0.8202 0.9019 0.0377
0.8607 0.9030 0.0383
0.8938 0.9041 0.0389
0.9193 0.9043 0.0395
0.9354 0.9031 0.0400
0.9438 0.9027 0.0405
0.9526 0.9020 0.0408
0.9610 0.9022 0.0410
0.9689 0.9020 0.0413
0.9760 0.9024 0.0413
0.9836 0.9029 0.0412
0.9937 0.9055 0.0413
0.0194 0.8700 0.0307
0.0263 0.8693 0.0306
0.0332 0.8704 0.0307
0.0402 0.8725 0.0307
0.0471 0.8737 0.0307
0.0540 0.8755 0.0308
0.0609 0.8771 0.0308
0.0680 0.8795 0.0309
0.0812 0.8814 0.0303
0.0930 0.8829 0.0303
0.1042 0.8841 0.0302
0.1150 0.8854 0.0301
0.1256 0.8863 0.0300
0.1360 0.8875 0.0302
0.2281 0.8893 0.0274
0.3957 0.8958 0.0258
0.5294 0.9015 0.0296
0.6276 0.9060 0.0330
0.7066 0.9088 0.0353
0.7668 0.9092 0.0363
0.8155 0.9097 0.0375
0.8556 0.9102 0.0382
0.8884 0.9118 0.0385
0.9152 0.9125 0.0390
0.9355 0.9131 0.0396
0.9435 0.9118 0.0401
0.9524 0.9112 0.0407
0.9608 0.9109 0.0410
0.9690 0.9111 0.0414
0.9760 0.9114 0.0414
0.9837 0.9123 0.0414
0.9938 0.9149 0.0414
0.0196 0.8841 0.0311
0.0265 0.8834 0.0310
0.0334 0.8838 0.0310
0.0403 0.8851 0.0311
0.0472 0.8858 0.0311
0.0541 0.8869 0.0311
0.0611 0.8881 0.0311
0.0680 0.8892 0.0311
0.0789 0.8913 0.0306
0.0924 0.8924 0.0306
0.1039 0.8934 0.0305
0.1153 0.8945 0.0304
0.1258 0.8957 0.0302
0.1362 0.8964 0.0301
0.2102 0.8977 0.0276
0.3690 0.9032 0.0247
0.5150 0.9090 0.0287
0.6189 0.9137 0.0323
0.6978 0.9167 0.0348
0.7636 0.9171 0.0361
0.8113 0.9173 0.0372
0.8511 0.9177 0.0380
0.8831 0.9183 0.0383
0.9110 0.9199 0.0387
0.9336 0.9211 0.0391
0.9443 0.9214 0.0396
0.9522 0.9205 0.0403
0.9603 0.9199 0.0408
0.9690 0.9200 0.0411
0.9762 0.9205 0.0413
0.9837 0.9215 0.0414
0.9942 0.9242 0.0414
0.0198 0.8952 0.0315
0.0266 0.8939 0.0314
0.0335 0.8942 0.0314
0.0404 0.8956 0.0315
0.0473 0.8964 0.0315
0.0542 0.8974 0.0315
0.0612 0.8984 0.0315
0.0681 0.8997 0.0315
0.0753 0.9012 0.0314
0.0913 0.9026 0.0309
0.1039 0.9034 0.0308
0.1153 0.9041 0.0307
0.1259 0.9051 0.0306
0.1361 0.9056 0.0304
0.1936 0.9066 0.0285
0.3455 0.9112 0.0233
0.5060 0.9171 0.0277
0.6103 0.9215 0.0315
0.6920 0.9246 0.0341
0.7580 0.9248 0.0355
0.8094 0.9254 0.0369
0.8487 0.9256 0.0377
0.8810 0.9259 0.0381
0.9072 0.9266 0.0384
0.9309 0.9283 0.0388
0.9442 0.9298 0.0392
0.9525 0.9305 0.0396
0.9600 0.9293 0.0403
0.9687 0.9291 0.0409
0.9762 0.9294 0.0411
0.9840 0.9303 0.0411
0.9942 0.9331 0.0412
0.0199 0.9064 0.0319
0.0268 0.9047 0.0318
0.0337 0.9049 0.0318
0.0406 0.9059 0.0319
