fuji-film/cube-lut/astia.cube
LUT_3D_SIZE 32
0.00000 0.00000 0.00000
0.01937 0.00000 0.00000
0.03922 0.00091 0.00000
0.06289 0.00116 0.00000
0.09423 0.00414 0.00061
0.13930 0.00808 0.00130
0.19861 0.01413 0.00362
0.26006 0.02429 0.00402
0.33419 0.03206 0.00093
0.40621 0.03176 0.00000
0.47452 0.03117 0.00000
0.53727 0.03330 0.00000
0.60028 0.01397 0.00000
0.65690 0.00000 0.00000
0.70982 0.00000 0.00000
0.75949 0.00000 0.00000
0.80530 0.00000 0.03797
0.84648 0.00000 0.08284
0.88281 0.00000 0.12034
0.91589 0.00000 0.15148
0.94655 0.00000 0.17929
0.97342 0.00000 0.20404
0.99842 0.00000 0.21954
1.00000 0.00000 0.22403
1.00000 0.00000 0.21045
1.00000 0.00000 0.15655
1.00000 0.07631 0.00000
1.00000 0.13767 0.00000
1.00000 0.17181 0.00000
1.00000 0.18977 0.00000
1.00000 0.19468 0.00000
1.00000 0.21081 0.00000
0.00000 0.01534 0.00000
0.01299 0.01501 0.00000
0.03329 0.01659 0.00000
0.05791 0.01459 0.00000
0.08981 0.01782 0.00000
0.13525 0.02111 0.00000
0.19539 0.02363 0.00185
0.25866 0.03370 0.00296
0.33357 0.04187 0.00006
0.40635 0.04546 0.00000
0.47515 0.04814 0.00000
0.53824 0.04521 0.00000
0.60093 0.03894 0.00000
0.65760 0.02068 0.00000
0.71053 0.00000 0.00000
0.76021 0.00000 0.00000
0.80578 0.00000 0.01065
0.84679 0.00000 0.06602
0.88311 0.00000 0.10748
0.91622 0.00000 0.14106
0.94690 0.00000 0.17300
0.97389 0.00000 0.19524
0.99874 0.00000 0.21248
1.00000 0.00000 0.21768
1.00000 0.00000 0.20393
1.00000 0.00000 0.14674
1.00000 0.08688 0.00000
1.00000 0.14233 0.00000
1.00000 0.17598 0.00000
1.00000 0.19308 0.00000
1.00000 0.19904 0.00000
1.00000 0.21535 0.00000
0.00000 0.02866 0.00000
0.00646 0.02840 0.00000
0.02744 0.02992 0.00000
0.05243 0.02883 0.00000
0.08637 0.03198 0.00000
0.13100 0.03511 0.00000
0.19228 0.03378 0.00059
0.25739 0.04277 0.00239
0.33276 0.05064 0.00000
0.40615 0.05778 0.00000
0.47541 0.06511 0.00000
0.53907 0.05835 0.00000
0.60153 0.06169 0.00000
0.65830 0.04505 0.00000
0.71123 0.02340 0.00000
0.76099 0.00000 0.00000
0.80655 0.00000 0.00000
0.84713 0.00000 0.04021
0.88345 0.00000 0.09135
0.91662 0.00000 0.12819
0.94744 0.00000 0.16049
0.97432 0.00000 0.18422
0.99909 0.00000 0.20393
1.00000 0.00000 0.21006
1.00000 0.00000 0.19493
1.00000 0.00000 0.13461
1.00000 0.09678 0.00000
1.00000 0.14738 0.00000
1.00000 0.18051 0.00000
1.00000 0.19672 0.00000
1.00000 0.20412 0.00000
1.00000 0.22009 0.00000
0.00000 0.04441 0.00036
0.00000 0.04254 0.00000
0.01850 0.04385 0.00000
0.04453 0.04761 0.00008
0.07843 0.05012 0.00000
0.12507 0.05247 0.00000
0.18785 0.05084 0.00000
0.25468 0.05862 0.00173
0.33097 0.06464 0.00000
0.40470 0.07378 0.00000
0.47477 0.08401 0.00000
0.53935 0.08195 0.00000
0.60211 0.08344 0.00000
0.65907 0.07268 0.00000
0.71218 0.05834 0.00000
0.76198 0.02564 0.00000
0.80756 0.00000 0.00000
0.84777 0.00000 0.00000
0.88390 0.00000 0.06149
0.91725 0.00000 0.10585
0.94802 0.00000 0.14264
0.97462 0.00000 0.17306
0.99995 0.00000 0.18903
1.00000 0.00000 0.19757
1.00000 0.00000 0.18116
1.00000 0.00855 0.11555
1.00000 0.10857 0.00000
1.00000 0.15434 0.00000
1.00000 0.18662 0.00000
1.00000 0.20361 0.00000
1.00000 0.21116 0.00000
1.00000 0.22679 0.00000
0.00000 0.06627 0.00477
0.00000 0.06423 0.00405
0.00770 0.06473 0.00363
0.03237 0.06812 0.00325
0.06684 0.07157 0.00380
0.11728 0.07563 0.00000
0.18062 0.07670 0.00000
0.24900 0.08209 0.00173
0.32657 0.08826 0.00000
0.39959 0.09854 0.00000
0.47214 0.09979 0.00000
0.53827 0.10879 0.00000
0.60214 0.10720 0.00000
0.65961 0.10243 0.00000
0.71310 0.09157 0.00000
0.76301 0.07464 0.00000
0.80867 0.05443 0.00000
0.84891 0.02203 0.00000
0.88481 0.00000 0.00000
0.91794 0.00000 0.06772
0.94844 0.00000 0.11409
0.97542 0.00000 0.14789
1.00000 0.00000 0.17294
1.00000 0.00000 0.17911
1.00000 0.00000 0.16526
1.00000 0.05792 0.08329
1.00000 0.12250 0.00000
1.00000 0.16550 0.00000
1.00000 0.19417 0.00000
1.00000 0.21246 0.00000
1.00000 0.21967 0.00000
1.00000 0.23387 0.00000
0.00000 0.09946 0.00706
0.00000 0.09790 0.00476
0.00000 0.09778 0.00233
0.01731 0.10040 0.00103
0.05089 0.10277 0.00310
0.10103 0.10603 0.00842
0.16798 0.11168 0.00359
0.24069 0.11590 0.00000
0.31853 0.12307 0.00000
0.39079 0.13027 0.00000
0.46476 0.13644 0.00000
0.53484 0.13830 0.00000
0.60081 0.13763 0.00000
0.65958 0.13282 0.00000
0.71364 0.12733 0.00000
0.76385 0.11444 0.00000
0.80967 0.09649 0.00000
0.85022 0.06794 0.00000
0.88627 0.03307 0.00000
0.91858 0.02466 0.00000
0.94899 0.01631 0.06386
0.97664 0.00000 0.11223
1.00000 0.00000 0.14156
1.00000 0.00000 0.15343
1.00000 0.03155 0.13582
1.00000 0.09271 0.01427
1.00000 0.13796 0.00000
1.00000 0.17831 0.00000
1.00000 0.20503 0.00000
1.00000 0.22228 0.00000
1.00000 0.22865 0.00000
1.00000 0.24250 0.00000
0.00000 0.14055 0.00874
0.00000 0.13925 0.00818
0.00000 0.13853 0.00880
0.00000 0.14009 0.01088
0.03140 0.14222 0.01206
0.07907 0.14705 0.01408
0.14712 0.15027 0.01184
0.22835 0.16020 0.00000
0.30890 0.16599 0.00000
0.38119 0.17501 0.00000
0.45590 0.17776 0.00000
0.52861 0.17844 0.00000
0.59712 0.17712 0.00000
0.65749 0.17412 0.00000
0.71312 0.16426 0.00000
0.76404 0.14692 0.00000
0.81005 0.13076 0.00000
0.85062 0.12293 0.00000
0.88683 0.11625 0.00000
0.92000 0.09342 0.00000
0.95056 0.06796 0.00000
0.97774 0.05310 0.04345
1.00000 0.06615 0.09298
1.00000 0.07166 0.11227
1.00000 0.09180 0.09076
1.00000 0.11868 0.00000
1.00000 0.15530 0.00000
1.00000 0.19222 0.00000
1.00000 0.21902 0.00000
1.00000 0.23216 0.00000
1.00000 0.23790 0.00000
1.00000 0.25309 0.00000
0.00000 0.18875 0.00000
0.00000 0.18837 0.00000
0.00000 0.18836 0.00000
0.00000 0.18951 0.00000
0.00111 0.19247 0.00000
0.07353 0.19720 0.00000
0.14573 0.20334 0.00000
0.22168 0.21092 0.00000
0.29959 0.21844 0.00000
0.37244 0.22407 0.00000
0.44586 0.22951 0.00000
0.51976 0.23106 0.00000
0.59011 0.22509 0.00000
0.65267 0.21756 0.00000
0.70984 0.20890 0.00000
0.76131 0.19875 0.00000
0.80803 0.18451 0.00000
0.85000 0.16602 0.00000
0.88740 0.14698 0.00000
0.92113 0.12968 0.00000
0.95178 0.12956 0.00000
0.97886 0.13058 0.00000
1.00000 0.12675 0.00000
1.00000 0.12065 0.03180
1.00000 0.12523 0.00000
1.00000 0.14445 0.00000
1.00000 0.17910 0.00000
1.00000 0.21151 0.00000
1.00000 0.23218 0.00000
1.00000 0.24179 0.00000
1.00000 0.24803 0.00000
1.00000 0.26537 0.00000
0.00000 0.25025 0.00000
0.00000 0.25059 0.00000
0.00000 0.25123 0.00000
0.00000 0.25247 0.00000
0.00000 0.25493 0.00000
0.06153 0.25868 0.00000
0.14244 0.26374 0.00000
0.21223 0.27016 0.00000
0.28941 0.27470 0.00000
0.36197 0.27840 0.00000
0.43386 0.28929 0.00000
0.50889 0.28757 0.00000
0.57978 0.28155 0.00000
0.64363 0.27675 0.00000
0.70234 0.26494 0.00000
0.75591 0.24847 0.00000
0.80405 0.23135 0.00000
0.84705 0.21544 0.00000
0.88502 0.20174 0.00000
0.91960 0.19163 0.00000
0.95158 0.18381 0.00000
0.97979 0.17366 0.00000
1.00000 0.16325 0.00000
1.00000 0.15602 0.00000
1.00000 0.16037 0.00000
1.00000 0.17866 0.00000
1.00000 0.20771 0.00000
1.00000 0.23257 0.00000
1.00000 0.24489 0.00000
1.00000 0.25300 0.00000
1.00000 0.26047 0.00000
1.00000 0.28011 0.00000
0.00000 0.31434 0.00000
0.00000 0.31566 0.00000
0.00000 0.31729 0.00000
0.00000 0.31990 0.00000
0.00000 0.32256 0.00000
0.01989 0.32407 0.00000
0.12119 0.32596 0.00000
0.20209 0.32750 0.00000
0.27719 0.33319 0.00000
0.34646 0.34177 0.00000
0.42036 0.34616 0.00000
0.49610 0.34514 0.00000
0.56707 0.34180 0.00000
0.63156 0.33691 0.00000
0.69121 0.32583 0.00000
0.74700 0.30856 0.00000
0.79702 0.28807 0.00000
0.84156 0.26869 0.00000
0.88053 0.25084 0.00000
0.91655 0.23571 0.00000
0.94982 0.22498 0.00000
0.97892 0.21696 0.00000
1.00000 0.20931 0.00000
1.00000 0.20519 0.00000
1.00000 0.21106 0.00000
1.00000 0.22360 0.00000
1.00000 0.23892 0.00000
1.00000 0.25127 0.00000
1.00000 0.26046 0.00000
1.00000 0.26724 0.00000
1.00000 0.27554 0.00000
1.00000 0.29804 0.00000
0.00000 0.37643 0.00000
0.00000 0.37704 0.00000
0.00000 0.37777 0.00000
0.00000 0.37880 0.00000
0.00000 0.38022 0.00000
0.00000 0.38182 0.00000
0.10194 0.38463 0.00000
0.18448 0.38824 0.00000
0.26068 0.39236 0.00000
0.32911 0.40021 0.00000
0.40424 0.40407 0.00000
0.48003 0.40557 0.00000
0.55086 0.40474 0.00000
0.61592 0.40094 0.00000
0.67650 0.39255 0.00000
0.73433 0.37832 0.00000
0.78543 0.36130 0.00000
0.83168 0.34274 0.00000
0.87235 0.32365 0.00000
0.90966 0.30761 0.00000
0.94412 0.29490 0.00000
0.97468 0.28307 0.00000
1.00000 0.27150 0.00000
1.00000 0.26257 0.00000
1.00000 0.25894 0.00000
1.00000 0.26112 0.00000
1.00000 0.26751 0.00000
1.00000 0.27454 0.00000
1.00000 0.28051 0.00000
1.00000 0.28587 0.00000
1.00000 0.29469 0.00000
1.00000 0.32455 0.00000
0.00000 0.43640 0.00000
0.00000 0.43726 0.00000
0.00000 0.43823 0.00000
0.00000 0.43963 0.00000
0.00000 0.44140 0.00000
0.00000 0.44364 0.00000
0.02358 0.44562 0.00000
0.15246 0.44815 0.00000
0.23602 0.45088 0.00000
0.31185 0.45496 0.00000
0.38616 0.45925 0.00000
0.46231 0.46078 0.00000
0.53305 0.46108 0.00000
0.59855 0.45916 0.00000
0.65961 0.45362 0.00000
0.71883 0.44317 0.00000
0.77095 0.42958 0.00000
0.81907 0.41278 0.00000
0.86198 0.39438 0.00000
0.90071 0.37761 0.00000
0.93643 0.36211 0.00000
0.96854 0.34671 0.00000
0.99777 0.33088 0.00000
1.00000 0.31671 0.00000
1.00000 0.30739 0.00000
1.00000 0.30317 0.00000
1.00000 0.30316 0.00000
1.00000 0.30546 0.00000
1.00000 0.30815 0.00000
1.00000 0.31162 0.00000
1.00000 0.32409 0.00000
1.00000 0.35378 0.00000
0.00000 0.49123 0.00000
0.00000 0.49218 0.00000
0.00000 0.49326 0.00000
0.00000 0.49477 0.00000
0.00000 0.49669 0.00000
0.00000 0.49906 0.00000
0.00000 0.50161 0.00000
0.10324 0.50434 0.00000
0.20376 0.50726 0.00000
0.29135 0.50965 0.00000
0.36522 0.51192 0.00000
0.44256 0.51325 0.00000
0.51365 0.51401 0.00000
0.57954 0.51322 0.00000
0.64083 0.50999 0.00000
0.70060 0.50327 0.00000
0.75357 0.49354 0.00000
0.80310 0.48037 0.00000
0.84797 0.46481 0.00000
0.88879 0.44882 0.00000
0.92619 0.43332 0.00000
0.95966 0.41807 0.00000
0.99066 0.40180 0.00000
1.00000 0.38579 0.00000
1.00000 0.37225 0.00000
1.00000 0.36251 0.00000
1.00000 0.35640 0.00000
1.00000 0.35316 0.00000
1.00000 0.35143 0.00000
1.00000 0.35179 0.00000
1.00000 0.36009 0.00000
1.00000 0.38764 0.00000
0.00000 0.54235 0.00000
0.00000 0.54336 0.00000
0.00000 0.54449 0.00000
0.00000 0.54605 0.00000
0.00000 0.54829 0.00000
0.00000 0.55063 0.00000
0.00000 0.55327 0.00000
0.00000 0.55591 0.00000
0.16338 0.55863 0.00000
0.26400 0.56073 0.00000
0.33971 0.56285 0.00000
0.41987 0.56405 0.00000
0.49223 0.56452 0.00000
0.55890 0.56389 0.00000
0.62136 0.56171 0.00000
0.68105 0.55763 0.00000
0.73471 0.55148 0.00000
0.78477 0.54257 0.00000
0.83079 0.53135 0.00000
0.87360 0.51828 0.00000
0.91289 0.50427 0.00000
0.94798 0.48989 0.00000
0.98082 0.47433 0.00000
1.00000 0.45742 0.00000
1.00000 0.44104 0.00000
1.00000 0.42735 0.00000
1.00000 0.41608 0.00000
1.00000 0.40752 0.00000
1.00000 0.40094 0.00000
1.00000 0.39734 0.00000
1.00000 0.40293 0.00000
1.00000 0.42804 0.00000
0.00000 0.58972 0.00000
0.00000 0.59060 0.00000
0.00000 0.59158 0.00000
0.00000 0.59295 0.00000
0.00000 0.59483 0.00000
0.00000 0.59712 0.00000
0.00000 0.59982 0.00000
0.00000 0.60243 0.00000
0.09456 0.60495 0.00000
0.22397 0.60719 0.00000
0.30730 0.60913 0.00000
0.39292 0.61035 0.00000
0.46759 0.61122 0.00000
0.53578 0.61163 0.00000
0.60002 0.61099 0.00000
0.66001 0.60898 0.00000
0.71456 0.60550 0.00000
0.76492 0.60008 0.00000
0.81174 0.59247 0.00000
0.85576 0.58250 0.00000
0.89685 0.57064 0.00000
0.93387 0.55798 0.00000
0.96810 0.54502 0.00000
0.99673 0.52975 0.00000
1.00000 0.51259 0.00000
1.00000 0.49663 0.00000
1.00000 0.48338 0.00000
1.00000 0.47112 0.00000
1.00000 0.46025 0.00000
1.00000 0.45232 0.00000
1.00000 0.45424 0.00000
1.00000 0.47505 0.00000
0.00000 0.63252 0.00000
0.00000 0.63342 0.00000
0.00000 0.63440 0.00000
0.00000 0.63589 0.00000
0.00000 0.63774 0.00000
0.00000 0.63996 0.00000
0.00000 0.64243 0.00000
0.00000 0.64478 0.00000
0.00000 0.64704 0.00000
0.15294 0.64906 0.00000
0.26048 0.65096 0.00000
0.35762 0.65219 0.00000
0.43690 0.65343 0.00000
0.50898 0.65416 0.00000
0.57693 0.65403 0.00000
0.63851 0.65321 0.00000
0.69420 0.65157 0.00000
0.74554 0.64842 0.00000
0.79304 0.64355 0.00000
0.83738 0.63697 0.00000
0.87921 0.62879 0.00000
0.91772 0.61963 0.00000
0.95326 0.60954 0.00000
0.98459 0.59670 0.00000
1.00000 0.58193 0.00000
1.00000 0.56770 0.00000
1.00000 0.55291 0.00000
1.00000 0.53774 0.00000
1.00000 0.52468 0.00000
1.00000 0.51390 0.00000
1.00000 0.51153 0.00000
1.00000 0.52614 0.00000
0.00000 0.67065 0.00000
0.00000 0.67145 0.00000
0.00000 0.67233 0.00000
0.00000 0.67366 0.00000
0.00000 0.67537 0.00000
0.00000 0.67740 0.00000
0.00000 0.67979 0.00000
0.00000 0.68241 0.00000
0.00000 0.68526 0.00000
0.00000 0.68768 0.00000
0.18967 0.68970 0.00000
0.30697 0.69116 0.00000
0.39606 0.69234 0.00000
0.47611 0.69314 0.00000
0.54924 0.69370 0.00000
0.61442 0.69390 0.00000
0.67257 0.69359 0.00000
0.72576 0.69188 0.00000
0.77435 0.68881 0.00000
0.81902 0.68459 0.00000
0.86102 0.67934 0.00000
0.90062 0.67316 0.00000
0.93744 0.66569 0.00000
0.97108 0.65603 0.00000
0.99672 0.64453 0.00000
1.00000 0.63179 0.00000
1.00000 0.61746 0.00000
1.00000 0.60295 0.00000
1.00000 0.58914 0.00000
1.00000 0.57732 0.00000
1.00000 0.57186 0.00000
1.00000 0.57899 0.00000
0.00000 0.70629 0.00000
0.00000 0.70705 0.00000
0.00000 0.70790 0.00000
0.00000 0.70908 0.00000
0.00000 0.71081 0.00000
0.00000 0.71285 0.00000
0.00000 0.71536 0.00000
0.00000 0.71806 0.00000
0.00000 0.72086 0.00000
0.00000 0.72330 0.00000
0.06000 0.72522 0.00000
0.23745 0.72680 0.00000
0.34262 0.72813 0.00000
0.43675 0.72890 0.00000
0.51667 0.72963 0.00000
0.58741 0.73021 0.00000
0.65062 0.73022 0.00000
0.70585 0.72941 0.00000
0.75620 0.72770 0.00000
0.80160 0.72525 0.00000
0.84399 0.72209 0.00000
0.88444 0.71818 0.00000
0.92207 0.71332 0.00000
0.95717 0.70693 0.00000
0.98505 0.69921 0.00000
1.00000 0.68925 0.00000
1.00000 0.67592 0.00000
1.00000 0.66306 0.00000
1.00000 0.65032 0.00000
1.00000 0.63768 0.00000
1.00000 0.62947 0.00000
1.00000 0.63142 0.00000
0.00000 0.73889 0.00000
0.00000 0.73957 0.00000
0.00000 0.74036 0.00000
0.00000 0.74144 0.00000
0.00000 0.74298 0.00000
0.00000 0.74479 0.00000
0.00000 0.74700 0.00000
0.00000 0.74956 0.00000
0.00000 0.75222 0.00000
0.00000 0.75483 0.00000
0.00000 0.75719 0.00000
0.12705 0.75929 0.00000
0.28734 0.76075 0.00000
0.39236 0.76213 0.00000
0.47971 0.76318 0.00000
0.55609 0.76372 0.00000
0.62632 0.76338 0.00000
0.68491 0.76287 0.00000
0.73781 0.76205 0.00000
0.78477 0.76096 0.00000
0.82812 0.75969 0.00000
0.86956 0.75806 0.00000
0.90774 0.75583 0.00000
0.94365 0.75193 0.00000
0.97251 0.74620 0.00000
0.99118 0.73767 0.00000
1.00000 0.72736 0.00000
1.00000 0.71594 0.00000
1.00000 0.70404 0.00000
1.00000 0.69242 0.00000
1.00000 0.68310 0.00000
1.00000 0.68118 0.00000
0.00000 0.76821 0.00000
0.00000 0.76885 0.00000
0.00000 0.76958 0.00000
0.00000 0.77063 0.00000
0.00000 0.77199 0.00000
0.00000 0.77388 0.00000
0.00000 0.77601 0.00000
0.00000 0.77848 0.00000
0.00000 0.78121 0.00000
0.00000 0.78413 0.00000
0.00000 0.78679 0.00000
0.00000 0.78916 0.00000
0.21949 0.79112 0.00000
0.34217 0.79299 0.00000
0.43819 0.79428 0.00000
0.52265 0.79456 0.00000
0.59728 0.79422 0.00000
0.66128 0.79379 0.00000
0.71764 0.79328 0.00000
0.76732 0.79301 0.00000
0.81272 0.79289 0.00000
0.85544 0.79272 0.00000
0.89411 0.79192 0.00000
0.93025 0.78926 0.00000
0.95918 0.78496 0.00000
0.97986 0.77904 0.00000
0.99374 0.77112 0.00000
1.00000 0.76208 0.00000
1.00000 0.75204 0.00000
1.00000 0.74112 0.00000
1.00000 0.73168 0.00000
1.00000 0.72699 0.00000
0.00000 0.79517 0.00000
0.00000 0.79574 0.00000
0.00000 0.79640 0.00000
0.00000 0.79739 0.00000
0.00000 0.79871 0.00000
0.00000 0.80044 0.00000
0.00000 0.80247 0.00000
0.00000 0.80506 0.00000
0.00000 0.80794 0.00000
0.00000 0.81098 0.00000
0.00000 0.81392 0.00000
0.00000 0.81680 0.00000
0.11707 0.81913 0.00000
0.28065 0.82116 0.00000
0.39397 0.82233 0.00000
0.48636 0.82254 0.00000
0.56618 0.82194 0.00000
0.63552 0.82141 0.00000
0.69581 0.82106 0.00000
0.74842 0.82114 0.00000
0.79586 0.82171 0.00000
0.83931 0.82257 0.00000
0.87833 0.82297 0.00000
0.91545 0.82185 0.00000
0.94605 0.81925 0.00000
0.96964 0.81504 0.00000
0.98656 0.80915 0.00000
0.99535 0.80158 0.00000
0.99927 0.79302 0.00000
1.00000 0.78345 0.00000
1.00000 0.77491 0.00000
1.00000 0.76796 0.00000
0.00000 0.82034 0.00000
0.00000 0.82094 0.00000
0.00000 0.82161 0.00000
0.00000 0.82260 0.00000
0.00000 0.82391 0.00000
0.00000 0.82541 0.00000
0.00000 0.82743 0.00000
0.00000 0.82971 0.00000
0.00000 0.83236 0.00000
0.00000 0.83522 0.00000
0.00000 0.83801 0.00000
0.00000 0.84083 0.00000
0.00000 0.84395 0.00000
0.20733 0.84635 0.00000
0.34470 0.84812 0.00000
0.44554 0.84920 0.00000
0.53139 0.84933 0.00000
0.60657 0.84884 0.00000
0.67112 0.84833 0.00000
0.72717 0.84805 0.00000
0.77645 0.84815 0.00000
0.82111 0.84893 0.00000
0.86148 0.84988 0.00000
0.89983 0.84977 0.00000
0.93354 0.84865 0.00000
0.95984 0.84632 0.00000
0.97916 0.84238 0.00000
0.98976 0.83700 0.00000
0.99477 0.82981 0.00000
0.99737 0.82176 0.00000
0.99970 0.81243 0.00000
1.00000 0.80435 0.00000
0.00000 0.84302 0.00000
0.00000 0.84353 0.00000
0.00000 0.84411 0.00000
0.00000 0.84495 0.00000
0.00000 0.84608 0.00000
0.00000 0.84766 0.00000
0.00000 0.84972 0.00000
0.00000 0.85201 0.00000
0.00000 0.85471 0.00000
0.00000 0.85770 0.00000
0.00000 0.86109 0.00000
0.00000 0.86450 0.00000
0.00000 0.86782 0.00000
0.09964 0.87048 0.00000
0.28913 0.87251 0.00000
0.40182 0.87399 0.00000
0.49348 0.87491 0.00000
0.57582 0.87439 0.00000
0.64402 0.87366 0.00000
0.70424 0.87304 0.00000
0.75588 0.87289 0.00000
0.80202 0.87321 0.00000
0.84445 0.87383 0.00000
0.88345 0.87434 0.00000
0.91923 0.87468 0.00000
0.94823 0.87435 0.00000
0.97043 0.87228 0.00000
0.98403 0.86789 0.00000
0.99068 0.86185 0.00000
0.99395 0.85440 0.00000
0.99612 0.84553 0.00000
0.99774 0.83731 0.00000
0.00000 0.86478 0.00000
0.00000 0.86534 0.00000
0.00000 0.86599 0.00000
0.00000 0.86694 0.00000
0.00000 0.86822 0.00000
0.00000 0.86976 0.00000
0.00000 0.87167 0.00000
0.00000 0.87394 0.00000
0.00000 0.87660 0.00000
0.00000 0.87948 0.00000
0.00000 0.88259 0.00000
0.00000 0.88607 0.00000
0.00000 0.88955 0.00000
0.00000 0.89225 0.00000
0.22058 0.89499 0.00000
0.35345 0.89710 0.00000
0.45551 0.89825 0.00000
0.54104 0.89836 0.00000
0.61458 0.89799 0.00000
0.67869 0.89746 0.00000
0.73400 0.89727 0.00000
0.78227 0.89748 0.00000
0.82624 0.89811 0.00000
0.86544 0.89921 0.00000
0.90253 0.90024 0.00000
0.93387 0.90156 0.00000
0.95855 0.90125 0.00000
0.97564 0.89839 0.00000
0.98466 0.89308 0.00000
0.98922 0.88601 0.00000
0.99175 0.87697 0.00000
0.99365 0.86745 0.00000
0.00000 0.88547 0.00000
0.00000 0.88595 0.00000
0.00000 0.88650 0.00000
0.00000 0.88731 0.00000
0.00000 0.88844 0.00000
0.00000 0.89004 0.00000
0.00000 0.89203 0.00000
0.00000 0.89421 0.00000
0.00000 0.89657 0.00000
0.00000 0.89924 0.00000
0.00000 0.90246 0.00000
0.00000 0.90580 0.00000
0.00000 0.90917 0.00000
0.00000 0.91234 0.00000
0.10852 0.91585 0.00000
0.29885 0.91886 0.00000
0.41282 0.92079 0.00000
0.50483 0.92162 0.00000
0.58302 0.92147 0.00000
0.65092 0.92090 0.00000
0.70983 0.92052 0.00000
0.76157 0.92056 0.00000
0.80750 0.92117 0.00000
0.84733 0.92298 0.00000
0.88541 0.92499 0.00000
0.91751 0.92740 0.00000
0.94337 0.92831 0.00000
0.96339 0.92654 0.00000
0.97527 0.92230 0.00000
0.98206 0.91566 0.00000
0.98552 0.90729 0.00000
0.98781 0.89929 0.00000
0.00000 0.90445 0.00000
0.00000 0.90493 0.00000
0.00000 0.90547 0.00000
0.00000 0.90626 0.00000
0.00000 0.90732 0.00000
0.00000 0.90864 0.00000
0.00000 0.91036 0.00000
0.00000 0.91229 0.00000
0.00000 0.91459 0.00000
0.00000 0.91712 0.00000
0.00000 0.92022 0.00000
0.00000 0.92372 0.00000
0.00000 0.92733 0.00000
0.00000 0.93072 0.00000
0.00000 0.93405 0.00000
0.24022 0.93656 0.00000
0.37055 0.93871 0.00000
0.46966 0.93993 0.00000
0.55360 0.94057 0.00000
0.62448 0.94108 0.00000
0.68603 0.94138 0.00000
0.73977 0.94275 0.00000
0.78717 0.94463 0.00000
0.82796 0.94725 0.00000
0.86642 0.94996 0.00000
0.89878 0.95287 0.00000
0.92481 0.95416 0.00000
0.94585 0.95329 0.00000
0.96018 0.95023 0.00000
0.96903 0.94478 0.00000
0.97448 0.93715 0.00000
0.97856 0.92996 0.00000
0.00000 0.92137 0.00000
0.00000 0.92181 0.00000
0.00000 0.92231 0.00000
0.00000 0.92307 0.00000
0.00000 0.92415 0.00000
0.00000 0.92548 0.00000
0.00000 0.92713 0.00000
0.00000 0.92911 0.00000
0.00000 0.93129 0.00000
0.00000 0.93366 0.00000
0.00000 0.93614 0.00000
0.00000 0.93905 0.00000
0.00000 0.94187 0.00000
0.00000 0.94472 0.00000
0.00000 0.94766 0.00000
0.20012 0.95018 0.00000
0.34219 0.95280 0.00000
0.44417 0.95491 0.00000
0.53017 0.95706 0.00000
0.60149 0.95911 0.00000
0.66395 0.96106 0.00000
0.71777 0.96389 0.00000
0.76619 0.96692 0.00000
0.80783 0.96963 0.00000
0.84449 0.97353 0.00000
0.87620 0.97584 0.00000
0.90144 0.97760 0.00000
0.92160 0.97736 0.00000
0.93802 0.97487 0.00000
0.94961 0.96969 0.00000
0.95783 0.96343 0.00000
0.96548 0.95518 0.00000
0.00000 0.93814 0.11833
0.00000 0.93853 0.11098
0.00000 0.93898 0.10194
0.00000 0.93963 0.08627
0.00000 0.94048 0.06038
0.00000 0.94158 0.01337
0.00000 0.94279 0.00000
0.00000 0.94419 0.00000
0.00000 0.94618 0.00000
0.00000 0.94813 0.00000
0.00000 0.95023 0.00000
0.00000 0.95265 0.00000
0.00000 0.95501 0.00000
0.00000 0.95800 0.00000
0.00000 0.96053 0.00000
0.21265 0.96382 0.00000
0.34260 0.96690 0.00000
0.43766 0.96991 0.00000
0.51667 0.97321 0.00000
0.58613 0.97655 0.00000
0.64727 0.97935 0.00000
0.69962 0.98358 0.00000
0.74596 0.98711 0.00000
0.78644 0.99051 0.00000
0.82096 0.99366 0.00000
0.85215 0.99552 0.00000
0.87711 0.99704 0.00000
0.89752 0.99644 0.00000
0.91420 0.99424 0.00000
0.92884 0.98938 0.00000
0.94016 0.98350 0.00000
0.95001 0.97599 0.00000
0.00000 0.95352 0.19504
0.00000 0.95385 0.19275
0.00000 0.95424 0.19007
0.00000 0.95483 0.18348
