fuji-film/cube-lut/astia.cube
LUT_3D_SIZE 8
DOMAIN_MIN 0.000000 0.000000 0.000000
DOMAIN_MAX 0.903226 0.903226 0.903226
0.00000 0.00000 0.00000
0.09423 0.00414 0.00061
0.33419 0.03206 0.00093
0.60028 0.01397 0.00000
0.80530 0.00000 0.03797
0.94655 0.00000 0.17929
1.00000 0.00000 0.21045
1.00000 0.17181 0.00000
0.00000 0.06627 0.00477
0.06684 0.07157 0.00380
0.32657 0.08826 0.00000
0.60214 0.10720 0.00000
0.80867 0.05443 0.00000
0.94844 0.00000 0.11409
1.00000 0.00000 0.16526
1.00000 0.19417 0.00000
0.00000 0.25025 0.00000
0.00000 0.25493 0.00000
0.28941 0.27470 0.00000
0.57978 0.28155 0.00000
0.80405 0.23135 0.00000
0.95158 0.18381 0.00000
1.00000 0.16037 0.00000
1.00000 0.24489 0.00000
0.00000 0.49123 0.00000
0.00000 0.49669 0.00000
0.20376 0.50726 0.00000
0.51365 0.51401 0.00000
0.75357 0.49354 0.00000
0.92619 0.43332 0.00000
1.00000 0.37225 0.00000
1.00000 0.35143 0.00000
0.00000 0.67065 0.00000
0.00000 0.67537 0.00000
0.00000 0.68526 0.00000
0.39606 0.69234 0.00000
0.67257 0.69359 0.00000
0.86102 0.67934 0.00000
0.99672 0.64453 0.00000
1.00000 0.58914 0.00000
0.00000 0.79517 0.00000
0.00000 0.79871 0.00000
0.00000 0.80794 0.00000
0.11707 0.81913 0.00000
0.56618 0.82194 0.00000
0.79586 0.82171 0.00000
0.94605 0.81925 0.00000
0.99927 0.79302 0.00000
0.00000 0.88547 0.00000
0.00000 0.88844 0.00000
0.00000 0.89657 0.00000
0.00000 0.90917 0.00000
0.41282 0.92079 0.00000
0.70983 0.92052 0.00000
0.88541 0.92499 0.00000
0.97527 0.92230 0.00000
0.00000 0.95352 0.19504
0.00000 0.95558 0.17116
0.00000 0.96088 0.09909
0.00000 0.97020 0.00000
0.36877 0.98282 0.00000
0.63483 0.99785 0.00000
0.79745 1.00000 0.00000
0.89143 1.00000 0.00000
0.00674 0.00373 0.10767
0.09872 0.01754 0.09765
0.33481 0.04943 0.09386
0.60529 0.06289 0.13366
0.81033 0.00000 0.20160
0.94843 0.00000 0.28618
1.00000 0.00000 0.31420
1.00000 0.18694 0.00000
0.00000 0.07434 0.08982
0.08136 0.08160 0.08129
0.31933 0.10756 0.08646
0.60640 0.12530 0.10802
0.81137 0.09096 0.15756
0.94964 0.00702 0.24785
1.00000 0.00000 0.28005
1.00000 0.20806 0.00000
0.00000 0.26065 0.07738
0.00000 0.26684 0.05815
0.27959 0.28134 0.06060
0.57867 0.29914 0.07819
0.80129 0.23498 0.05946
0.95069 0.18687 0.10249
1.00000 0.15998 0.17433
1.00000 0.24065 0.00000
0.00000 0.49787 0.08866
0.00000 0.50368 0.05441
0.16165 0.51358 0.00000
0.50901 0.52338 0.00000
0.74800 0.50857 0.00000
0.92104 0.44193 0.00000
1.00000 0.36681 0.00000
1.00000 0.34059 0.00000
0.00000 0.67413 0.08263
0.00000 0.67882 0.01617
0.00000 0.68891 0.00000
0.38935 0.69560 0.00000
0.67389 0.69917 0.00000
0.85695 0.68670 0.00000
0.99775 0.65159 0.00000
1.00000 0.59103 0.00000
0.00000 0.79606 0.04824
0.00000 0.79972 0.00000
0.00000 0.80924 0.00000
0.01135 0.82086 0.00000
0.56972 0.82276 0.00000
0.79559 0.82378 0.00000
0.94661 0.82279 0.00000
0.99701 0.79613 0.00000
0.00000 0.88593 0.10698
0.00000 0.88908 0.01255
0.00000 0.89734 0.00000
0.00000 0.91083 0.00000
0.40852 0.92322 0.00000
0.71367 0.92151 0.00000
0.88711 0.92709 0.00000
0.97648 0.92554 0.00000
0.00000 0.95446 0.25993
0.00000 0.95655 0.24324
0.00000 0.96198 0.19621
0.00000 0.97138 0.10368
0.37373 0.98443 0.00000
0.63951 0.99945 0.04779
0.80109 1.00000 0.08557
0.89365 1.00000 0.12049
0.00000 0.00000 0.37063
0.09904 0.00000 0.36864
0.36386 0.03974 0.36614
0.62580 0.09345 0.36762
0.81315 0.10969 0.42345
0.94192 0.06261 0.49045
1.00000 0.03706 0.50290
1.00000 0.23600 0.30694
0.00000 0.09790 0.35454
0.10022 0.10852 0.35099
0.34500 0.12814 0.34832
0.61177 0.16682 0.36136
0.80074 0.17802 0.41882
0.93752 0.17871 0.47707
1.00000 0.10638 0.48997
1.00000 0.23870 0.27424
0.00000 0.28734 0.32557
0.00000 0.29196 0.31618
0.30718 0.30698 0.30733
0.58673 0.32047 0.31475
0.77550 0.33380 0.37361
0.92729 0.28005 0.41823
1.00000 0.21361 0.42868
1.00000 0.23834 0.24203
0.00000 0.50506 0.30751
0.00000 0.50868 0.29142
0.17840 0.51728 0.26258
0.52049 0.53450 0.27261
0.74004 0.53960 0.30941
0.89838 0.50949 0.34727
1.00000 0.38942 0.33227
1.00000 0.32854 0.23912
0.00000 0.67270 0.32016
0.00000 0.67596 0.30061
0.00000 0.68403 0.25555
0.41402 0.69534 0.24716
0.68610 0.70547 0.27992
0.85023 0.70299 0.30627
1.00000 0.66967 0.27526
1.00000 0.60366 0.20816
0.00000 0.79334 0.32121
0.00000 0.79659 0.30381
0.00000 0.80491 0.24864
0.09520 0.81878 0.19528
0.60426 0.82061 0.24298
0.80273 0.82561 0.24175
0.95270 0.82812 0.25949
0.99847 0.80142 0.22192
0.00000 0.88440 0.34226
0.00000 0.88761 0.31658
0.00000 0.89611 0.25619
0.00000 0.91278 0.06508
0.43328 0.92760 0.06597
0.73553 0.92210 0.23210
0.89797 0.93104 0.20897
0.98642 0.93187 0.17095
0.00000 0.95632 0.37976
0.00000 0.95847 0.36831
0.00000 0.96400 0.34270
0.00000 0.97384 0.29333
0.39286 0.98726 0.26613
0.65277 1.00000 0.27777
0.81016 1.00000 0.28562
0.89922 1.00000 0.30120
0.00000 0.00000 0.71439
0.07896 0.00000 0.71312
0.34509 0.00000 0.70512
0.63992 0.04836 0.68736
0.82211 0.14718 0.67254
0.94058 0.08353 0.69422
1.00000 0.13326 0.70341
1.00000 0.23625 0.58098
0.00000 0.10962 0.70561
0.07681 0.11111 0.69926
0.36110 0.13479 0.67498
0.63031 0.19235 0.65394
0.80529 0.21166 0.65450
0.93415 0.19419 0.67906
1.00000 0.21399 0.70143
1.00000 0.24675 0.60681
0.00000 0.32260 0.66622
0.00200 0.33107 0.65086
0.34440 0.34401 0.61354
0.59212 0.36327 0.58848
0.77653 0.36782 0.60188
0.91038 0.37540 0.63386
1.00000 0.35741 0.67866
1.00000 0.33476 0.63754
0.00000 0.51742 0.62401
0.00000 0.52009 0.60958
0.22632 0.52528 0.57206
0.53931 0.53889 0.53888
0.74572 0.54330 0.54433
0.88833 0.54313 0.57201
1.00000 0.54020 0.61827
1.00000 0.48264 0.58113
0.00000 0.66605 0.59394
0.00000 0.66903 0.58092
0.00000 0.67690 0.54523
0.44296 0.68859 0.50504
0.69409 0.69876 0.50057
0.84948 0.70335 0.52668
0.98193 0.70144 0.55193
1.00000 0.67892 0.54701
0.00000 0.78116 0.58230
0.00000 0.78340 0.57096
0.00000 0.78929 0.53877
0.30434 0.80150 0.48928
0.63483 0.81189 0.47420
0.81074 0.82045 0.49051
0.94503 0.82402 0.53126
0.99858 0.80753 0.50482
0.00000 0.87609 0.57826
0.00000 0.87827 0.56860
0.00000 0.88549 0.54080
0.00000 0.90009 0.48200
0.51489 0.91576 0.44577
0.76334 0.91949 0.47505
0.90994 0.93295 0.47487
0.98749 0.92966 0.50533
0.00000 0.95781 0.54561
0.00000 0.96030 0.53779
0.00000 0.96612 0.51856
0.00000 0.97650 0.48980
0.43733 0.99183 0.46752
0.67265 1.00000 0.46619
0.81969 1.00000 0.46762
0.90549 1.00000 0.47324
0.00000 0.00000 0.94847
0.00000 0.00000 0.94780
0.31644 0.00000 0.93859
0.60951 0.00000 0.91370
0.81263 0.00804 0.87866
0.94235 0.11144 0.85998
1.00000 0.15810 0.84402
1.00000 0.25071 0.76714
0.00000 0.08186 0.94471
0.00000 0.08374 0.94040
0.32635 0.10592 0.92060
0.61486 0.15550 0.88003
0.80785 0.21789 0.85181
0.93512 0.25157 0.84140
1.00000 0.23746 0.83730
1.00000 0.27542 0.77577
0.00000 0.35788 0.89550
0.14866 0.38238 0.87170
0.38142 0.39033 0.83596
0.60558 0.40772 0.79133
0.78239 0.42451 0.78293
0.91473 0.42408 0.79129
1.00000 0.40706 0.80593
1.00000 0.39059 0.78224
0.00000 0.52926 0.85095
0.00000 0.53409 0.83619
0.29567 0.54648 0.79613
0.55463 0.56270 0.74997
0.74533 0.57482 0.73393
0.88463 0.58028 0.73914
0.99796 0.58746 0.75328
1.00000 0.58910 0.75023
0.00000 0.66813 0.82338
0.00000 0.67179 0.81036
0.03683 0.68028 0.77363
0.47052 0.69159 0.72535
0.70134 0.70103 0.70133
0.85273 0.70569 0.70042
0.97620 0.71059 0.71136
1.00000 0.71900 0.71828
0.00000 0.77745 0.81346
0.00000 0.78000 0.80361
0.00000 0.78615 0.77033
0.34721 0.79882 0.70739
0.64125 0.80712 0.67066
0.81426 0.81405 0.66804
0.94277 0.81875 0.68533
1.00000 0.81734 0.69864
0.00000 0.87030 0.78604
0.00000 0.87243 0.77945
0.00000 0.87919 0.75792
0.08023 0.89033 0.71164
0.55714 0.90457 0.66331
0.77332 0.91656 0.65017
0.91522 0.92730 0.66136
0.98370 0.92408 0.69517
0.00000 0.95862 0.71364
0.00000 0.96112 0.70889
0.00000 0.96751 0.69676
0.16518 0.97853 0.67582
0.49871 0.99356 0.65383
0.69452 1.00000 0.64045
0.82591 1.00000 0.63898
0.90954 1.00000 0.64081
0.00000 0.00000 0.97244
0.00000 0.00000 0.97026
0.27820 0.00000 0.96702
0.56751 0.00000 0.97528
0.78495 0.00000 0.98779
0.93410 0.00000 0.98769
1.00000 0.20558 0.96553
1.00000 0.28769 0.91700
0.00000 0.10442 0.97024
0.00000 0.10122 0.96731
0.27995 0.10079 0.96392
0.57634 0.09970 0.97137
0.78604 0.14374 0.97645
0.93198 0.23545 0.97631
1.00000 0.29845 0.95813
1.00000 0.32859 0.91412
0.00000 0.34883 0.96922
0.00000 0.36489 0.96649
0.35002 0.39507 0.96439
0.59740 0.40273 0.95837
0.77998 0.43531 0.93816
0.91876 0.45552 0.93593
1.00000 0.46030 0.92912
1.00000 0.44990 0.89995
0.00000 0.56181 0.96799
0.08849 0.57180 0.96260
0.37270 0.58972 0.94688
0.59081 0.60451 0.91705
0.75477 0.61481 0.89557
0.88951 0.62514 0.88242
1.00000 0.62472 0.88727
1.00000 0.62797 0.86647
0.00000 0.67711 0.96859
0.00000 0.68121 0.96017
0.23833 0.69217 0.93510
0.51636 0.70625 0.89244
0.71358 0.71586 0.85806
0.85634 0.72527 0.84775
0.97784 0.73729 0.84827
1.00000 0.74702 0.83872
0.00000 0.78133 0.97280
0.00000 0.78477 0.96471
0.00000 0.79430 0.93303
0.39827 0.80601 0.88592
0.65266 0.81306 0.84461
0.82089 0.82098 0.82090
0.95813 0.82500 0.81881
1.00000 0.82752 0.82131
0.00000 0.87378 0.94023
0.00000 0.87662 0.93481
0.00000 0.88316 0.91617
0.26419 0.89418 0.87067
0.58891 0.90721 0.82230
0.77669 0.91608 0.80068
0.91255 0.92267 0.79765
0.98601 0.91834 0.80679
0.00000 0.95914 0.83871
0.00000 0.96151 0.83557
0.00000 0.96723 0.82774
0.33766 0.97732 0.81361
0.55357 0.99128 0.79643
0.71380 1.00000 0.78318
0.83389 1.00000 0.77853
0.91884 1.00000 0.77631
0.00000 0.10504 0.96200
0.00000 0.09811 0.96170
0.24820 0.07359 0.96196
0.53110 0.00000 0.96461
0.75600 0.00000 0.96953
0.91267 0.00000 0.97443
1.00000 0.20857 0.97837
1.00000 0.35771 0.97543
0.00000 0.20118 0.96200
0.00000 0.19711 0.96179
0.24006 0.18327 0.96221
0.53899 0.13374 0.96509
0.75969 0.09450 0.96963
0.91332 0.11339 0.97418
1.00000 0.29770 0.97830
1.00000 0.40839 0.97623
0.00000 0.35749 0.96432
0.00000 0.36060 0.96432
0.25297 0.36810 0.96531
0.55751 0.37459 0.96851
0.76168 0.40667 0.97207
0.90409 0.44601 0.97705
1.00000 0.47092 0.97884
1.00000 0.52594 0.97569
0.00000 0.58416 0.97077
0.15913 0.59714 0.97167
0.42400 0.62191 0.97406
0.60327 0.62190 0.97751
0.75652 0.62876 0.97961
0.88460 0.66776 0.97858
0.99704 0.67242 0.97980
1.00000 0.66899 0.96771
0.00000 0.70072 0.97767
0.00000 0.70572 0.97788
0.33486 0.71695 0.97880
0.55403 0.73008 0.97935
0.72677 0.74330 0.97550
0.86082 0.76551 0.97264
0.97169 0.77773 0.97240
1.00000 0.77154 0.95024
0.00000 0.78886 0.98358
0.00000 0.79211 0.98320
0.15665 0.79971 0.98274
0.47051 0.81068 0.98184
0.68063 0.82275 0.97887
0.83037 0.83219 0.96940
0.95069 0.83910 0.95641
1.00000 0.84206 0.93102
0.00000 0.87882 0.98838
0.00000 0.88136 0.98715
0.00000 0.88763 0.98394
0.36737 0.89657 0.97436
0.61656 0.90520 0.95482
0.78763 0.91424 0.93376
0.92088 0.92101 0.92060
1.00000 0.91621 0.91239
0.00000 0.95510 0.92499
0.00000 0.95703 0.92344
0.27444 0.96197 0.91949
0.45322 0.97078 0.91228
0.60960 0.98247 0.90288
0.74382 0.99412 0.89461
0.85704 0.99890 0.89022
0.94222 0.99448 0.88763
0.00000 0.16920 0.96093
0.00000 0.16131 0.96122
0.21712 0.14743 0.96206
0.49940 0.13783 0.96402
0.73482 0.14031 0.96797
0.88474 0.01411 0.97127
1.00000 0.13553 0.97443
1.00000 0.35087 0.97681
0.00000 0.23986 0.96164
0.00000 0.23595 0.96195
0.22136 0.23019 0.96266
0.50364 0.22053 0.96492
0.73596 0.22874 0.96890
0.88538 0.20454 0.97198
1.00000 0.23756 0.97537
1.00000 0.39948 0.97811
0.00000 0.38246 0.96418
0.00000 0.38258 0.96447
0.22038 0.38117 0.96535
0.51746 0.38759 0.96798
0.73645 0.41046 0.97155
0.88401 0.42180 0.97548
1.00000 0.44125 0.97878
1.00000 0.51713 0.98102
0.00000 0.58173 0.97003
0.13065 0.58986 0.97079
0.39370 0.60890 0.97285
0.60226 0.62427 0.97525
0.75082 0.63559 0.97827
0.87817 0.65366 0.98182
0.99421 0.67870 0.98644
1.00000 0.67366 0.98800
0.21179 0.72963 0.97643
0.31620 0.73584 0.97703
0.47263 0.74991 0.97856
0.62383 0.76311 0.98132
0.75059 0.77169 0.98403
0.86599 0.78588 0.98858
0.96566 0.80372 0.99496
1.00000 0.79432 0.99376
0.00000 0.80257 0.97880
0.17945 0.80546 0.97949
0.38331 0.81179 0.98123
0.56503 0.82149 0.98425
0.71163 0.83172 0.98828
0.83285 0.84805 0.99444
0.93821 0.86621 0.99979
1.00000 0.85986 0.99471
0.00000 0.87471 0.98715
0.12838 0.87643 0.98753
0.33836 0.88070 0.98879
0.51661 0.88825 0.99077
0.67024 0.89916 0.99266
0.79837 0.91227 0.99533
0.91198 0.92148 0.99786
1.00000 0.91554 0.99229
0.32941 0.94325 0.97831
0.36602 0.94504 0.97828
0.44387 0.94953 0.97820
0.54810 0.95710 0.97812
0.65861 0.96734 0.97823
0.76867 0.97749 0.97895
0.87665 0.98269 0.97976
0.97695 0.97699 0.97690
