fuji-film/cube-lut/astia.cube
LUT_3D_SIZE 5
DOMAIN_MIN 0.000000 0.000000 0.000000
DOMAIN_MAX 0.903226 0.903226 0.903226
0.00000 0.00000 0.00000
0.26006 0.02429 0.00402
0.70982 0.00000 0.00000
0.97342 0.00000 0.20404
1.00000 0.17181 0.00000
0.00000 0.18875 0.00000
0.22168 0.21092 0.00000
0.70984 0.20890 0.00000
0.97886 0.13058 0.00000
1.00000 0.23218 0.00000
0.00000 0.58972 0.00000
0.00000 0.60243 0.00000
0.60002 0.61099 0.00000
0.93387 0.55798 0.00000
1.00000 0.46025 0.00000
0.00000 0.82034 0.00000
0.00000 0.82971 0.00000
0.34470 0.84812 0.00000
0.82111 0.84893 0.00000
0.99477 0.82981 0.00000
0.00000 0.95352 0.19504
0.00000 0.95930 0.12255
0.12491 0.97588 0.00000
0.68342 1.00000 0.00000
0.89143 1.00000 0.00000
0.00142 0.00121 0.28365
0.28774 0.03448 0.28300
0.72378 0.09240 0.32710
0.97451 0.00000 0.44666
1.00000 0.22564 0.21957
0.00000 0.22578 0.25185
0.24016 0.24025 0.23987
0.69575 0.27408 0.29887
0.97740 0.19379 0.36573
1.00000 0.23450 0.12927
0.00000 0.59902 0.24625
0.00000 0.60969 0.18874
0.60631 0.62714 0.21892
0.92277 0.59144 0.21548
1.00000 0.45427 0.12287
0.00000 0.81978 0.26686
0.00000 0.82915 0.18368
0.35256 0.85047 0.02107
0.82539 0.85163 0.14125
0.99489 0.83558 0.11460
0.00000 0.95580 0.34617
0.00000 0.96172 0.31301
0.14258 0.97925 0.22799
0.69546 1.00000 0.24195
0.89740 1.00000 0.25690
0.00000 0.00000 0.85352
0.26109 0.00000 0.84515
0.73517 0.01387 0.79476
0.97035 0.07065 0.78523
1.00000 0.24679 0.68195
0.00000 0.28426 0.81224
0.30926 0.32202 0.75874
0.70690 0.35157 0.70956
0.94913 0.35154 0.73679
1.00000 0.32538 0.71625
0.00000 0.60010 0.73723
0.00000 0.60739 0.69639
0.62839 0.62799 0.62817
0.90467 0.63322 0.64150
1.00000 0.63453 0.66243
0.00000 0.80238 0.70188
0.00000 0.80920 0.67290
0.47476 0.82782 0.58426
0.83696 0.84426 0.58136
0.99589 0.83968 0.62444
0.00000 0.95838 0.63319
0.00000 0.96504 0.61681
0.31349 0.98470 0.57523
0.72473 1.00000 0.55523
0.90766 1.00000 0.56008
0.00000 0.00000 0.96913
0.17217 0.00000 0.96509
0.67843 0.00000 0.97531
0.96277 0.00000 0.98904
1.00000 0.29850 0.94755
0.00000 0.28599 0.96642
0.19293 0.30163 0.96333
0.68961 0.33786 0.96917
0.95562 0.40205 0.96409
1.00000 0.41778 0.93634
0.00000 0.62941 0.97848
0.25709 0.64528 0.97172
0.65571 0.67329 0.92841
0.90540 0.69359 0.89794
1.00000 0.69861 0.88276
0.00000 0.80652 0.98600
0.00000 0.81570 0.96893
0.52566 0.83522 0.90171
0.84776 0.84762 0.84778
1.00000 0.84877 0.84432
0.00000 0.95877 0.86298
0.00000 0.96488 0.85483
0.47545 0.98270 0.83340
0.75379 1.00000 0.81207
0.92284 1.00000 0.80614
0.00000 0.16920 0.96093
0.09750 0.15180 0.96179
0.62850 0.15197 0.96587
0.91948 0.03219 0.97213
1.00000 0.35087 0.97681
0.00000 0.33705 0.96325
0.12737 0.33196 0.96414
0.63622 0.34260 0.96866
0.91964 0.37044 0.97512
1.00000 0.48124 0.97971
0.20883 0.67656 0.97393
0.45275 0.70082 0.97669
0.69850 0.71528 0.98028
0.90447 0.73878 0.98679
1.00000 0.74302 0.99143
0.00000 0.81980 0.98018
0.30113 0.82623 0.98182
0.62705 0.84191 0.98807
0.85335 0.86840 0.99700
1.00000 0.87355 0.99456
0.32941 0.94325 0.97831
0.42206 0.94804 0.97823
0.60417 0.96191 0.97814
0.79555 0.97979 0.97919
0.97695 0.97699 0.97690
