fuji-film/cube-lut/classic-neg.cube
LUT_3D_SIZE 5
DOMAIN_MIN 0.000000 0.000000 0.000000
DOMAIN_MAX 0.903226 0.903226 0.903226
0.00975 0.01110 0.00962
0.18952 0.02790 0.00448
0.64597 0.11306 0.00000
0.81642 0.18154 0.00000
0.83990 0.19802 0.00000
0.00000 0.14416 0.06263
0.12686 0.16032 0.03759
0.64785 0.20670 0.00825
0.81538 0.19238 0.00000
0.83601 0.19631 0.00000
0.00000 0.48951 0.24537
0.00000 0.50068 0.23390
0.54357 0.57651 0.23073
0.86692 0.54092 0.21055
0.85996 0.38175 0.00000
0.00000 0.73029 0.40491
0.00000 0.73645 0.38364
0.00000 0.75112 0.38922
0.84339 0.84839 0.33959
0.92534 0.79826 0.33140
0.00000 0.83850 0.52677
0.00000 0.84094 0.50898
0.00000 0.84660 0.48379
0.59281 0.90902 0.45064
0.87368 0.94961 0.41250
0.04901 0.03158 0.15318
0.25488 0.06152 0.13853
0.69902 0.17162 0.13117
0.84040 0.23165 0.18387
0.85072 0.24694 0.09683
0.00000 0.19319 0.22643
0.20420 0.21934 0.21690
0.69399 0.30776 0.22059
0.83693 0.22598 0.16980
0.84423 0.22910 0.01424
0.00000 0.52518 0.37265
0.00000 0.53278 0.36417
0.60681 0.60701 0.33133
0.88045 0.56885 0.28573
0.87003 0.39197 0.11189
0.00000 0.73866 0.47656
0.00000 0.74173 0.44293
0.00000 0.76044 0.39253
0.85191 0.86154 0.37889
0.92748 0.83230 0.36528
0.00000 0.84214 0.56622
0.00000 0.84489 0.55127
0.00000 0.85312 0.51974
0.62886 0.91900 0.49099
0.88046 0.96074 0.46691
0.16303 0.12912 0.53838
0.37142 0.16040 0.51465
0.77974 0.24053 0.48603
0.87312 0.25706 0.48362
0.88265 0.27822 0.43150
0.16149 0.32587 0.62131
0.40013 0.37074 0.60321
0.78178 0.43314 0.56444
0.89502 0.39135 0.54923
0.89861 0.34340 0.50433
0.00000 0.60061 0.75188
0.11053 0.61820 0.73075
0.73152 0.69320 0.67797
0.92543 0.69508 0.67851
0.95102 0.68057 0.68329
0.00000 0.75611 0.80204
0.00000 0.76271 0.80023
0.42051 0.82046 0.77097
0.89951 0.89466 0.73214
0.96578 0.88981 0.76672
0.00000 0.85387 0.75260
0.00000 0.86036 0.74503
0.26161 0.88471 0.71978
0.71933 0.94349 0.68976
0.89851 0.98618 0.67407
0.38354 0.28298 0.77490
0.59401 0.31511 0.75179
0.82673 0.31811 0.69381
0.90290 0.31247 0.66678
0.91694 0.39453 0.69640
0.37995 0.48088 0.87102
0.59426 0.50630 0.84204
0.85549 0.53511 0.79444
0.93167 0.51320 0.75732
0.94027 0.52698 0.75818
0.31398 0.71496 0.94861
0.52535 0.74642 0.92871
0.83538 0.79462 0.89316
0.95564 0.80665 0.88083
0.97251 0.79803 0.86906
0.00000 0.79188 0.98166
0.00000 0.80326 0.98097
0.61740 0.86923 0.94619
0.93409 0.91670 0.91133
0.98737 0.91214 0.90665
0.00000 0.87881 0.93162
0.20588 0.88839 0.92908
0.53299 0.92058 0.91817
0.79928 0.96361 0.89961
0.92676 0.99297 0.88687
0.50741 0.36843 0.79604
0.65549 0.37361 0.76390
0.83989 0.38598 0.71985
0.90430 0.34916 0.68606
0.93027 0.44912 0.72860
0.50585 0.51565 0.86634
0.65940 0.53473 0.84016
0.85800 0.53847 0.79558
0.92718 0.51001 0.75905
0.94467 0.58454 0.79539
0.55601 0.77727 0.96634
0.73901 0.82195 0.95532
0.91754 0.85691 0.94122
0.97490 0.86141 0.93382
0.97773 0.84593 0.92053
0.40095 0.85384 0.98701
0.55839 0.87277 0.98911
0.81360 0.91189 0.98631
0.96117 0.94387 0.98310
1.00000 0.94401 0.97612
0.46073 0.90443 0.99317
0.53063 0.91317 0.99282
0.69325 0.93610 0.99184
0.85770 0.96915 0.99021
0.98699 0.98146 0.97981
