fuji-film/cube-lut/classic-chrome.cube
LUT_3D_SIZE 8
DOMAIN_MIN 0.000000 0.000000 0.000000
DOMAIN_MAX 0.903226 0.903226 0.903226
0.00000 0.00000 0.00000
0.04977 0.00123 0.00000
0.25643 0.02285 0.00000
0.52389 0.07261 0.01985
0.71213 0.08813 0.00000
0.83012 0.06089 0.00000
0.89482 0.04348 0.00000
0.90571 0.07979 0.00000
0.00000 0.03322 0.00000
0.04216 0.04319 0.00555
0.26179 0.07151 0.00657
0.53337 0.10707 0.00836
0.72077 0.12909 0.00000
0.83868 0.12015 0.00000
0.90217 0.12117 0.00000
0.91073 0.13404 0.00000
0.00000 0.18417 0.00000
0.00000 0.18902 0.01413
0.23107 0.22185 0.03141
0.54307 0.25230 0.04093
0.73812 0.25156 0.00000
0.86030 0.23881 0.00000
0.92262 0.23421 0.00000
0.92456 0.22260 0.00000
0.00000 0.39703 0.00000
0.00000 0.40283 0.00000
0.06402 0.42237 0.00000
0.46407 0.46021 0.09119
0.73008 0.46929 0.00000
0.87714 0.46103 0.00000
0.95447 0.43057 0.00000
0.95307 0.38618 0.00000
0.00000 0.57977 0.00000
0.00000 0.58517 0.00000
0.00000 0.59878 0.00000
0.32229 0.62449 0.00000
0.65939 0.65079 0.00000
0.85271 0.66462 0.00000
0.95759 0.65492 0.00000
0.97212 0.60479 0.00000
0.00000 0.71447 0.00000
0.00000 0.71824 0.00000
0.00000 0.72757 0.00000
0.00000 0.74411 0.00000
0.53485 0.76687 0.00000
0.79125 0.78424 0.00000
0.93266 0.79376 0.00000
0.97331 0.77592 0.00000
0.00000 0.80631 0.00000
0.00000 0.80850 0.00000
0.00000 0.81525 0.00000
0.00000 0.82671 0.00000
0.34975 0.84467 0.00000
0.70243 0.86337 0.00000
0.87894 0.87442 0.00000
0.96179 0.87549 0.00000
0.00000 0.87342 0.00000
0.00000 0.87546 0.00000
0.00000 0.88046 0.00000
0.00000 0.88957 0.00000
0.34988 0.90294 0.00000
0.63157 0.91854 0.00000
0.80569 0.93204 0.00000
0.89816 0.93700 0.04027
0.00114 0.00122 0.03483
0.06705 0.01405 0.05739
0.28463 0.04852 0.09495
0.54476 0.09903 0.13990
0.72296 0.12835 0.14036
0.83587 0.10450 0.03575
0.89856 0.08451 0.00000
0.90654 0.10523 0.00000
0.00163 0.04980 0.04620
0.06912 0.06971 0.06917
0.27917 0.11265 0.11353
0.55030 0.14182 0.14361
0.72962 0.15265 0.13077
0.84421 0.14636 0.02135
0.90589 0.14181 0.00000
0.91085 0.14873 0.00000
0.00000 0.20441 0.06678
0.00000 0.21680 0.07711
0.25525 0.25348 0.11105
0.54481 0.28236 0.13907
0.74557 0.26986 0.13520
0.86684 0.24824 0.04916
0.92646 0.23639 0.00000
0.92443 0.22226 0.00000
0.00000 0.41390 0.05722
0.00000 0.42165 0.07318
0.09284 0.43997 0.09313
0.49062 0.47095 0.13845
0.73622 0.49617 0.13642
0.88185 0.47339 0.10086
0.95901 0.44561 0.00000
0.95488 0.38666 0.00000
0.00000 0.59103 0.00000
0.00000 0.59679 0.00000
0.00000 0.60995 0.00000
0.32787 0.63621 0.01852
0.67169 0.66303 0.06771
0.85712 0.67676 0.00000
0.96271 0.66574 0.00970
0.97292 0.61308 0.00000
0.00000 0.72157 0.00000
0.00000 0.72537 0.00000
0.00000 0.73439 0.00000
0.00000 0.75097 0.00000
0.54820 0.77383 0.00000
0.80034 0.79058 0.00000
0.93816 0.80056 0.00000
0.97491 0.78234 0.00000
0.00000 0.81039 0.00000
0.00000 0.81295 0.00000
0.00000 0.81984 0.00000
0.00000 0.83062 0.00000
0.35072 0.84930 0.00000
0.71362 0.86815 0.00000
0.88519 0.87919 0.00000
0.96596 0.88053 0.00000
0.00000 0.87640 0.00000
0.00000 0.87833 0.00000
0.00000 0.88342 0.00000
0.00000 0.89252 0.00000
0.35121 0.90631 0.00000
0.63881 0.92206 0.00000
0.81025 0.93641 0.14845
0.90052 0.94184 0.17845
0.00901 0.01267 0.21385
0.07886 0.01990 0.23368
0.32937 0.06467 0.29130
0.56722 0.12260 0.31642
0.73939 0.14853 0.33713
0.85762 0.17080 0.35384
0.91384 0.16709 0.30830
0.91237 0.17413 0.20369
0.01071 0.09536 0.23367
0.11047 0.11941 0.25353
0.31744 0.15505 0.29088
0.55883 0.20315 0.33764
0.74284 0.23304 0.36930
0.86693 0.23882 0.38642
0.92242 0.20294 0.31073
0.91532 0.19330 0.18247
0.00000 0.25220 0.24453
0.01813 0.26390 0.25784
0.29251 0.29233 0.29248
0.54785 0.33144 0.33572
0.74859 0.37390 0.38775
0.88060 0.36692 0.38689
0.94314 0.27563 0.29928
0.93006 0.23598 0.14744
0.00000 0.44460 0.24972
0.00000 0.45041 0.25661
0.17994 0.47542 0.28110
0.50380 0.51052 0.32574
0.73447 0.53931 0.36637
0.87643 0.54330 0.37641
0.96823 0.48295 0.30066
0.96100 0.40813 0.16706
0.00000 0.61546 0.25314
0.00000 0.62148 0.25761
0.00000 0.63702 0.27368
0.40084 0.65983 0.31690
0.69600 0.68673 0.35308
0.85578 0.70531 0.36490
0.96496 0.69219 0.30184
0.97438 0.63976 0.20839
0.00000 0.73838 0.24888
0.00000 0.74263 0.24984
0.00000 0.75202 0.24192
0.00000 0.76708 0.24661
0.59936 0.79085 0.33270
0.81715 0.80405 0.32273
0.94275 0.81624 0.30852
0.97620 0.79629 0.25150
0.00000 0.82173 0.24620
0.00000 0.82424 0.24425
0.00000 0.83052 0.23272
0.00000 0.84035 0.18335
0.39105 0.86029 0.17543
0.74677 0.87929 0.32112
0.89983 0.88981 0.29582
0.97715 0.89371 0.22965
0.00000 0.88362 0.24205
0.00000 0.88563 0.23941
0.00000 0.89070 0.23194
0.00000 0.89966 0.22190
0.37125 0.91437 0.23612
0.65687 0.93098 0.29245
0.81980 0.94714 0.32939
0.90718 0.95070 0.33985
0.00000 0.02826 0.43919
0.08102 0.03879 0.46463
0.32213 0.07567 0.49990
0.59153 0.14754 0.55270
0.76048 0.18896 0.56410
0.87148 0.20574 0.56504
0.92702 0.21651 0.54752
0.93705 0.21151 0.48849
0.00000 0.12417 0.46194
0.11563 0.14797 0.47755
0.34313 0.18172 0.51090
0.59024 0.24256 0.55184
0.76420 0.27250 0.57360
0.87905 0.28436 0.58549
0.93975 0.27012 0.57358
0.94603 0.28146 0.52383
0.00000 0.30697 0.47452
0.11834 0.32556 0.48797
0.33738 0.35071 0.51972
0.57764 0.38464 0.54765
0.76342 0.42257 0.58053
0.88482 0.46097 0.61540
0.96455 0.45799 0.62845
0.96628 0.43641 0.57510
0.00000 0.48766 0.47288
0.00000 0.49122 0.47964
0.23923 0.50593 0.50898
0.53714 0.53680 0.53683
0.74591 0.56250 0.56808
0.87606 0.59038 0.60022
0.96527 0.62484 0.63744
0.97474 0.57950 0.57832
0.00000 0.64195 0.46408
0.00000 0.64662 0.47019
0.00000 0.65837 0.49546
0.44346 0.67973 0.52427
0.70434 0.70161 0.55702
0.85212 0.72321 0.59149
0.95447 0.73867 0.61053
0.97505 0.72748 0.59276
0.00000 0.75411 0.45607
0.00000 0.75704 0.46032
0.00000 0.76423 0.47549
0.26829 0.78121 0.50826
0.64596 0.80338 0.54962
0.83020 0.82026 0.57706
0.93626 0.83742 0.61760
0.97520 0.82829 0.57322
0.00000 0.83596 0.45261
0.00000 0.83851 0.45610
0.00000 0.84463 0.46695
0.00000 0.85596 0.48511
0.49887 0.87347 0.51165
0.78566 0.89246 0.57477
0.91639 0.90750 0.56271
0.98052 0.91382 0.58070
0.00000 0.89526 0.43034
0.00000 0.89724 0.43130
0.00000 0.90241 0.43364
0.00000 0.91226 0.43951
0.44013 0.92627 0.46181
0.68659 0.94508 0.49279
0.83352 0.96103 0.51183
0.91356 0.96447 0.51963
0.00000 0.05422 0.62279
0.08935 0.06778 0.63912
0.31646 0.09516 0.67863
0.57520 0.14731 0.71809
0.77088 0.20588 0.74792
0.88574 0.23649 0.75521
0.93424 0.24609 0.73683
0.94158 0.27169 0.68624
0.00000 0.15013 0.63999
0.09861 0.16079 0.65527
0.33419 0.19009 0.68788
0.58871 0.24614 0.72098
0.77867 0.30397 0.74857
0.89014 0.32711 0.75678
0.94472 0.32264 0.74715
0.95077 0.35009 0.70283
0.00000 0.35938 0.66479
0.18922 0.39527 0.67942
0.39082 0.41879 0.70101
0.60870 0.44007 0.72271
0.77752 0.48241 0.74222
0.89022 0.50418 0.75715
0.96219 0.50469 0.76567
0.96989 0.51777 0.74336
0.00000 0.53505 0.66728
0.00000 0.53959 0.67485
0.31928 0.55551 0.69234
0.56669 0.58121 0.71330
0.75638 0.61065 0.73308
0.88097 0.64096 0.75288
0.96430 0.67341 0.77465
0.97882 0.67853 0.76859
0.00000 0.66870 0.65577
0.00000 0.67209 0.66078
0.06716 0.68371 0.67542
0.48093 0.70197 0.69966
0.72259 0.72229 0.72197
0.86159 0.73756 0.74264
0.95342 0.76100 0.76385
0.98273 0.77670 0.77317
0.00000 0.77032 0.64359
0.00000 0.77300 0.64810
0.00000 0.77962 0.65938
0.33549 0.79726 0.68490
0.65530 0.81438 0.71260
0.83361 0.83009 0.73607
0.93714 0.84497 0.76329
0.98260 0.84860 0.77544
0.00000 0.84702 0.62888
0.00000 0.84928 0.63361
0.00000 0.85552 0.64665
0.06598 0.86675 0.67169
0.56554 0.88423 0.70587
0.79622 0.90331 0.73381
0.92140 0.92084 0.74974
0.97848 0.92895 0.78556
0.00000 0.90853 0.60479
0.00000 0.91076 0.60783
0.00000 0.91642 0.61547
0.24453 0.92562 0.62934
0.52564 0.94029 0.64861
0.71720 0.95926 0.66897
0.84255 0.97466 0.68570
0.91798 0.97804 0.69271
0.00000 0.09927 0.75252
0.10106 0.10697 0.76536
0.31779 0.13009 0.79694
0.57184 0.17221 0.83063
0.76080 0.21311 0.85407
0.88880 0.26836 0.87357
0.94498 0.30381 0.86400
0.94995 0.34596 0.82414
0.00000 0.18606 0.76589
0.09771 0.19296 0.77774
0.33295 0.21254 0.80456
0.58398 0.25438 0.83475
0.77126 0.30058 0.85590
0.89647 0.35769 0.87248
0.95355 0.37836 0.86548
0.95640 0.42075 0.82861
0.00000 0.38003 0.78638
0.14759 0.39984 0.79699
0.40361 0.44184 0.81740
0.61762 0.45734 0.83782
0.78664 0.50411 0.85174
0.90234 0.54241 0.86483
0.96481 0.55772 0.86618
0.96942 0.55821 0.83941
0.00000 0.58444 0.79578
0.18729 0.60159 0.80278
0.40488 0.62516 0.81593
0.61745 0.64097 0.82953
0.77720 0.66458 0.84253
0.89109 0.69535 0.85543
0.96816 0.71474 0.86497
0.98017 0.71577 0.85345
0.00000 0.69979 0.78495
0.00000 0.70311 0.78922
0.27364 0.71367 0.80058
0.53844 0.73194 0.81861
0.74012 0.75014 0.83621
0.86964 0.77056 0.85013
0.96203 0.79711 0.86288
0.99320 0.80955 0.86431
0.00000 0.79091 0.77287
0.00000 0.79277 0.77553
0.00000 0.80032 0.78585
0.40548 0.81421 0.80626
0.67895 0.82992 0.82760
0.84627 0.84594 0.84599
0.95453 0.85941 0.86156
0.99649 0.86702 0.86999
0.00000 0.86069 0.76248
0.00000 0.86286 0.76608
0.00000 0.86864 0.77559
0.25002 0.88045 0.79344
0.60729 0.89793 0.81759
0.80151 0.91550 0.83689
0.92306 0.93010 0.85435
0.97846 0.93285 0.86804
0.00000 0.92140 0.74160
0.00000 0.92353 0.74458
0.14725 0.92894 0.75252
0.39965 0.93881 0.76504
0.58980 0.95450 0.78076
0.74195 0.96986 0.79744
0.85252 0.98335 0.81276
0.92939 0.98567 0.81801
0.00000 0.14929 0.84162
0.11578 0.15413 0.85352
0.33244 0.17077 0.88134
0.56842 0.20647 0.91592
0.75296 0.23546 0.94099
0.87803 0.26781 0.95460
0.94866 0.33234 0.95951
0.95680 0.42265 0.92409
0.00000 0.22727 0.85424
0.11377 0.23177 0.86484
0.33201 0.24728 0.89013
0.57853 0.27486 0.92090
0.76185 0.30622 0.94384
0.88570 0.34949 0.95579
0.95559 0.41783 0.95895
0.96128 0.48020 0.92524
0.00000 0.39348 0.87187
0.10186 0.40325 0.88092
0.36806 0.43209 0.90112
0.60138 0.44625 0.92599
0.77915 0.49180 0.94365
0.89653 0.54857 0.95277
0.96811 0.58784 0.95561
0.97169 0.60655 0.92714
0.07271 0.60726 0.88301
0.27965 0.62849 0.89065
0.48853 0.66912 0.90813
0.65358 0.67879 0.92537
0.79210 0.69157 0.93825
0.89992 0.74281 0.94755
0.97507 0.75914 0.94924
0.98707 0.74397 0.93006
0.06913 0.73413 0.88090
0.20860 0.74204 0.88595
0.40760 0.75695 0.89812
0.60690 0.77049 0.91433
0.76891 0.78806 0.92918
0.88625 0.82045 0.94074
0.96951 0.84156 0.94488
0.99974 0.83275 0.93609
0.00000 0.81187 0.86975
0.00000 0.81435 0.87351
0.25658 0.82148 0.88317
0.51919 0.83382 0.90033
0.72812 0.85078 0.92101
0.86197 0.86568 0.93614
0.95649 0.88031 0.94294
1.00000 0.88656 0.94111
0.00000 0.87660 0.85671
0.00000 0.87849 0.86031
0.00000 0.88486 0.87030
0.41836 0.89614 0.88642
0.65975 0.90875 0.90567
0.81793 0.92442 0.92357
0.93533 0.93536 0.93512
0.99180 0.93707 0.94012
0.21250 0.93259 0.83928
0.27089 0.93463 0.84168
0.37996 0.93946 0.84801
0.51546 0.94913 0.85872
0.65309 0.96193 0.87247
0.77547 0.97472 0.88822
0.87594 0.98559 0.90352
0.94877 0.98712 0.91366
0.00000 0.20040 0.88100
0.14076 0.20418 0.89130
0.32564 0.21907 0.91562
0.55832 0.25087 0.94977
0.74113 0.28390 0.96943
0.86364 0.30579 0.97302
0.95220 0.33130 0.97553
0.95748 0.45765 0.97480
0.00000 0.27492 0.89304
0.13799 0.27886 0.90179
0.33481 0.29094 0.92435
0.56676 0.31696 0.95540
0.74877 0.34971 0.97154
0.87060 0.36984 0.97456
0.95699 0.41201 0.97709
0.96231 0.51053 0.97635
0.00000 0.41685 0.91013
0.15494 0.42100 0.91778
0.35805 0.44034 0.93773
0.58539 0.47184 0.96088
0.76341 0.50024 0.97413
0.88201 0.53346 0.97795
0.96747 0.57181 0.98161
0.97341 0.62487 0.97927
0.20730 0.62486 0.92591
0.29785 0.63853 0.93291
0.48353 0.66751 0.94894
0.66664 0.69021 0.96531
0.79040 0.70700 0.97693
0.89284 0.73244 0.98319
0.97394 0.76315 0.98844
0.98493 0.75602 0.98210
0.27589 0.76340 0.93018
0.37307 0.77511 0.93694
0.53163 0.79833 0.95044
0.68098 0.81641 0.96661
0.79759 0.82730 0.97853
0.89496 0.84457 0.98562
0.96982 0.86544 0.98939
0.99560 0.85245 0.98522
0.23492 0.83129 0.92902
0.31449 0.83533 0.93343
0.45999 0.84379 0.94397
0.62356 0.85473 0.95772
0.75920 0.86569 0.97067
0.87057 0.88587 0.98096
0.95592 0.91104 0.98779
1.00000 0.90456 0.98934
0.17913 0.88335 0.91848
0.26477 0.88545 0.92175
0.40788 0.89071 0.93053
0.56877 0.89939 0.94294
0.71430 0.91303 0.95736
0.83219 0.93194 0.97195
0.93114 0.94392 0.98412
1.00000 0.94104 0.99162
0.43501 0.93526 0.90397
0.46092 0.93728 0.90652
0.51999 0.94266 0.91301
0.60498 0.95182 0.92401
0.70378 0.96199 0.93763
0.80265 0.97402 0.95262
0.89933 0.98198 0.96934
0.98054 0.98058 0.98051
