fuji-film/cube-lut/classic-neg.cube
LUT_3D_SIZE 8
DOMAIN_MIN 0.000000 0.000000 0.000000
DOMAIN_MAX 0.903226 0.903226 0.903226
0.00975 0.01110 0.00962
0.06401 0.01234 0.00435
0.24922 0.04020 0.00573
0.53312 0.09761 0.00000
0.72213 0.12572 0.00000
0.80018 0.16427 0.00000
0.83960 0.22020 0.00000
0.83990 0.19802 0.00000
0.00000 0.05301 0.02542
0.04201 0.06304 0.01786
0.22614 0.08320 0.01508
0.52886 0.12633 0.00303
0.72356 0.14062 0.00000
0.79969 0.16714 0.00000
0.83850 0.22075 0.00000
0.83849 0.19814 0.00000
0.00000 0.18460 0.08120
0.00000 0.18200 0.06371
0.16463 0.20342 0.05072
0.50443 0.24484 0.06574
0.73005 0.22239 0.00000
0.80366 0.19880 0.00000
0.83622 0.22179 0.00000
0.83524 0.19721 0.00000
0.00000 0.38537 0.18017
0.00000 0.38704 0.16669
0.00000 0.39115 0.17378
0.38587 0.43202 0.16425
0.74570 0.47419 0.17610
0.83570 0.40870 0.13449
0.85202 0.32771 0.00000
0.84241 0.27574 0.00000
0.00000 0.58315 0.30615
0.00000 0.58859 0.29651
0.00000 0.59913 0.29413
0.05534 0.62248 0.30334
0.67097 0.69043 0.27597
0.86181 0.69374 0.28203
0.90237 0.61738 0.24579
0.88725 0.53206 0.00476
0.00000 0.70791 0.39104
0.00000 0.71078 0.38307
0.00000 0.71690 0.36144
0.00000 0.72166 0.37856
0.39864 0.77787 0.34352
0.82510 0.82660 0.33169
0.91590 0.81054 0.33921
0.92228 0.76439 0.30377
0.00000 0.79862 0.46034
0.00000 0.80197 0.45358
0.00000 0.81002 0.43546
0.00000 0.81662 0.42340
0.00000 0.81163 0.42253
0.67184 0.87772 0.36136
0.88865 0.89751 0.35981
0.92335 0.88927 0.33106
0.00000 0.83850 0.52677
0.00000 0.83950 0.52021
0.00000 0.84161 0.50448
0.00000 0.84459 0.48933
0.00000 0.85326 0.47877
0.48913 0.89461 0.45686
0.78568 0.93404 0.43577
0.87368 0.94961 0.41250
0.01976 0.01537 0.04927
0.09069 0.02558 0.04552
0.26935 0.05385 0.03899
0.56599 0.12581 0.06486
0.73644 0.15452 0.05073
0.80960 0.17971 0.07220
0.84589 0.23720 0.06751
0.84330 0.21599 0.00000
0.00786 0.07149 0.08208
0.07494 0.08291 0.07680
0.24644 0.10700 0.07091
0.55380 0.15172 0.07662
0.73608 0.16019 0.04837
0.80781 0.17825 0.05652
0.84441 0.23563 0.04805
0.84150 0.21387 0.00000
0.00000 0.20069 0.14363
0.00000 0.20364 0.13766
0.20058 0.22651 0.12899
0.51979 0.26414 0.10633
0.74206 0.23901 0.07408
0.80908 0.19298 0.04549
0.84010 0.22531 0.00000
0.83725 0.20286 0.00000
0.00000 0.39585 0.22327
0.00000 0.39597 0.20612
0.00000 0.40022 0.19363
0.41734 0.44850 0.18877
0.75295 0.48353 0.18983
0.84095 0.40989 0.16253
0.85543 0.32018 0.03762
0.84414 0.26990 0.00000
0.00000 0.59280 0.33426
0.00000 0.59616 0.32037
0.00000 0.60151 0.29977
0.12919 0.62817 0.30177
0.68347 0.69612 0.27888
0.86436 0.70055 0.28806
0.90679 0.62738 0.26595
0.89193 0.53902 0.11568
0.00000 0.71190 0.40893
0.00000 0.71445 0.39804
0.00000 0.71876 0.37127
0.00000 0.72254 0.38172
0.42187 0.78390 0.34050
0.82834 0.83292 0.33273
0.91736 0.82055 0.34539
0.92386 0.77518 0.32413
0.00000 0.80187 0.47422
0.00000 0.80526 0.46579
0.00000 0.81262 0.44483
0.00000 0.81789 0.42419
0.00000 0.81544 0.41807
0.67710 0.88059 0.36032
0.89010 0.90054 0.36040
0.92337 0.89736 0.33248
0.00000 0.83992 0.54066
0.00000 0.84084 0.53532
0.00000 0.84305 0.51945
0.00000 0.84591 0.49918
0.00000 0.85677 0.48855
0.50779 0.89865 0.46872
0.79064 0.93748 0.44987
0.87618 0.95398 0.43283
0.06416 0.04057 0.20035
0.12599 0.04372 0.19512
0.34151 0.08920 0.18202
0.61877 0.15804 0.16821
0.76179 0.18217 0.17595
0.82818 0.20204 0.19913
0.86114 0.27434 0.22272
0.85426 0.26422 0.15722
0.05978 0.12061 0.22929
0.13519 0.13818 0.22938
0.30589 0.16824 0.22271
0.59986 0.22229 0.21476
0.76358 0.22409 0.21837
0.82830 0.20496 0.22514
0.86040 0.27337 0.22078
0.85246 0.25976 0.14392
0.00000 0.24542 0.29055
0.05927 0.25350 0.28742
0.26359 0.28007 0.27937
0.57350 0.33009 0.26952
0.78069 0.35922 0.29106
0.84343 0.28962 0.27039
0.85660 0.26679 0.20257
0.84631 0.23380 0.10243
0.00000 0.43703 0.37426
0.00000 0.44027 0.37222
0.14488 0.45709 0.36699
0.50535 0.50726 0.35379
0.77710 0.54891 0.35747
0.86638 0.49761 0.34063
0.87422 0.35448 0.24360
0.85573 0.28247 0.12439
0.00000 0.61258 0.45742
0.00000 0.61589 0.45203
0.00000 0.62076 0.44099
0.31514 0.65869 0.42122
0.72035 0.71487 0.39572
0.87170 0.72729 0.40522
0.91582 0.65970 0.34917
0.90544 0.56935 0.27268
0.00000 0.72118 0.49786
0.00000 0.72309 0.48894
0.00000 0.72554 0.46855
0.00000 0.73233 0.43192
0.53781 0.80393 0.44022
0.83866 0.84512 0.40637
0.91888 0.84490 0.39485
0.92822 0.80352 0.36427
0.00000 0.80772 0.53678
0.00000 0.81078 0.52471
0.00000 0.81679 0.49184
0.00000 0.81810 0.44048
0.00000 0.82221 0.43315
0.70765 0.89376 0.43612
0.89773 0.91510 0.41346
0.92169 0.92333 0.32136
0.00000 0.84326 0.58033
0.00000 0.84436 0.57474
0.00000 0.84669 0.56101
0.00000 0.85020 0.54315
0.02113 0.86805 0.52948
0.55249 0.91044 0.51297
0.80125 0.94613 0.49639
0.88213 0.96370 0.48419
0.12796 0.09391 0.42560
0.18768 0.10034 0.42175
0.39777 0.14442 0.40387
0.68837 0.21053 0.39182
0.79997 0.21143 0.37923
0.84801 0.21486 0.37896
0.87953 0.27890 0.40393
0.87309 0.27586 0.34636
0.12468 0.17130 0.45847
0.20209 0.18821 0.45422
0.39718 0.22252 0.43535
0.67418 0.27880 0.42059
0.80433 0.27966 0.41237
0.85154 0.24929 0.39907
0.88209 0.28364 0.42294
0.87684 0.28346 0.37632
0.10932 0.32416 0.52240
0.18514 0.33996 0.51951
0.38179 0.36682 0.50498
0.65189 0.41221 0.48777
0.81664 0.43167 0.48935
0.87953 0.40958 0.49711
0.90129 0.36640 0.49374
0.89149 0.33692 0.43739
0.00000 0.50038 0.60757
0.00000 0.50527 0.60264
0.26499 0.52462 0.58606
0.59254 0.56846 0.55798
0.81337 0.59349 0.55145
0.89659 0.57967 0.56366
0.93257 0.55870 0.57890
0.91719 0.49864 0.50898
0.00000 0.63894 0.66769
0.00000 0.64169 0.66611
0.00000 0.65530 0.65843
0.43172 0.70226 0.63281
0.76600 0.75039 0.61005
0.90377 0.76590 0.62418
0.94367 0.74932 0.62988
0.94530 0.71626 0.60636
0.00000 0.73343 0.69314
0.00000 0.73567 0.69186
0.00000 0.73998 0.68981
0.14021 0.76512 0.67979
0.63639 0.83106 0.64780
0.87367 0.86620 0.63425
0.94310 0.87343 0.67380
0.95415 0.85168 0.62910
0.00000 0.81062 0.69702
0.00000 0.81266 0.69473
0.00000 0.81602 0.68957
0.00000 0.81425 0.68311
0.35951 0.85004 0.65080
0.79344 0.91834 0.65148
0.92301 0.93859 0.61093
0.94464 0.94241 0.61131
0.00000 0.84835 0.68176
0.00000 0.85007 0.67791
0.00000 0.85466 0.66820
0.00000 0.86496 0.65246
0.32115 0.88657 0.63462
0.62785 0.92651 0.61989
0.82112 0.95875 0.60605
0.89204 0.98057 0.59888
0.20299 0.17180 0.63524
0.27892 0.17801 0.62675
0.48378 0.20982 0.59009
0.72624 0.25663 0.57229
0.83183 0.25904 0.55390
0.87653 0.25296 0.54522
0.89484 0.29064 0.53793
0.89173 0.29832 0.50420
0.20180 0.23411 0.65601
0.28130 0.24154 0.64509
0.48926 0.26721 0.61252
0.72523 0.30954 0.58634
0.83549 0.32580 0.57261
0.88168 0.31052 0.56288
0.89816 0.31122 0.55217
0.89767 0.31796 0.52552
0.16656 0.40180 0.72722
0.31697 0.43734 0.72170
0.51786 0.47278 0.69663
0.73209 0.49340 0.66360
0.85728 0.50497 0.64574
0.90204 0.47189 0.63243
0.91833 0.44589 0.62195
0.91660 0.43574 0.60600
0.00000 0.56842 0.80140
0.17592 0.57653 0.79368
0.40542 0.60090 0.77266
0.67674 0.63820 0.73634
0.85366 0.66252 0.71718
0.92007 0.65198 0.71322
0.94749 0.64565 0.72407
0.94821 0.64511 0.71754
0.00000 0.67609 0.86082
0.00000 0.68082 0.85527
0.17241 0.70227 0.83668
0.56348 0.74419 0.80057
0.82412 0.78581 0.77267
0.92570 0.79139 0.76894
0.95798 0.78377 0.77678
0.96477 0.78843 0.78208
0.00000 0.74915 0.89079
0.00000 0.75192 0.88987
0.00000 0.76022 0.88335
0.28860 0.79891 0.85245
0.69598 0.85258 0.81424
0.89772 0.88103 0.79806
0.95770 0.88233 0.81028
0.96847 0.87784 0.81536
0.00000 0.81263 0.88469
0.00000 0.81482 0.88541
0.00000 0.82049 0.88620
0.00000 0.83501 0.88126
0.53168 0.88057 0.85208
0.81490 0.92827 0.82012
0.93291 0.94506 0.80288
0.96766 0.94707 0.83452
0.00000 0.86109 0.82180
0.00000 0.86443 0.81987
0.00000 0.87135 0.81444
0.21796 0.88524 0.80270
0.48502 0.91248 0.78592
0.70120 0.94308 0.76812
0.83688 0.97254 0.75551
0.90430 0.99008 0.74883
0.36474 0.27379 0.77032
0.45644 0.29268 0.77180
0.63216 0.31350 0.74480
0.78452 0.32635 0.70981
0.86118 0.31633 0.68486
0.89712 0.30484 0.66406
0.90658 0.32200 0.66862
0.90895 0.35155 0.65905
0.38591 0.35028 0.81341
0.46057 0.36926 0.80927
0.63216 0.38311 0.77787
0.78874 0.39697 0.73741
0.87020 0.39189 0.71269
0.90452 0.38290 0.69553
0.91377 0.39082 0.69262
0.91566 0.40738 0.68207
0.35173 0.50718 0.87413
0.45791 0.53077 0.86696
0.65246 0.56877 0.84085
0.80942 0.58007 0.81298
0.89513 0.58749 0.79617
0.93124 0.56418 0.77662
0.94050 0.54709 0.75914
0.93826 0.53958 0.73877
0.32888 0.65317 0.91463
0.42172 0.67528 0.90796
0.60026 0.70490 0.88683
0.78058 0.72286 0.85186
0.89150 0.74484 0.84900
0.94558 0.73633 0.84044
0.96325 0.72495 0.83779
0.96216 0.72102 0.82272
0.00000 0.72454 0.94963
0.18221 0.73216 0.94354
0.42548 0.75604 0.92522
0.67910 0.79629 0.89722
0.86001 0.82576 0.87024
0.93648 0.82798 0.86217
0.96881 0.83296 0.87242
0.97551 0.83630 0.87077
0.00000 0.77279 0.97946
0.00000 0.77726 0.97813
0.00000 0.79484 0.97103
0.47938 0.83350 0.94352
0.76867 0.87438 0.90917
0.91874 0.89730 0.89126
0.97157 0.89692 0.88691
0.98103 0.89591 0.89150
0.00000 0.81878 0.98295
0.00000 0.82185 0.98322
0.00000 0.83072 0.98185
0.21686 0.85705 0.96949
0.60081 0.90131 0.93759
0.84920 0.93678 0.91058
0.94691 0.95094 0.90083
0.98044 0.95051 0.90335
0.00000 0.87529 0.91670
0.00000 0.87856 0.91576
0.18762 0.88745 0.91279
0.40485 0.90574 0.90569
0.59327 0.92873 0.89501
0.75829 0.95514 0.88244
0.86264 0.98353 0.87294
0.92106 0.99311 0.86400
0.43595 0.32709 0.78899
0.51013 0.33197 0.78035
0.65893 0.34881 0.74888
0.79270 0.34428 0.71573
0.86114 0.32134 0.68783
0.89589 0.30184 0.66497
0.90871 0.33194 0.67605
0.92053 0.43192 0.71210
0.44469 0.39229 0.82016
0.52114 0.39796 0.81011
0.65892 0.41057 0.77988
0.79658 0.41079 0.74122
0.86969 0.38901 0.71411
0.90263 0.36571 0.69254
0.91838 0.40535 0.70692
0.93009 0.49070 0.73745
0.43338 0.53372 0.88955
0.50570 0.54724 0.87765
0.67009 0.56399 0.85085
0.81928 0.57374 0.82212
0.89699 0.57933 0.80753
0.93375 0.57824 0.79662
0.94486 0.58153 0.79624
0.94540 0.61976 0.80273
0.45161 0.70065 0.95612
0.55737 0.72403 0.95018
0.73324 0.77163 0.93521
0.85199 0.78172 0.91658
0.92116 0.77786 0.90369
0.96273 0.80154 0.90862
0.97404 0.79401 0.90199
0.96807 0.77405 0.88055
0.39964 0.78635 0.97971
0.48381 0.79815 0.97871
0.62861 0.82383 0.97491
0.79185 0.84755 0.95793
0.90071 0.86238 0.94161
0.96509 0.88398 0.94275
0.99568 0.88993 0.94528
0.98789 0.87282 0.92493
0.08319 0.81382 0.98298
0.23358 0.82077 0.98295
0.44123 0.84190 0.98178
0.66696 0.87094 0.97616
0.86007 0.90593 0.96257
0.94891 0.91797 0.95029
0.98743 0.91872 0.94612
1.00000 0.91805 0.94054
0.00000 0.82991 0.98467
0.00000 0.83527 0.98527
0.06547 0.85517 0.98676
0.47950 0.88377 0.98656
0.73491 0.92035 0.97987
0.88150 0.94665 0.96877
0.97294 0.96175 0.95515
0.99943 0.95680 0.94952
0.25021 0.88912 0.96877
0.30251 0.89319 0.96835
0.41191 0.90414 0.96675
0.54212 0.91990 0.96291
0.68516 0.93997 0.95579
0.80705 0.96185 0.94862
0.89458 0.98508 0.94290
0.95081 0.99056 0.94001
0.50741 0.36843 0.79604
0.56839 0.37089 0.78339
0.68819 0.37699 0.75608
0.80008 0.38737 0.72957
0.86661 0.37343 0.70774
0.89723 0.31905 0.67715
0.90445 0.30145 0.66019
0.93027 0.44912 0.72860
0.51187 0.43537 0.82498
0.56900 0.44036 0.81235
0.69181 0.44395 0.78722
0.80735 0.44380 0.75676
0.87435 0.43290 0.73467
0.90487 0.39613 0.70758
0.91309 0.37116 0.69228
0.93558 0.50348 0.75308
0.50168 0.55449 0.88268
0.56703 0.56187 0.87221
0.69713 0.57432 0.85112
0.82421 0.58379 0.82549
0.89636 0.58057 0.80666
0.92844 0.56268 0.78989
0.94039 0.54542 0.77851
0.95054 0.62212 0.81184
0.55293 0.71678 0.94629
0.62235 0.73207 0.93999
0.75617 0.76499 0.92625
0.87006 0.78259 0.91124
0.92928 0.78680 0.90416
0.95571 0.78324 0.89674
0.96944 0.79121 0.89483
0.96768 0.77835 0.88856
0.54055 0.81398 0.98044
0.60969 0.83264 0.97953
0.74229 0.86154 0.97670
0.86260 0.88919 0.97180
0.93488 0.89853 0.96361
0.97890 0.90350 0.96018
1.00000 0.91381 0.96564
0.99791 0.89265 0.94482
0.46596 0.85183 0.98696
0.52367 0.86003 0.98780
0.65047 0.87871 0.98946
0.78685 0.90345 0.98806
0.88375 0.91655 0.97918
0.95129 0.93327 0.97817
1.00000 0.95386 0.98557
1.00000 0.93790 0.97328
0.32852 0.86458 0.98957
0.39387 0.87020 0.99027
0.51813 0.88369 0.99125
0.66907 0.90693 0.99218
0.80018 0.92986 0.99163
0.89738 0.95075 0.99046
0.96824 0.96760 0.98865
1.00000 0.96276 0.98092
0.46073 0.90443 0.99317
0.48785 0.90774 0.99304
0.54940 0.91559 0.99272
0.64630 0.92783 0.99221
0.74733 0.94433 0.99147
0.83946 0.96211 0.99059
0.91433 0.98010 0.98755
0.98699 0.98146 0.97981
