fuji-film/cube-lut/classic-chrome.cube
LUT_3D_SIZE 32
0.00000 0.00000 0.00000
0.00326 0.00092 0.00000
0.01271 0.00000 0.00000
0.02750 0.00000 0.00000
0.04977 0.00123 0.00000
0.08171 0.00308 0.00000
0.12943 0.00647 0.00000
0.18751 0.01414 0.00000
0.25643 0.02285 0.00000
0.32785 0.03319 0.00171
0.39888 0.04651 0.00737
0.46262 0.05903 0.01371
0.52389 0.07261 0.01985
0.57582 0.08170 0.01372
0.63236 0.08158 0.00000
0.67289 0.08676 0.00000
0.71213 0.08813 0.00000
0.74671 0.08875 0.00000
0.77674 0.08465 0.00000
0.80460 0.07129 0.00000
0.83012 0.06089 0.00000
0.85283 0.05401 0.00000
0.87223 0.04697 0.00000
0.88633 0.04356 0.00000
0.89482 0.04348 0.00000
0.89879 0.04939 0.00000
0.90120 0.06377 0.00000
0.90329 0.07564 0.00000
0.90571 0.07979 0.00000
0.90966 0.08162 0.00000
0.91626 0.08402 0.00000
0.92483 0.12425 0.00000
0.00000 0.00228 0.00000
0.00256 0.00324 0.00000
0.01093 0.00379 0.00014
0.02426 0.00500 0.00000
0.04482 0.00602 0.00160
0.07831 0.00798 0.00198
0.12803 0.01194 0.00132
0.18749 0.01962 0.00151
0.25717 0.03033 0.00065
0.32858 0.04123 0.00160
0.39970 0.05402 0.00651
0.46384 0.06627 0.01269
0.52560 0.07874 0.01872
0.57743 0.08805 0.01212
0.63364 0.08895 0.00000
0.67451 0.09411 0.00000
0.71361 0.09575 0.00000
0.74803 0.09768 0.00000
0.77805 0.09380 0.00000
0.80604 0.08244 0.00000
0.83151 0.07421 0.00000
0.85422 0.06820 0.00000
0.87363 0.06280 0.00000
0.88758 0.06059 0.00000
0.89600 0.06100 0.00000
0.89982 0.06615 0.00000
0.90212 0.07780 0.00000
0.90411 0.08744 0.00000
0.90652 0.09061 0.00000
0.91039 0.09202 0.00000
0.91687 0.09467 0.00000
0.92538 0.13396 0.00000
0.00000 0.00756 0.00000
0.00076 0.00830 0.00000
0.00923 0.00975 0.00066
0.02478 0.01176 0.00080
0.04325 0.01243 0.00173
0.07733 0.01405 0.00323
0.12831 0.01957 0.00243
0.18845 0.02730 0.00267
0.25851 0.03814 0.00113
0.32967 0.04920 0.00101
0.40073 0.06122 0.00473
0.46533 0.07332 0.01049
0.52748 0.08497 0.01640
0.57931 0.09446 0.00953
0.63512 0.09647 0.00000
0.67635 0.10151 0.00000
0.71528 0.10370 0.00000
0.74956 0.10675 0.00000
0.77962 0.10313 0.00000
0.80774 0.09365 0.00000
0.83312 0.08666 0.00000
0.85584 0.08196 0.00000
0.87524 0.07782 0.00000
0.88902 0.07732 0.00000
0.89735 0.07807 0.00000
0.90102 0.08219 0.00000
0.90320 0.09161 0.00000
0.90516 0.09931 0.00000
0.90746 0.10172 0.00000
0.91124 0.10276 0.00000
0.91757 0.10610 0.00000
0.92602 0.14452 0.00000
0.00000 0.01769 0.00000
0.00000 0.01811 0.00000
0.00695 0.02016 0.00112
0.02206 0.02317 0.00214
0.04892 0.02468 0.00326
0.07798 0.02714 0.00387
0.13111 0.03232 0.00415
0.18977 0.04197 0.00451
0.26015 0.05195 0.00253
0.33152 0.06039 0.00072
0.40255 0.07255 0.00280
0.46754 0.08359 0.00730
0.53009 0.09299 0.01261
0.58203 0.10338 0.00560
0.63721 0.10649 0.00000
0.67894 0.11124 0.00000
0.71761 0.11494 0.00000
0.75182 0.11783 0.00000
0.78189 0.11516 0.00000
0.81021 0.10743 0.00000
0.83547 0.10213 0.00000
0.85832 0.09870 0.00000
0.87755 0.09697 0.00000
0.89114 0.09752 0.00000
0.89933 0.09830 0.00000
0.90286 0.10139 0.00000
0.90494 0.10855 0.00000
0.90670 0.11461 0.00000
0.90884 0.11632 0.00000
0.91248 0.11714 0.00000
0.91860 0.12122 0.00000
0.92694 0.15875 0.00000
0.00000 0.03322 0.00000
0.00000 0.03276 0.00000
0.00267 0.03394 0.00219
0.01640 0.03727 0.00350
0.04216 0.04319 0.00555
0.08409 0.04838 0.00743
0.13261 0.05360 0.00667
0.19207 0.06403 0.00872
0.26179 0.07151 0.00657
0.33389 0.08087 0.00353
0.40553 0.08982 0.00341
0.47060 0.09994 0.00504
0.53337 0.10707 0.00836
0.58557 0.11709 0.00168
0.63984 0.11997 0.00000
0.68226 0.12393 0.00000
0.72077 0.12909 0.00000
0.75481 0.13149 0.00000
0.78497 0.12943 0.00000
0.81338 0.12365 0.00000
0.83868 0.12015 0.00000
0.86165 0.11909 0.00000
0.88057 0.11886 0.00000
0.89408 0.12010 0.00000
0.90217 0.12117 0.00000
0.90554 0.12351 0.00000
0.90732 0.12897 0.00000
0.90881 0.13318 0.00000
0.91073 0.13404 0.00000
0.91407 0.13460 0.00000
0.92001 0.13949 0.00000
0.92825 0.17522 0.00000
0.00000 0.05557 0.00000
0.00000 0.05420 0.00121
0.00000 0.05451 0.00450
0.00897 0.05912 0.00533
0.03447 0.06557 0.00809
0.07506 0.07358 0.01056
0.12976 0.08227 0.01248
0.19169 0.09142 0.01362
0.26308 0.09864 0.01416
0.33516 0.10705 0.01165
0.40819 0.11515 0.00908
0.47416 0.12244 0.00661
0.53745 0.12828 0.00631
0.58977 0.13677 0.00000
0.64268 0.13843 0.00000
0.68612 0.14283 0.00000
0.72477 0.14669 0.00000
0.75862 0.14845 0.00000
0.78891 0.14669 0.00000
0.81729 0.14342 0.00000
0.84279 0.14227 0.00000
0.86577 0.14224 0.00000
0.88439 0.14373 0.00000
0.89787 0.14581 0.00000
0.90604 0.14666 0.00000
0.90902 0.14823 0.00000
0.91040 0.15174 0.00000
0.91152 0.15413 0.00000
0.91312 0.15418 0.00000
0.91608 0.15447 0.00000
0.92186 0.16042 0.00000
0.93009 0.19228 0.00000
0.00000 0.08964 0.00000
0.00000 0.08863 0.00120
0.00000 0.08819 0.00518
0.00000 0.09140 0.00832
0.02268 0.09659 0.01055
0.06194 0.10411 0.01345
0.11781 0.11285 0.01694
0.18707 0.12557 0.01907
0.25932 0.13502 0.02098
0.33477 0.14377 0.02239
0.40850 0.14856 0.01977
0.47567 0.15507 0.01359
0.54198 0.15930 0.00867
0.59300 0.16516 0.00071
0.64559 0.16640 0.00000
0.69019 0.16909 0.00000
0.72954 0.17041 0.00000
0.76332 0.17082 0.00000
0.79386 0.17022 0.00000
0.82223 0.16877 0.00000
0.84774 0.16905 0.00000
0.87084 0.17008 0.00000
0.88921 0.17215 0.00000
0.90309 0.17390 0.00000
0.91055 0.17487 0.00000
0.91300 0.17546 0.00000
0.91397 0.17684 0.00000
0.91473 0.17741 0.00000
0.91599 0.17663 0.00000
0.91864 0.17644 0.00000
0.92434 0.18221 0.00000
0.93259 0.21246 0.00000
0.00000 0.13374 0.00000
0.00000 0.13366 0.00000
0.00000 0.13395 0.00460
0.00000 0.13526 0.01031
0.00000 0.14056 0.01315
0.04271 0.14601 0.01581
0.10105 0.15257 0.01916
0.17060 0.16385 0.02214
0.25074 0.17671 0.02734
0.32998 0.18777 0.03277
0.40535 0.19345 0.03294
0.47488 0.19852 0.02814
0.54389 0.20120 0.01968
0.59405 0.20602 0.00804
0.64807 0.20416 0.00000
0.69407 0.20373 0.00000
0.73428 0.20397 0.00000
0.76837 0.20422 0.00000
0.79924 0.20354 0.00000
0.82767 0.20309 0.00000
0.85355 0.20313 0.00000
0.87670 0.20263 0.00000
0.89538 0.20193 0.00000
0.90919 0.20157 0.00000
0.91611 0.20136 0.00000
0.91819 0.20070 0.00000
0.91867 0.20024 0.00000
0.91897 0.19933 0.00000
0.91981 0.19781 0.00000
0.92211 0.19716 0.00000
0.92741 0.20371 0.00000
0.93568 0.23689 0.00000
0.00000 0.18417 0.00000
0.00000 0.18445 0.00000
0.00000 0.18494 0.00167
0.00000 0.18595 0.00865
0.00000 0.18902 0.01413
0.00092 0.19417 0.01592
0.07363 0.20040 0.01784
0.14850 0.20906 0.02261
0.23107 0.22185 0.03141
0.31719 0.23334 0.04019
0.39798 0.24431 0.04805
0.46993 0.25082 0.04679
0.54307 0.25230 0.04093
0.59540 0.25476 0.02625
0.64994 0.25254 0.00923
0.69707 0.25216 0.00000
0.73812 0.25156 0.00000
0.77294 0.24937 0.00000
0.80467 0.24530 0.00000
0.83355 0.24199 0.00000
0.86030 0.23881 0.00000
0.88343 0.23719 0.00000
0.90319 0.23577 0.00000
0.91601 0.23542 0.00000
0.92262 0.23421 0.00000
0.92433 0.23162 0.00000
0.92432 0.22873 0.00000
0.92418 0.22569 0.00000
0.92456 0.22260 0.00000
0.92636 0.22133 0.00000
0.93112 0.23023 0.00000
0.93946 0.26456 0.00000
0.00000 0.23811 0.00000
0.00000 0.23881 0.00000
0.00000 0.23976 0.00000
0.00000 0.24133 0.00000
0.00000 0.24394 0.00000
0.00000 0.24808 0.00291
0.01818 0.25412 0.01279
0.11727 0.26202 0.02819
0.20233 0.27253 0.03753
0.29381 0.28398 0.04710
0.38034 0.29136 0.05526
0.46056 0.30380 0.06307
0.53615 0.31046 0.05966
0.59579 0.31070 0.05302
0.64894 0.30700 0.02959
0.69821 0.30421 0.00000
0.74091 0.30112 0.00000
0.77707 0.29780 0.00000
0.80939 0.29358 0.00000
0.83913 0.28982 0.00000
0.86672 0.28616 0.00000
0.89075 0.28309 0.00000
0.91032 0.28045 0.00000
0.92338 0.27838 0.00000
0.93090 0.27480 0.00000
0.93230 0.26967 0.00000
0.93146 0.26412 0.00000
0.93049 0.25881 0.00000
0.93016 0.25401 0.00000
0.93145 0.25165 0.00000
0.93607 0.26098 0.00000
0.94366 0.29508 0.00000
0.00000 0.29352 0.00000
0.00000 0.29434 0.00000
0.00000 0.29541 0.00000
0.00000 0.29700 0.00000
0.00000 0.29934 0.00000
0.00000 0.30269 0.00000
0.00000 0.30756 0.00479
0.06393 0.31414 0.01708
0.16926 0.32255 0.02641
0.26137 0.33252 0.04564
0.35359 0.34243 0.06111
0.43852 0.35023 0.07012
0.52411 0.35782 0.07511
0.58584 0.36308 0.06189
0.64309 0.36397 0.04678
0.69469 0.36111 0.00990
0.74044 0.35765 0.00000
0.77943 0.35314 0.00000
0.81325 0.34830 0.00000
0.84420 0.34366 0.00000
0.87202 0.33905 0.00000
0.89752 0.33420 0.00000
0.91703 0.32988 0.00000
0.93247 0.32511 0.00000
0.94027 0.31964 0.00000
0.94163 0.31264 0.00000
0.94047 0.30555 0.00000
0.93880 0.29849 0.00000
0.93759 0.29205 0.00000
0.93815 0.28842 0.00000
0.94213 0.29659 0.00000
0.94805 0.32719 0.00000
0.00000 0.34740 0.00000
0.00000 0.34832 0.00000
0.00000 0.34950 0.00000
0.00000 0.35120 0.00000
0.00000 0.35348 0.00000
0.00000 0.35628 0.00000
0.00000 0.35997 0.00000
0.00000 0.36513 0.00000
0.12697 0.37201 0.00000
0.22956 0.38025 0.01100
0.32424 0.38930 0.03131
0.41165 0.39957 0.06766
0.49872 0.40669 0.07383
0.57140 0.41388 0.07691
0.63418 0.41864 0.04015
0.68816 0.42260 0.00000
0.73538 0.42152 0.00000
0.77845 0.41621 0.00000
0.81461 0.41062 0.00000
0.84691 0.40518 0.00000
0.87563 0.40002 0.00000
0.90118 0.39479 0.00000
0.92302 0.38932 0.00000
0.93888 0.38398 0.00000
0.94783 0.37823 0.00000
0.94940 0.37201 0.00000
0.94846 0.35804 0.00000
0.94691 0.34453 0.00000
0.94565 0.33425 0.00000
0.94572 0.32807 0.00000
0.94815 0.33580 0.00000
0.95202 0.37329 0.00000
0.00000 0.39703 0.00000
0.00000 0.39790 0.00000
0.00000 0.39900 0.00000
0.00000 0.40062 0.00000
0.00000 0.40283 0.00000
0.00000 0.40598 0.00000
0.00000 0.41025 0.00000
0.00000 0.41593 0.00000
0.06402 0.42237 0.00000
0.19293 0.42941 0.00000
0.29165 0.43718 0.00000
0.38001 0.44742 0.05608
0.46407 0.46021 0.09119
0.54587 0.46359 0.03453
0.61987 0.46629 0.00000
0.67906 0.46856 0.00000
0.73008 0.46929 0.00000
0.77508 0.47050 0.00000
0.81333 0.46864 0.00000
0.84701 0.46501 0.00000
0.87714 0.46103 0.00000
0.90240 0.45702 0.00000
0.92557 0.45136 0.00000
0.94342 0.44308 0.00000
0.95447 0.43057 0.00000
0.95772 0.41696 0.00000
0.95685 0.40509 0.00000
0.95505 0.39378 0.00000
0.95307 0.38618 0.00000
0.95233 0.38111 0.00000
0.95409 0.38393 0.00000
0.95785 0.40311 0.00000
0.00000 0.44609 0.00000
0.00000 0.44696 0.00000
0.00000 0.44798 0.00000
0.00000 0.44947 0.00000
0.00000 0.45154 0.00000
0.00000 0.45460 0.00000
0.00000 0.45854 0.00000
0.00000 0.46409 0.00000
0.00000 0.47384 0.00000
0.13085 0.48079 0.00000
0.24993 0.48500 0.00000
0.34915 0.49091 0.00000
0.43857 0.49937 0.00000
0.51755 0.51428 0.00000
0.59646 0.51899 0.00000
0.66252 0.52144 0.00000
0.71847 0.52462 0.00000
0.76698 0.52529 0.00000
0.80790 0.52380 0.00000
0.84374 0.52078 0.00000
0.87561 0.51599 0.00000
0.90281 0.51127 0.00000
0.92637 0.50604 0.00000
0.94554 0.49945 0.00000
0.95805 0.49070 0.00000
0.96242 0.47934 0.00000
0.96217 0.46692 0.00000
0.96048 0.45667 0.00000
0.95931 0.44293 0.00000
0.95955 0.42668 0.00000
0.96026 0.42859 0.00000
0.96124 0.45482 0.00000
0.00000 0.49584 0.00000
0.00000 0.49646 0.00000
0.00000 0.49713 0.00000
0.00000 0.49809 0.00000
0.00000 0.49937 0.00000
0.00000 0.50165 0.00000
0.00000 0.50482 0.00000
0.00000 0.50871 0.00000
0.00000 0.51381 0.00000
0.02818 0.52033 0.00000
0.19461 0.53351 0.00000
0.30586 0.54021 0.00000
0.40353 0.54532 0.00000
0.49032 0.55386 0.00000
0.57243 0.56117 0.00000
0.64189 0.56744 0.00000
0.70243 0.57210 0.00000
0.75496 0.57474 0.00000
0.79850 0.57583 0.00000
0.83628 0.57517 0.00000
0.87005 0.57269 0.00000
0.89911 0.56875 0.00000
0.92378 0.56391 0.00000
0.94461 0.55776 0.00000
0.96008 0.54916 0.00000
0.96616 0.53808 0.00000
0.96679 0.52483 0.00000
0.96590 0.51040 0.00000
0.96481 0.49568 0.00000
0.96443 0.48405 0.00000
0.96477 0.48177 0.00000
0.96572 0.49582 0.00000
0.00000 0.54186 0.00000
0.00000 0.54345 0.00000
0.00000 0.54527 0.00000
0.00000 0.54714 0.00000
0.00000 0.54890 0.00000
0.00000 0.55068 0.00000
0.00000 0.55282 0.00000
0.00000 0.55542 0.00000
0.00000 0.55883 0.00000
0.00000 0.56447 0.00000
0.12650 0.57143 0.00000
0.26304 0.57885 0.00000
0.36728 0.58673 0.00000
0.46353 0.59419 0.00000
0.54796 0.60178 0.00000
0.61788 0.60887 0.00000
0.68217 0.61407 0.00000
0.73878 0.61797 0.00000
0.78640 0.62052 0.00000
0.82692 0.62157 0.00000
0.86234 0.62157 0.00000
0.89315 0.62015 0.00000
0.91941 0.61690 0.00000
0.94220 0.61150 0.00000
0.95994 0.60403 0.00000
0.96799 0.59407 0.00000
0.96976 0.58115 0.00000
0.96964 0.56652 0.00000
0.96905 0.55166 0.00000
0.96887 0.53892 0.00000
0.96892 0.53378 0.00000
0.96933 0.54218 0.00000
0.00000 0.57977 0.00000
0.00000 0.58068 0.00000
0.00000 0.58173 0.00000
0.00000 0.58322 0.00000
0.00000 0.58517 0.00000
0.00000 0.58769 0.00000
0.00000 0.59074 0.00000
0.00000 0.59439 0.00000
0.00000 0.59878 0.00000
0.00000 0.60382 0.00000
0.00000 0.60983 0.00000
0.20743 0.61666 0.00000
0.32229 0.62449 0.00000
0.43080 0.63133 0.00000
0.51755 0.63859 0.00000
0.59107 0.64534 0.00000
0.65939 0.65079 0.00000
0.71907 0.65571 0.00000
0.77116 0.65981 0.00000
0.81482 0.66259 0.00000
0.85271 0.66462 0.00000
0.88565 0.66526 0.00000
0.91352 0.66443 0.00000
0.93798 0.66114 0.00000
0.95759 0.65492 0.00000
0.96801 0.64621 0.00000
0.97120 0.63431 0.00000
0.97214 0.61963 0.00000
0.97212 0.60479 0.00000
0.97198 0.59233 0.00000
0.97195 0.58512 0.00000
0.97197 0.58857 0.00000
0.00000 0.61757 0.00000
0.00000 0.61842 0.00000
0.00000 0.61940 0.00000
0.00000 0.62080 0.00000
0.00000 0.62267 0.00000
0.00000 0.62505 0.00000
0.00000 0.62799 0.00000
0.00000 0.63148 0.00000
0.00000 0.63563 0.00000
0.00000 0.64018 0.00000
0.00000 0.64542 0.00000
0.12409 0.65150 0.00000
0.26907 0.65845 0.00000
0.37854 0.66564 0.00000
0.47013 0.67330 0.00000
0.55953 0.67986 0.00000
0.63381 0.68502 0.00000
0.69681 0.68941 0.00000
0.75293 0.69337 0.00000
0.80029 0.69731 0.00000
0.84123 0.70071 0.00000
0.87643 0.70297 0.00000
0.90631 0.70385 0.00000
0.93225 0.70202 0.00000
0.95373 0.69817 0.00000
0.96657 0.69157 0.00000
0.97146 0.68143 0.00000
0.97331 0.66875 0.00000
0.97381 0.65565 0.00000
0.97383 0.64360 0.00000
0.97367 0.63523 0.00000
0.97352 0.63476 0.00000
0.00000 0.65272 0.00000
0.00000 0.65349 0.00000
0.00000 0.65437 0.00000
0.00000 0.65566 0.00000
0.00000 0.65735 0.00000
0.00000 0.65948 0.00000
0.00000 0.66203 0.00000
0.00000 0.66508 0.00000
0.00000 0.66869 0.00000
0.00000 0.67275 0.00000
0.00000 0.67764 0.00000
0.00000 0.68344 0.00000
0.20140 0.69022 0.00000
0.32722 0.69719 0.00000
0.42829 0.70419 0.00000
0.52368 0.71014 0.00000
0.60397 0.71532 0.00000
0.67248 0.71994 0.00000
0.73259 0.72397 0.00000
0.78323 0.72789 0.00000
0.82705 0.73191 0.00000
0.86470 0.73564 0.00000
0.89677 0.73705 0.00000
0.92476 0.73688 0.00000
0.94848 0.73540 0.00000
0.96367 0.73112 0.00000
0.97037 0.72351 0.00000
0.97344 0.71220 0.00000
0.97453 0.70056 0.00000
0.97466 0.68963 0.00000
0.97455 0.68073 0.00000
0.97437 0.67756 0.00000
0.00000 0.68459 0.00000
0.00000 0.68525 0.00000
0.00000 0.68607 0.00000
0.00000 0.68725 0.00000
0.00000 0.68882 0.00000
0.00000 0.69091 0.00000
0.00000 0.69340 0.00000
0.00000 0.69632 0.00000
0.00000 0.69976 0.00000
0.00000 0.70366 0.00000
0.00000 0.70784 0.00000
0.00000 0.71297 0.00000
0.09527 0.71860 0.00000
0.27233 0.72469 0.00000
0.39099 0.73081 0.00000
0.48952 0.73668 0.00000
0.57105 0.74215 0.00000
0.64541 0.74704 0.00000
0.70962 0.75209 0.00000
0.76371 0.75592 0.00000
0.81051 0.75920 0.00000
0.85053 0.76250 0.00000
0.88532 0.76531 0.00000
0.91551 0.76716 0.00000
0.94158 0.76746 0.00000
0.95948 0.76522 0.00000
0.96855 0.75982 0.00000
0.97266 0.75108 0.00000
0.97411 0.74041 0.00000
0.97431 0.73065 0.00000
0.97450 0.72192 0.00000
0.97458 0.71676 0.00000
0.00000 0.71447 0.00000
0.00000 0.71506 0.00000
0.00000 0.71575 0.00000
0.00000 0.71681 0.00000
0.00000 0.71824 0.00000
0.00000 0.72005 0.00000
0.00000 0.72218 0.00000
0.00000 0.72468 0.00000
0.00000 0.72757 0.00000
0.00000 0.73090 0.00000
0.00000 0.73466 0.00000
0.00000 0.73908 0.00000
0.00000 0.74411 0.00000
0.20172 0.74965 0.00000
0.34337 0.75483 0.00000
0.44190 0.76074 0.00000
0.53485 0.76687 0.00000
0.61508 0.77176 0.00000
0.68409 0.77610 0.00000
0.74217 0.78075 0.00000
0.79125 0.78424 0.00000
0.83396 0.78728 0.00000
0.87203 0.79000 0.00000
0.90431 0.79237 0.00000
0.93266 0.79376 0.00000
0.95323 0.79311 0.00000
0.96540 0.78981 0.00000
0.97127 0.78396 0.00000
0.97331 0.77592 0.00000
0.97398 0.76651 0.00000
0.97410 0.75831 0.00000
0.97438 0.75187 0.00000
0.00000 0.74095 0.00000
0.00000 0.74146 0.00000
0.00000 0.74204 0.00000
0.00000 0.74291 0.00000
0.00000 0.74421 0.00000
0.00000 0.74586 0.00000
0.00000 0.74790 0.00000
0.00000 0.75019 0.00000
0.00000 0.75282 0.00000
0.00000 0.75586 0.00000
0.00000 0.75927 0.00000
0.00000 0.76295 0.00000
0.00000 0.76717 0.00000
0.08075 0.77241 0.00000
0.27584 0.77820 0.00000
0.39176 0.78354 0.00000
0.49573 0.78844 0.00000
0.58128 0.79446 0.00000
0.65499 0.79906 0.00000
0.71910 0.80307 0.00000
0.77186 0.80629 0.00000
0.81717 0.80893 0.00000
0.85724 0.81146 0.00000
0.89101 0.81428 0.00000
0.92102 0.81633 0.00000
0.94434 0.81685 0.00000
0.96003 0.81538 0.00000
0.96904 0.81149 0.00000
0.97239 0.80511 0.00000
0.97330 0.79734 0.00000
0.97379 0.78974 0.00000
0.97422 0.78389 0.00000
0.00000 0.76501 0.00000
0.00000 0.76545 0.00000
0.00000 0.76596 0.00000
0.00000 0.76670 0.00000
0.00000 0.76774 0.00000
0.00000 0.76912 0.00000
0.00000 0.77080 0.00000
0.00000 0.77286 0.00000
0.00000 0.77526 0.00000
0.00000 0.77801 0.00000
0.00000 0.78145 0.00000
0.00000 0.78516 0.00000
0.00000 0.78894 0.00000
0.00000 0.79322 0.00000
0.20224 0.79805 0.00000
0.34627 0.80402 0.00000
0.45663 0.80936 0.00000
0.54481 0.81483 0.00000
0.62446 0.81943 0.00000
0.69384 0.82313 0.00000
0.75115 0.82651 0.00000
0.79952 0.82945 0.00000
0.84102 0.83216 0.00000
0.87643 0.83479 0.00000
0.90787 0.83706 0.00000
0.93374 0.83830 0.00000
0.95251 0.83803 0.00000
0.96449 0.83576 0.00000
0.97021 0.83134 0.00000
0.97219 0.82507 0.00000
0.97323 0.81852 0.00000
0.97410 0.81260 0.00000
0.00000 0.78683 0.00000
0.00000 0.78731 0.00000
0.00000 0.78785 0.00000
0.00000 0.78861 0.00000
0.00000 0.78956 0.00000
0.00000 0.79084 0.00000
0.00000 0.79236 0.00000
0.00000 0.79417 0.00000
0.00000 0.79626 0.00000
0.00000 0.79862 0.00000
0.00000 0.80115 0.00000
0.00000 0.80418 0.00000
0.00000 0.80807 0.00000
0.00000 0.81277 0.00000
0.07583 0.81753 0.00000
0.29661 0.82251 0.00000
0.40884 0.82803 0.00000
0.50689 0.83301 0.00000
0.59190 0.83778 0.00000
0.66569 0.84205 0.00000
0.72774 0.84569 0.00000
0.77999 0.84884 0.00000
0.82386 0.85155 0.00000
0.86116 0.85404 0.00000
0.89355 0.85614 0.00000
0.92163 0.85749 0.00000
0.94306 0.85803 0.00000
0.95820 0.85696 0.00000
0.96675 0.85409 0.00000
0.97044 0.84947 0.00000
0.97234 0.84449 0.00000
0.97349 0.83889 0.00000
0.00000 0.80631 0.00000
0.00000 0.80666 0.00000
0.00000 0.80705 0.00000
0.00000 0.80764 0.00000
0.00000 0.80850 0.00000
0.00000 0.80966 0.00000
0.00000 0.81119 0.00000
0.00000 0.81305 0.00000
0.00000 0.81525 0.00000
0.00000 0.81778 0.00000
0.00000 0.82053 0.00000
0.00000 0.82339 0.00000
0.00000 0.82671 0.00000
0.00000 0.83052 0.00000
0.00000 0.83494 0.00000
0.20734 0.83966 0.00000
0.34975 0.84467 0.00000
0.46473 0.84984 0.00000
0.55668 0.85487 0.00000
0.63460 0.85947 0.00000
0.70243 0.86337 0.00000
0.75793 0.86679 0.00000
0.80501 0.86949 0.00000
0.84540 0.87211 0.00000
0.87894 0.87442 0.00000
0.90848 0.87629 0.00000
0.93222 0.87729 0.00000
0.95017 0.87715 0.00000
0.96179 0.87549 0.00000
0.96780 0.87216 0.00000
0.97087 0.86769 0.00000
0.97253 0.86286 0.00000
0.00000 0.82542 0.00000
0.00000 0.82576 0.00000
0.00000 0.82614 0.00000
0.00000 0.82669 0.00000
0.00000 0.82743 0.00000
0.00000 0.82846 0.00000
0.00000 0.82977 0.00000
0.00000 0.83139 0.00000
0.00000 0.83327 0.00000
0.00000 0.83540 0.00000
0.00000 0.83780 0.00000
0.00000 0.84047 0.00000
0.00000 0.84343 0.00000
0.00000 0.84669 0.00000
0.00000 0.85053 0.00000
0.09057 0.85509 0.00000
0.29741 0.86002 0.00000
0.42378 0.86507 0.00000
0.51983 0.87040 0.00000
0.60388 0.87523 0.00000
0.67657 0.87924 0.00000
0.73608 0.88320 0.00000
0.78592 0.88657 0.00000
0.82852 0.88928 0.00000
0.86328 0.89152 0.00000
0.89407 0.89323 0.00000
0.91952 0.89449 0.00000
0.93892 0.89495 0.00000
0.95278 0.89399 0.00000
0.96117 0.89149 0.00000
0.96584 0.88803 0.00000
0.96908 0.88407 0.00000
0.00000 0.84225 0.00000
0.00000 0.84257 0.00000
0.00000 0.84292 0.00000
0.00000 0.84343 0.00000
0.00000 0.84418 0.00000
0.00000 0.84516 0.00000
0.00000 0.84636 0.00000
0.00000 0.84779 0.00000
0.00000 0.84945 0.00000
0.00000 0.85127 0.00000
0.00000 0.85339 0.00000
0.00000 0.85579 0.00000
0.00000 0.85859 0.00000
0.00000 0.86181 0.00000
0.00000 0.86552 0.00000
0.00000 0.86982 0.00000
0.26033 0.87450 0.00000
0.39640 0.87947 0.00000
0.49279 0.88474 0.00000
0.57872 0.88962 0.00000
0.65264 0.89416 0.00000
0.71424 0.89810 0.00000
0.76639 0.90116 0.00000
0.81015 0.90391 0.00000
0.84593 0.90654 0.00000
0.87650 0.90880 0.00000
0.90205 0.91045 0.00000
0.92169 0.91120 0.00000
0.93701 0.91061 0.00000
0.94767 0.90872 0.00000
0.95481 0.90568 0.00000
0.96037 0.90163 0.00000
0.00000 0.85769 0.00000
0.00000 0.85801 0.00000
0.00000 0.85838 0.00000
0.00000 0.85892 0.00000
0.00000 0.85964 0.00000
0.00000 0.86059 0.00000
0.00000 0.86178 0.00000
0.00000 0.86319 0.00000
0.00000 0.86486 0.00000
0.00000 0.86675 0.00000
0.00000 0.86885 0.00000
0.00000 0.87124 0.00000
0.00000 0.87401 0.00000
0.00000 0.87712 0.00000
0.00000 0.88076 0.00000
0.06217 0.88486 0.00000
0.27161 0.88941 0.00000
0.39713 0.89362 0.00000
0.48913 0.89847 0.00000
0.56807 0.90309 0.00000
0.63753 0.90704 0.00000
0.69666 0.91054 0.00000
0.74735 0.91396 0.00000
0.78990 0.91727 0.00000
0.82608 0.92015 0.00000
0.85582 0.92249 0.00000
0.88136 0.92402 0.00000
0.90198 0.92501 0.00000
0.91788 0.92471 0.00000
0.93060 0.92308 0.00000
0.94060 0.92012 0.00000
0.94854 0.91583 0.00000
0.00000 0.87342 0.00000
0.00000 0.87375 0.00000
0.00000 0.87415 0.00000
0.00000 0.87470 0.00000
