fuji-film/cube-lut/classic-neg.cube
LUT_3D_SIZE 32
0.00975 0.01110 0.00962
0.01716 0.01339 0.00869
0.02522 0.01092 0.00588
0.04020 0.01160 0.00570
0.06401 0.01234 0.00435
0.09797 0.01524 0.00390
0.14112 0.02131 0.00395
0.18952 0.02790 0.00448
0.24922 0.04020 0.00573
0.31717 0.05744 0.00746
0.39005 0.07317 0.00595
0.46381 0.08361 0.00000
0.53312 0.09761 0.00000
0.59855 0.10538 0.00000
0.64597 0.11306 0.00000
0.69171 0.11746 0.00000
0.72213 0.12572 0.00000
0.74756 0.13434 0.00000
0.76799 0.14483 0.00000
0.78404 0.15519 0.00000
0.80018 0.16427 0.00000
0.81642 0.18154 0.00000
0.82823 0.20099 0.00000
0.83551 0.21362 0.00000
0.83960 0.22020 0.00000
0.84122 0.22070 0.00000
0.84126 0.21648 0.00000
0.84060 0.20881 0.00000
0.83990 0.19802 0.00000
0.83977 0.18306 0.00000
0.84099 0.16377 0.00000
0.84530 0.15417 0.00000
0.00488 0.01907 0.01133
0.01606 0.02015 0.01165
0.02291 0.02126 0.00913
0.03545 0.01933 0.00655
0.05904 0.02125 0.00572
0.09262 0.02433 0.00551
0.13654 0.02772 0.00598
0.18507 0.03401 0.00693
0.24535 0.04523 0.00800
0.31428 0.06128 0.01013
0.38814 0.07655 0.00878
0.46286 0.08741 0.00000
0.53250 0.10158 0.00000
0.59840 0.10941 0.00000
0.64615 0.11634 0.00000
0.69201 0.12091 0.00000
0.72240 0.12813 0.00000
0.74775 0.13575 0.00000
0.76806 0.14568 0.00000
0.78403 0.15564 0.00000
0.80012 0.16486 0.00000
0.81636 0.18221 0.00000
0.82812 0.20148 0.00000
0.83538 0.21394 0.00000
0.83944 0.22047 0.00000
0.84103 0.22092 0.00000
0.84105 0.21667 0.00000
0.84037 0.20897 0.00000
0.83968 0.19820 0.00000
0.83956 0.18335 0.00000
0.84083 0.16442 0.00000
0.84525 0.15593 0.00000
0.00000 0.02576 0.01420
0.01113 0.02707 0.01355
0.01993 0.02975 0.01227
0.03248 0.03056 0.01022
0.05448 0.03276 0.00759
0.08889 0.03486 0.00681
0.13215 0.03736 0.00714
0.18064 0.04293 0.00862
0.24096 0.05083 0.00944
0.31069 0.06546 0.01212
0.38567 0.08038 0.01149
0.46172 0.09193 0.00286
0.53173 0.10629 0.00000
0.59820 0.11426 0.00000
0.64631 0.12074 0.00000
0.69233 0.12493 0.00000
0.72269 0.13084 0.00000
0.74794 0.13723 0.00000
0.76812 0.14653 0.00000
0.78399 0.15608 0.00000
0.80003 0.16545 0.00000
0.81626 0.18287 0.00000
0.82797 0.20191 0.00000
0.83521 0.21419 0.00000
0.83924 0.22069 0.00000
0.84081 0.22109 0.00000
0.84079 0.21679 0.00000
0.84009 0.20907 0.00000
0.83942 0.19831 0.00000
0.83931 0.18361 0.00000
0.84064 0.16513 0.00000
0.84521 0.15796 0.00000
0.00000 0.03567 0.01805
0.00568 0.03610 0.01685
0.01526 0.03835 0.01590
0.02858 0.04106 0.01458
0.05055 0.04730 0.01241
0.08390 0.05037 0.01000
0.12743 0.05245 0.00879
0.17508 0.05853 0.01104
0.23479 0.06152 0.01170
0.30457 0.07345 0.01438
0.38144 0.08730 0.01461
0.46000 0.09947 0.00714
0.53057 0.11377 0.00000
0.59790 0.12098 0.00000
0.64648 0.12817 0.00000
0.69278 0.13098 0.00000
0.72307 0.13480 0.00000
0.74818 0.13930 0.00000
0.76819 0.14763 0.00000
0.78392 0.15663 0.00000
0.79988 0.16619 0.00000
0.81608 0.18364 0.00000
0.82772 0.20233 0.00000
0.83494 0.21436 0.00000
0.83894 0.22082 0.00000
0.84046 0.22117 0.00000
0.84041 0.21682 0.00000
0.83970 0.20904 0.00000
0.83902 0.19834 0.00000
0.83894 0.18385 0.00000
0.84036 0.16610 0.00000
0.84515 0.16092 0.00000
0.00000 0.05301 0.02542
0.00000 0.05332 0.02266
0.00861 0.05474 0.02073
0.02057 0.05882 0.01953
0.04201 0.06304 0.01786
0.07780 0.07060 0.01564
0.12026 0.07511 0.01340
0.16799 0.07849 0.01339
0.22614 0.08320 0.01508
0.29497 0.09117 0.01767
0.37382 0.10117 0.01909
0.45739 0.11270 0.01350
0.52886 0.12633 0.00303
0.59748 0.13132 0.00000
0.64669 0.13914 0.00000
0.69337 0.14005 0.00000
0.72356 0.14062 0.00000
0.74848 0.14244 0.00000
0.76828 0.14936 0.00000
0.78384 0.15741 0.00000
0.79969 0.16714 0.00000
0.81580 0.18447 0.00000
0.82734 0.20256 0.00000
0.83455 0.21432 0.00000
0.83850 0.22075 0.00000
0.83996 0.22101 0.00000
0.83987 0.21660 0.00000
0.83916 0.20877 0.00000
0.83849 0.19814 0.00000
0.83841 0.18399 0.00000
0.83999 0.16736 0.00000
0.84510 0.16496 0.00000
0.00000 0.07976 0.03595
0.00000 0.07991 0.03244
0.00000 0.08068 0.02821
0.00984 0.08225 0.02594
0.02368 0.08735 0.02598
0.06574 0.09126 0.02463
0.11131 0.09868 0.02206
0.15891 0.10570 0.01961
0.21588 0.10924 0.01980
0.28278 0.11736 0.02312
0.36367 0.12476 0.02629
0.45303 0.13426 0.02383
0.52630 0.14479 0.01163
0.59683 0.14640 0.00000
0.64693 0.15453 0.00000
0.69412 0.15337 0.00000
0.72422 0.14979 0.00000
0.74896 0.14842 0.00000
0.76849 0.15305 0.00000
0.78387 0.15901 0.00000
0.79955 0.16867 0.00000
0.81545 0.18547 0.00000
0.82683 0.20260 0.00000
0.83403 0.21397 0.00000
0.83791 0.22035 0.00000
0.83930 0.22050 0.00000
0.83915 0.21601 0.00000
0.83846 0.20812 0.00000
0.83780 0.19762 0.00000
0.83774 0.18397 0.00000
0.83955 0.16897 0.00000
0.84508 0.17029 0.00000
0.00000 0.10978 0.04922
0.00000 0.10943 0.04450
0.00000 0.10911 0.03910
0.00000 0.10924 0.03451
0.00778 0.11295 0.03360
0.04356 0.11852 0.03368
0.09384 0.12365 0.03159
0.14763 0.13189 0.02950
0.20389 0.13887 0.02817
0.27113 0.14506 0.02979
0.35293 0.15523 0.03324
0.44590 0.16488 0.03638
0.52216 0.16864 0.02624
0.59524 0.17100 0.01008
0.64742 0.17634 0.00000
0.69502 0.17264 0.00000
0.72519 0.16547 0.00000
0.74988 0.16076 0.00000
0.76910 0.16184 0.00000
0.78435 0.16310 0.00000
0.79975 0.17199 0.00000
0.81518 0.18738 0.00000
0.82629 0.20285 0.00000
0.83343 0.21358 0.00000
0.83724 0.21971 0.00000
0.83849 0.21968 0.00000
0.83833 0.21504 0.00000
0.83762 0.20713 0.00000
0.83694 0.19686 0.00000
0.83698 0.18391 0.00000
0.83908 0.17120 0.00000
0.84516 0.17725 0.00000
0.00000 0.14416 0.06263
0.00000 0.14369 0.05778
0.00000 0.14324 0.05218
0.00000 0.14318 0.04692
0.00000 0.14431 0.04496
0.00844 0.14929 0.04267
0.06607 0.15414 0.03973
0.12686 0.16032 0.03759
0.18971 0.16901 0.03788
0.25823 0.17909 0.03936
0.34112 0.18800 0.04280
0.43383 0.19593 0.04933
0.51509 0.20202 0.04418
0.59230 0.20411 0.03043
0.64785 0.20670 0.00825
0.69609 0.20037 0.00000
0.72686 0.18957 0.00000
0.75190 0.18015 0.00000
0.77099 0.17471 0.00000
0.78586 0.17441 0.00000
0.80083 0.18029 0.00000
0.81538 0.19238 0.00000
0.82599 0.20486 0.00000
0.83291 0.21418 0.00000
0.83659 0.21956 0.00000
0.83767 0.21905 0.00000
0.83743 0.21417 0.00000
0.83672 0.20624 0.00000
0.83601 0.19631 0.00000
0.83620 0.18435 0.00000
0.83868 0.17461 0.00000
0.84535 0.18744 0.00000
0.00000 0.18460 0.08120
0.00000 0.18412 0.07730
0.00000 0.18363 0.07301
0.00000 0.18289 0.06770
0.00000 0.18200 0.06371
0.00000 0.18438 0.06002
0.02316 0.18962 0.05585
0.09717 0.19541 0.05126
0.16463 0.20342 0.05072
0.23924 0.21388 0.05105
0.32492 0.22373 0.05656
0.41521 0.23545 0.06131
0.50443 0.24484 0.06574
0.58752 0.24440 0.06130
0.64901 0.24082 0.04456
0.69803 0.23270 0.01453
0.73005 0.22239 0.00000
0.75552 0.21172 0.00000
0.77454 0.20337 0.00000
0.78950 0.19871 0.00000
0.80366 0.19880 0.00000
0.81669 0.20552 0.00000
0.82649 0.21197 0.00000
0.83293 0.21825 0.00000
0.83622 0.22179 0.00000
0.83704 0.22016 0.00000
0.83668 0.21475 0.00000
0.83589 0.20675 0.00000
0.83524 0.19721 0.00000
0.83559 0.18658 0.00000
0.83852 0.18029 0.00000
0.84583 0.20068 0.00000
0.00000 0.23164 0.10357
0.00000 0.23146 0.10025
0.00000 0.23122 0.09654
0.00000 0.23077 0.09180
0.00000 0.22971 0.08768
0.00000 0.22922 0.08428
0.00000 0.23128 0.08052
0.05165 0.23602 0.07468
0.13180 0.24154 0.06996
0.20954 0.25016 0.06861
0.29724 0.26556 0.07083
0.39343 0.27925 0.07624
0.48919 0.28628 0.08168
0.57898 0.29148 0.08775
0.64832 0.29237 0.08384
0.69999 0.28499 0.06676
0.73439 0.27491 0.04967
0.76022 0.26279 0.02424
0.77989 0.25207 0.00450
0.79589 0.24158 0.00000
0.80921 0.23408 0.00000
0.82008 0.23086 0.00000
0.82867 0.22884 0.00000
0.83417 0.22951 0.00000
0.83672 0.22932 0.00000
0.83705 0.22587 0.00000
0.83645 0.21957 0.00000
0.83559 0.21123 0.00000
0.83499 0.20200 0.00000
0.83546 0.19292 0.00000
0.83880 0.19091 0.00000
0.84678 0.21820 0.00000
0.00000 0.28094 0.12649
0.00000 0.28092 0.12310
0.00000 0.28086 0.11945
0.00000 0.28067 0.11491
0.00000 0.28010 0.11063
0.00000 0.27952 0.10798
0.00000 0.28002 0.10667
0.00000 0.28342 0.10351
0.08212 0.29072 0.09741
0.17055 0.29790 0.09383
0.25739 0.30313 0.09196
0.36169 0.32226 0.09736
0.47137 0.33717 0.10362
0.56605 0.34811 0.10816
0.64454 0.34511 0.11459
0.70231 0.33932 0.11264
0.74104 0.32887 0.10524
0.76757 0.31690 0.09198
0.78917 0.30561 0.07846
0.80494 0.29399 0.05637
0.81635 0.28387 0.02651
0.82614 0.27060 0.00000
0.83337 0.25866 0.00000
0.83758 0.25182 0.00000
0.83902 0.24667 0.00000
0.83852 0.23982 0.00000
0.83741 0.23197 0.00000
0.83640 0.22367 0.00000
0.83575 0.21432 0.00000
0.83625 0.20625 0.00000
0.83984 0.20825 0.00000
0.84856 0.23915 0.00000
0.00000 0.33045 0.15103
0.00000 0.33065 0.14797
0.00000 0.33087 0.14458
0.00000 0.33111 0.14083
0.00000 0.33126 0.13744
0.00000 0.33091 0.13575
0.00000 0.33027 0.13632
0.00000 0.33083 0.13634
0.00000 0.33764 0.13264
0.12439 0.34604 0.12773
0.21397 0.35611 0.12711
0.31485 0.37045 0.12656
0.43949 0.38521 0.13359
0.54875 0.40107 0.13564
0.63649 0.40778 0.14170
0.70062 0.41040 0.14532
0.74546 0.40206 0.14207
0.77661 0.38795 0.13545
0.79958 0.37104 0.12494
0.81454 0.35490 0.10844
0.82560 0.33872 0.08700
0.83521 0.31505 0.05851
0.84176 0.29558 0.00725
0.84419 0.28752 0.00000
0.84389 0.28070 0.00000
0.84215 0.27106 0.00000
0.84048 0.25717 0.00000
0.83900 0.24603 0.00000
0.83810 0.23673 0.00000
0.83844 0.22953 0.00000
0.84195 0.23355 0.00000
0.85102 0.27060 0.00000
0.00000 0.38537 0.18017
0.00000 0.38573 0.17733
0.00000 0.38611 0.17438
0.00000 0.38659 0.17064
0.00000 0.38704 0.16669
0.00000 0.38729 0.16409
0.00000 0.38742 0.16544
0.00000 0.38768 0.17095
0.00000 0.39115 0.17378
0.04760 0.39625 0.16938
0.16999 0.40285 0.16702
0.27115 0.41935 0.16479
0.38587 0.43202 0.16425
0.51809 0.45617 0.16724
0.61997 0.47295 0.17149
0.69605 0.47810 0.17578
0.74570 0.47419 0.17610
0.78435 0.46318 0.17327
0.80755 0.44933 0.16558
0.82357 0.43101 0.15238
0.83570 0.40870 0.13449
0.84517 0.38117 0.11317
0.85117 0.35842 0.08022
0.85298 0.34322 0.01198
0.85202 0.32771 0.00000
0.84997 0.30542 0.00000
0.84703 0.29157 0.00000
0.84428 0.28382 0.00000
0.84241 0.27574 0.00000
0.84238 0.26568 0.00000
0.84571 0.27118 0.00000
0.85590 0.29457 0.00000
0.00000 0.43614 0.20991
0.00000 0.43659 0.20786
0.00000 0.43705 0.20561
0.00000 0.43758 0.20250
0.00000 0.43826 0.19907
0.00000 0.43904 0.19646
0.00000 0.44015 0.19694
0.00000 0.44164 0.20268
0.00000 0.44300 0.21129
0.00000 0.45004 0.21098
0.09576 0.46039 0.20693
0.21444 0.47288 0.20306
0.34278 0.48907 0.19953
0.46841 0.50558 0.19855
0.58851 0.52414 0.19934
0.68090 0.53946 0.20211
0.74328 0.54291 0.20376
0.78502 0.53582 0.20389
0.81309 0.52464 0.20084
0.83244 0.50393 0.19475
0.84588 0.48238 0.18259
0.85539 0.45854 0.16413
0.86141 0.43534 0.13820
0.86339 0.41384 0.09959
0.86261 0.39064 0.02423
0.85977 0.36745 0.00000
0.85578 0.35044 0.00000
0.85234 0.33668 0.00000
0.85031 0.31848 0.00000
0.84978 0.30363 0.00000
0.85242 0.30765 0.00000
0.86056 0.34448 0.00000
0.00000 0.48951 0.24537
0.00000 0.49030 0.24328
0.00000 0.49118 0.24098
0.00000 0.49228 0.23791
0.00000 0.49370 0.23439
0.00000 0.49548 0.23124
0.00000 0.49772 0.23024
0.00000 0.50068 0.23390
0.00000 0.50330 0.24318
0.00000 0.50751 0.25311
0.00000 0.51698 0.24944
0.14031 0.52793 0.24615
0.27966 0.53984 0.24032
0.41244 0.55746 0.23483
0.54357 0.57651 0.23073
0.65358 0.59107 0.23125
0.73312 0.59979 0.23420
0.78229 0.59906 0.23530
0.81380 0.59259 0.23484
0.83668 0.58076 0.23197
0.85399 0.56292 0.22332
0.86692 0.54092 0.21055
0.87477 0.51497 0.19204
0.87825 0.48492 0.16623
0.87616 0.46455 0.12332
0.87173 0.44316 0.05237
0.86672 0.42465 0.00000
0.86280 0.40357 0.00000
0.85996 0.38175 0.00000
0.85829 0.36671 0.00000
0.86001 0.36588 0.00000
0.86710 0.39684 0.00000
0.00000 0.53714 0.27628
0.00000 0.53790 0.27476
0.00000 0.53876 0.27308
0.00000 0.54002 0.27080
0.00000 0.54174 0.26810
0.00000 0.54381 0.26576
0.00000 0.54599 0.26454
0.00000 0.54861 0.26576
0.00000 0.55116 0.27088
0.00000 0.55220 0.28140
0.00000 0.55793 0.28298
0.00000 0.57177 0.27743
0.19715 0.58682 0.27133
0.34956 0.60116 0.26561
0.48982 0.61767 0.25895
0.61291 0.63504 0.25585
0.70701 0.64863 0.25645
0.77284 0.65707 0.25954
0.81012 0.65580 0.26026
0.83855 0.64769 0.25974
0.86074 0.63369 0.25808
0.87670 0.61586 0.25367
0.88702 0.59308 0.24105
0.89228 0.56714 0.21980
0.89251 0.54364 0.19037
0.88813 0.52249 0.14935
0.88297 0.49548 0.08680
0.87668 0.47455 0.00000
0.87168 0.45525 0.00000
0.86860 0.44010 0.00000
0.86895 0.43539 0.00000
0.87554 0.45221 0.00000
0.00000 0.58315 0.30615
0.00000 0.58408 0.30440
0.00000 0.58513 0.30246
0.00000 0.58662 0.29978
0.00000 0.58859 0.29651
0.00000 0.59103 0.29305
0.00000 0.59353 0.29037
0.00000 0.59629 0.29021
0.00000 0.59913 0.29413
0.00000 0.60016 0.30340
0.00000 0.60163 0.31237
0.00000 0.61007 0.30955
0.05534 0.62248 0.30334
0.25618 0.63801 0.29411
0.42751 0.65574 0.28579
0.56338 0.67462 0.27919
0.67097 0.69043 0.27597
0.75167 0.70023 0.27831
0.80359 0.70477 0.28280
0.83765 0.70197 0.28367
0.86181 0.69374 0.28203
0.87842 0.68169 0.28068
0.89111 0.66467 0.27439
0.89923 0.64272 0.26308
0.90237 0.61738 0.24579
0.90115 0.59528 0.21268
0.89742 0.57307 0.17510
0.89284 0.55181 0.11846
0.88725 0.53206 0.00476
0.88311 0.51322 0.00000
0.88213 0.50069 0.00000
0.88703 0.51378 0.00000
0.00000 0.62057 0.33291
0.00000 0.62129 0.33100
0.00000 0.62211 0.32886
0.00000 0.62326 0.32639
0.00000 0.62477 0.32348
0.00000 0.62661 0.32023
0.00000 0.62874 0.31719
0.00000 0.63108 0.31541
0.00000 0.63347 0.31623
0.00000 0.63493 0.32086
0.00000 0.63553 0.33084
0.00000 0.64132 0.33553
0.00000 0.65268 0.33045
0.16012 0.66696 0.32070
0.33823 0.68609 0.31144
0.49116 0.70694 0.30274
0.62438 0.72357 0.29861
0.72395 0.73418 0.29693
0.78532 0.74159 0.29896
0.83144 0.74465 0.30278
0.85897 0.73895 0.30405
0.87746 0.72984 0.30335
0.89215 0.71741 0.30267
0.90281 0.70131 0.29624
0.90847 0.68274 0.28158
0.90888 0.66371 0.26102
0.90602 0.64435 0.23492
0.90319 0.62222 0.19632
0.89970 0.60215 0.14693
0.89664 0.58255 0.06688
0.89532 0.56910 0.00000
0.89768 0.57218 0.00000
0.00000 0.65293 0.35240
0.00000 0.65358 0.35139
0.00000 0.65432 0.35026
0.00000 0.65537 0.34867
0.00000 0.65672 0.34663
0.00000 0.65836 0.34424
0.00000 0.66026 0.34142
0.00000 0.66229 0.33784
0.00000 0.66432 0.33642
0.00000 0.66585 0.33862
0.00000 0.66602 0.34418
0.00000 0.66810 0.34951
0.00000 0.67625 0.34938
0.00000 0.69050 0.34401
0.23467 0.70902 0.33638
0.41538 0.72942 0.32619
0.56589 0.75000 0.31864
0.68367 0.76771 0.31508
0.76222 0.77490 0.31340
0.81431 0.77700 0.31489
0.85054 0.77707 0.31990
0.87280 0.77280 0.32164
0.88940 0.76455 0.32123
0.90442 0.75041 0.31891
0.91450 0.73309 0.31143
0.91728 0.71643 0.29862
0.91429 0.70133 0.27759
0.91035 0.68466 0.25049
0.90708 0.66718 0.21564
0.90439 0.64902 0.16828
0.90318 0.63386 0.11961
0.90438 0.63130 0.11241
0.00000 0.68067 0.37223
0.00000 0.68122 0.37021
0.00000 0.68184 0.36791
0.00000 0.68271 0.36464
0.00000 0.68390 0.36036
0.00000 0.68546 0.35577
0.00000 0.68724 0.35250
0.00000 0.68916 0.34980
0.00000 0.69119 0.34782
0.00000 0.69289 0.34740
0.00000 0.69372 0.34966
0.00000 0.69473 0.35639
0.00000 0.69972 0.36559
0.00000 0.71069 0.36114
0.00000 0.72573 0.34853
0.31946 0.74336 0.34119
0.49247 0.76493 0.33285
0.63085 0.78779 0.32886
0.73214 0.79817 0.32619
0.79609 0.80161 0.32760
0.83850 0.80256 0.32795
0.86632 0.80213 0.33013
0.88817 0.79800 0.33291
0.90526 0.78926 0.33319
0.91683 0.77696 0.33203
0.92217 0.76418 0.32632
0.92230 0.75052 0.31036
0.91926 0.73425 0.29268
0.91554 0.71733 0.26384
0.91133 0.70240 0.23360
0.90951 0.69003 0.19287
0.90991 0.68501 0.18128
0.00000 0.70791 0.39104
0.00000 0.70840 0.38975
0.00000 0.70896 0.38828
0.00000 0.70975 0.38618
0.00000 0.71078 0.38307
0.00000 0.71203 0.37903
0.00000 0.71355 0.37304
0.00000 0.71521 0.36685
0.00000 0.71690 0.36144
0.00000 0.71852 0.35847
0.00000 0.71975 0.36013
0.00000 0.72040 0.36753
0.00000 0.72166 0.37856
0.00000 0.72731 0.38269
0.00000 0.73986 0.37448
0.17550 0.75661 0.35916
0.39864 0.77787 0.34352
0.56462 0.80163 0.33501
0.69291 0.81466 0.33212
0.77161 0.82232 0.33073
0.82510 0.82660 0.33169
0.85595 0.82777 0.33340
0.88171 0.82664 0.33630
0.90291 0.82180 0.34003
0.91590 0.81054 0.33921
0.92354 0.79911 0.33725
0.92497 0.78863 0.33372
0.92382 0.77746 0.32522
0.92228 0.76439 0.30377
0.91979 0.74990 0.27645
0.91740 0.73676 0.24824
0.91676 0.72871 0.23406
0.00000 0.73029 0.40491
0.00000 0.73070 0.40338
0.00000 0.73117 0.40162
0.00000 0.73187 0.39910
0.00000 0.73277 0.39601
0.00000 0.73386 0.39242
0.00000 0.73509 0.38822
0.00000 0.73645 0.38364
0.00000 0.73784 0.37862
0.00000 0.73920 0.37399
0.00000 0.74039 0.37222
0.00000 0.74122 0.37581
0.00000 0.74139 0.38174
0.00000 0.74337 0.38978
0.00000 0.75112 0.38922
0.00000 0.76565 0.37865
0.28273 0.78607 0.36605
0.48239 0.80949 0.34792
0.63149 0.82772 0.34020
0.73532 0.84121 0.33561
0.80462 0.84661 0.33697
0.84339 0.84839 0.33959
0.87163 0.84745 0.34394
0.89579 0.84458 0.34909
0.91168 0.84074 0.35434
0.92173 0.83170 0.35242
0.92606 0.82094 0.34779
0.92641 0.80954 0.33873
0.92534 0.79826 0.33140
0.92405 0.78704 0.31634
0.92276 0.77733 0.29079
0.92247 0.77041 0.27489
0.00000 0.75147 0.42297
0.00000 0.75186 0.42112
0.00000 0.75231 0.41900
0.00000 0.75294 0.41594
0.00000 0.75377 0.41202
0.00000 0.75476 0.40724
0.00000 0.75592 0.40234
0.00000 0.75721 0.39687
0.00000 0.75856 0.39173
0.00000 0.75991 0.38747
0.00000 0.76120 0.38491
0.00000 0.76234 0.38535
0.00000 0.76289 0.38854
0.00000 0.76235 0.39406
0.00000 0.76409 0.39896
0.00000 0.77302 0.39222
0.06015 0.79110 0.37984
0.36846 0.81241 0.36753
0.55331 0.83320 0.35153
0.68795 0.85279 0.34650
0.77554 0.86115 0.34567
0.82813 0.86504 0.34965
0.86019 0.86510 0.35138
0.88754 0.86298 0.35601
0.90530 0.86032 0.36174
0.91937 0.85640 0.36400
0.92526 0.84821 0.36104
0.92673 0.83964 0.35509
0.92654 0.83048 0.34671
0.92602 0.81970 0.33463
0.92533 0.80907 0.32646
0.92505 0.80151 0.30964
0.00000 0.77385 0.44335
0.00000 0.77433 0.44186
0.00000 0.77487 0.44015
0.00000 0.77565 0.43769
0.00000 0.77668 0.43422
0.00000 0.77797 0.42962
0.00000 0.77953 0.42417
0.00000 0.78152 0.41807
0.00000 0.78398 0.41180
0.00000 0.78674 0.40643
0.00000 0.78972 0.40312
0.00000 0.79277 0.40311
0.00000 0.79523 0.40671
0.00000 0.79437 0.41035
0.00000 0.79009 0.41524
0.00000 0.78975 0.41210
0.00000 0.79923 0.39689
0.23622 0.81508 0.38151
0.46097 0.83557 0.36778
0.61899 0.85874 0.35523
0.73167 0.87160 0.35128
0.80714 0.87749 0.35484
0.84712 0.88138 0.35742
0.87739 0.88130 0.35777
0.89695 0.87987 0.35895
0.91128 0.88151 0.34843
0.92151 0.87491 0.35268
0.92564 0.86586 0.35439
0.92656 0.85734 0.35092
0.92684 0.84767 0.34760
0.92661 0.83985 0.33516
0.92566 0.83294 0.32743
0.00000 0.79862 0.46034
0.00000 0.79918 0.45920
0.00000 0.79982 0.45791
0.00000 0.80073 0.45605
0.00000 0.80197 0.45358
0.00000 0.80351 0.45014
0.00000 0.80542 0.44573
0.00000 0.80764 0.44074
0.00000 0.81002 0.43546
0.00000 0.81217 0.43019
0.00000 0.81414 0.42555
0.00000 0.81576 0.42304
0.00000 0.81662 0.42340
0.00000 0.81646 0.42562
0.00000 0.81396 0.42949
0.00000 0.81042 0.43083
0.00000 0.81163 0.42253
0.00000 0.82022 0.40365
0.32837 0.83687 0.38451
0.52410 0.86137 0.37006
0.67184 0.87772 0.36136
0.77134 0.88884 0.35789
0.82918 0.89548 0.36116
0.86641 0.89719 0.36214
0.88865 0.89751 0.35981
0.90456 0.89920 0.35018
0.91506 0.90109 0.33096
0.92108 0.89603 0.33095
0.92335 0.88927 0.33106
0.92438 0.88020 0.32951
0.92533 0.86866 0.32809
0.92522 0.86022 0.32447
0.00000 0.81729 0.47491
0.00000 0.81774 0.47369
0.00000 0.81826 0.47230
0.00000 0.81899 0.47028
0.00000 0.81994 0.46780
0.00000 0.82108 0.46483
0.00000 0.82241 0.46125
0.00000 0.82394 0.45713
0.00000 0.82562 0.45263
0.00000 0.82737 0.44771
0.00000 0.82903 0.44261
0.00000 0.83045 0.43877
0.00000 0.83140 0.43706
0.00000 0.83169 0.43755
0.00000 0.83058 0.43955
0.00000 0.82693 0.44167
0.00000 0.82395 0.43927
0.00000 0.82669 0.42843
0.13213 0.83763 0.40916
0.40214 0.86010 0.38836
0.58152 0.88022 0.37403
0.71131 0.89630 0.36533
0.79962 0.90592 0.36283
0.84881 0.90985 0.36539
0.88033 0.91093 0.36362
0.89861 0.91242 0.35932
0.90980 0.91712 0.33193
0.91711 0.91896 0.31565
0.92019 0.91619 0.31309
0.92031 0.91145 0.31077
0.92057 0.90244 0.31038
0.92061 0.89439 0.30704
0.00000 0.82813 0.48941
0.00000 0.82845 0.48836
0.00000 0.82881 0.48715
0.00000 0.82932 0.48513
0.00000 0.82999 0.48234
0.00000 0.83083 0.47895
0.00000 0.83182 0.47481
0.00000 0.83301 0.46993
0.00000 0.83427 0.46480
0.00000 0.83551 0.45954
0.00000 0.83663 0.45421
0.00000 0.83737 0.44934
0.00000 0.83762 0.44507
0.00000 0.83737 0.44259
0.00000 0.83655 0.44184
0.00000 0.83420 0.44252
0.00000 0.83046 0.44288
0.00000 0.82991 0.43979
0.00000 0.83668 0.42891
0.24421 0.85449 0.40992
0.46742 0.87792 0.38980
0.63479 0.89798 0.37658
0.75031 0.91354 0.36884
0.82222 0.92056 0.36619
0.86722 0.92285 0.36819
0.88910 0.92446 0.36116
0.90455 0.92568 0.34993
0.91176 0.93195 0.32019
0.91383 0.93563 0.31115
0.91341 0.93411 0.30859
0.91423 0.92768 0.30753
0.91579 0.91930 0.31120
0.00000 0.83385 0.50255
0.00000 0.83407 0.50156
0.00000 0.83432 0.50041
0.00000 0.83465 0.49875
0.00000 0.83509 0.49651
0.00000 0.83561 0.49365
0.00000 0.83621 0.49013
0.00000 0.83691 0.48591
0.00000 0.83764 0.48021
0.00000 0.83830 0.47411
0.00000 0.83881 0.46758
0.00000 0.83906 0.46176
0.00000 0.83887 0.45641
0.00000 0.83823 0.45211
0.00000 0.83733 0.44958
0.00000 0.83620 0.44965
0.00000 0.83479 0.45115
0.00000 0.83594 0.45144
0.00000 0.84361 0.44756
0.19219 0.86093 0.43651
0.42191 0.88160 0.42322
0.58710 0.90167 0.40988
0.70347 0.91710 0.40099
0.78218 0.92487 0.39774
0.82569 0.92980 0.39362
0.85983 0.93279 0.38510
0.87776 0.93730 0.37429
0.88896 0.94192 0.36384
0.89549 0.94434 0.35755
0.89984 0.94347 0.35553
0.90363 0.93959 0.35785
0.90777 0.93239 0.36760
0.00000 0.83850 0.52677
0.00000 0.83868 0.52573
0.00000 0.83889 0.52447
0.00000 0.83916 0.52265
