fuji-film/cube-lut/classic-chrome.cube
LUT_3D_SIZE 5
DOMAIN_MIN 0.000000 0.000000 0.000000
DOMAIN_MAX 0.903226 0.903226 0.903226
0.00000 0.00000 0.00000
0.18751 0.01414 0.00000
0.63236 0.08158 0.00000
0.85283 0.05401 0.00000
0.90571 0.07979 0.00000
0.00000 0.13374 0.00000
0.17060 0.16385 0.02214
0.64807 0.20416 0.00000
0.87670 0.20263 0.00000
0.91981 0.19781 0.00000
0.00000 0.49584 0.00000
0.00000 0.50871 0.00000
0.57243 0.56117 0.00000
0.89911 0.56875 0.00000
0.96481 0.49568 0.00000
0.00000 0.74095 0.00000
0.00000 0.75019 0.00000
0.27584 0.77820 0.00000
0.81717 0.80893 0.00000
0.97239 0.80511 0.00000
0.00000 0.87342 0.00000
0.00000 0.87884 0.00000
0.00000 0.89564 0.00000
0.68443 0.92228 0.00000
0.89816 0.93700 0.04027
0.00633 0.00935 0.15605
0.25507 0.05113 0.22137
0.65805 0.13052 0.26749
0.87384 0.15945 0.28314
0.90885 0.15468 0.08640
0.00000 0.19154 0.18382
0.22804 0.22805 0.22755
0.65617 0.30827 0.31851
0.89493 0.25176 0.27383
0.92048 0.20984 0.00000
0.00000 0.53190 0.20157
0.00000 0.54923 0.21992
0.60653 0.59909 0.29124
0.90168 0.60622 0.26500
0.96887 0.51842 0.04472
0.00000 0.75792 0.18255
0.00000 0.76713 0.16980
0.30862 0.79443 0.15278
0.83642 0.82305 0.24001
0.97632 0.82040 0.20182
0.00000 0.88133 0.18496
0.00000 0.88679 0.17366
0.07486 0.90390 0.15144
0.70186 0.93226 0.25797
0.90533 0.94784 0.29744
0.00000 0.03608 0.53831
0.25307 0.06796 0.58749
0.69093 0.17976 0.66246
0.89900 0.21630 0.66768
0.93802 0.24737 0.59317
0.00000 0.28862 0.57731
0.31799 0.34234 0.61163
0.69398 0.40607 0.65717
0.90815 0.44065 0.69214
0.96286 0.41704 0.65646
0.00000 0.58836 0.57548
0.00000 0.60079 0.59387
0.64041 0.64028 0.63982
0.89523 0.67694 0.68337
0.97912 0.70585 0.70314
0.00000 0.78452 0.55431
0.00000 0.79135 0.56772
0.47089 0.81821 0.61717
0.85592 0.84980 0.67034
0.97924 0.86315 0.71061
0.00000 0.90165 0.52228
0.00000 0.90764 0.52862
0.33521 0.92545 0.54982
0.74384 0.95704 0.59047
0.91567 0.97179 0.60978
0.00000 0.11080 0.77760
0.26272 0.13094 0.81146
0.67555 0.20069 0.86651
0.91396 0.28717 0.89907
0.95494 0.38866 0.85158
0.00000 0.32619 0.80511
0.30762 0.35235 0.83005
0.70462 0.41381 0.86973
0.92769 0.50462 0.89396
0.97047 0.54407 0.86003
0.00000 0.65558 0.81684
0.31706 0.67941 0.83079
0.68808 0.71107 0.85557
0.90905 0.75776 0.87870
0.99025 0.77476 0.87862
0.00000 0.81597 0.79439
0.00000 0.82083 0.80335
0.54520 0.84438 0.83947
0.87195 0.87203 0.87166
0.99641 0.88502 0.88742
0.00000 0.92467 0.76972
0.16087 0.93040 0.77745
0.52206 0.94881 0.79834
0.78002 0.97528 0.82723
0.93240 0.98680 0.84329
0.00000 0.20040 0.88100
0.29003 0.20943 0.90880
0.65758 0.26449 0.96209
0.88898 0.33412 0.97413
0.95748 0.45765 0.97480
0.00000 0.37512 0.90570
0.28398 0.38718 0.92827
0.68018 0.42970 0.96877
0.90503 0.49593 0.97782
0.96960 0.59188 0.97868
0.27338 0.70695 0.92885
0.51172 0.74711 0.94772
0.75101 0.77728 0.97415
0.92070 0.80753 0.98696
0.98841 0.81097 0.98337
0.15860 0.84408 0.92661
0.37666 0.85145 0.93708
0.67815 0.86941 0.96162
0.88686 0.90297 0.98194
1.00000 0.91503 0.99068
0.43501 0.93526 0.90397
0.50228 0.94096 0.91093
0.65528 0.95627 0.93001
0.82553 0.97683 0.95697
0.98054 0.98058 0.98051
