fuji-film/cube-lut/eterna.cube
LUT_3D_SIZE 5
DOMAIN_MIN 0.000000 0.000000 0.000000
DOMAIN_MAX 0.903226 0.903226 0.903226
0.00000 0.00000 0.00000
0.24732 0.02046 0.00000
0.58031 0.07648 0.00868
0.81528 0.00000 0.00504
0.90954 0.20398 0.22700
0.00000 0.21717 0.00000
0.22001 0.22800 0.03129
0.58568 0.21351 0.05214
0.82489 0.15517 0.05809
0.91187 0.21996 0.23749
0.00000 0.52228 0.00000
0.00000 0.53325 0.00000
0.53053 0.56168 0.00000
0.83482 0.53473 0.12425
0.92355 0.43962 0.23354
0.00000 0.77264 0.02793
0.00000 0.78090 0.03806
0.32841 0.79780 0.00000
0.76607 0.80766 0.00000
0.92800 0.78212 0.23475
0.00000 0.90759 0.13333
0.00000 0.91272 0.13700
0.00000 0.92596 0.14372
0.66186 0.94332 0.17826
0.87659 0.94250 0.30239
0.02636 0.02937 0.25003
0.28009 0.05838 0.28443
0.59992 0.10326 0.28629
0.83587 0.08628 0.22210
0.91329 0.24254 0.28049
0.00000 0.24948 0.23279
0.26577 0.26551 0.26537
0.60244 0.30689 0.31072
0.84007 0.21494 0.19013
0.91332 0.23722 0.28358
0.00000 0.54742 0.23815
0.10272 0.56278 0.26289
0.57746 0.58987 0.30249
0.83953 0.57142 0.20368
0.92710 0.45509 0.26720
0.00000 0.77962 0.26150
0.00000 0.78739 0.26270
0.40563 0.80201 0.25954
0.78833 0.81465 0.26304
0.93053 0.79368 0.25284
0.00000 0.91105 0.27029
0.00000 0.91577 0.27302
0.15483 0.92985 0.28164
0.68280 0.94836 0.31034
0.88334 0.94838 0.37164
0.06456 0.08152 0.60554
0.28520 0.08360 0.63921
0.65174 0.14324 0.68945
0.86541 0.14648 0.64479
0.92624 0.23977 0.47340
0.13210 0.31791 0.58865
0.35444 0.35092 0.61697
0.65580 0.38408 0.64772
0.86418 0.38439 0.65247
0.92868 0.34856 0.56177
0.00000 0.59424 0.55391
0.24303 0.60247 0.57877
0.61947 0.61926 0.61886
0.84974 0.63224 0.63423
0.94430 0.63831 0.60314
0.00000 0.78810 0.52749
0.00000 0.79394 0.55088
0.53414 0.80985 0.60667
0.82074 0.82736 0.63319
0.94834 0.82814 0.62031
0.00000 0.91769 0.50719
0.00000 0.92214 0.51895
0.40106 0.93669 0.54704
0.72928 0.95640 0.57007
0.89542 0.96080 0.57980
0.08366 0.14937 0.85697
0.29800 0.14538 0.88635
0.64016 0.15430 0.93659
0.87713 0.21177 0.95308
0.94073 0.33798 0.85521
0.12372 0.33744 0.82865
0.33683 0.35419 0.85572
0.66623 0.38596 0.89357
0.88249 0.43333 0.90972
0.94670 0.44694 0.85703
0.21514 0.64095 0.79122
0.41285 0.65781 0.81131
0.67070 0.67461 0.83666
0.86782 0.69837 0.85512
0.95609 0.69805 0.84938
0.00000 0.80395 0.74455
0.19914 0.81195 0.76922
0.59389 0.82688 0.81180
0.83993 0.83974 0.83936
0.97104 0.84218 0.84591
0.00000 0.92591 0.71400
0.23942 0.93046 0.72670
0.53914 0.94382 0.75725
0.77037 0.96214 0.79126
0.91878 0.96874 0.80983
0.09701 0.21334 0.94835
0.29568 0.20897 0.96228
0.61406 0.21878 0.96752
0.84624 0.23068 0.97101
0.93771 0.36988 0.97279
0.15571 0.37518 0.92962
0.32702 0.37406 0.94957
0.63598 0.38522 0.96966
0.85701 0.40640 0.97369
0.94189 0.49228 0.97386
0.35145 0.67135 0.89638
0.52936 0.70482 0.92127
0.72156 0.72310 0.96638
0.87563 0.74102 0.98185
0.95719 0.74477 0.97600
0.35072 0.81934 0.87685
0.47289 0.82510 0.89590
0.67958 0.83988 0.93295
0.85715 0.86928 0.96425
0.98100 0.87731 0.97743
0.43287 0.92704 0.84837
0.50096 0.93142 0.85871
0.64860 0.94438 0.88778
0.81794 0.96281 0.92978
0.96990 0.96992 0.96985
