fuji-film/cube-lut/eterna.cube
LUT_3D_SIZE 8
DOMAIN_MIN 0.000000 0.000000 0.000000
DOMAIN_MAX 0.903226 0.903226 0.903226
0.00000 0.00000 0.00000
0.12546 0.01106 0.00274
0.29199 0.02997 0.00000
0.49196 0.06550 0.01260
0.65780 0.05531 0.00565
0.78770 0.00000 0.00145
0.88115 0.10231 0.10773
0.90954 0.20398 0.22700
0.00000 0.10941 0.00472
0.11323 0.12176 0.01411
0.29234 0.10936 0.00645
0.49330 0.10778 0.01782
0.66113 0.10628 0.01569
0.79108 0.05046 0.00028
0.88351 0.13261 0.11920
0.91031 0.20991 0.23153
0.00000 0.25439 0.00000
0.00000 0.25801 0.02886
0.25959 0.26948 0.03844
0.48732 0.27106 0.05998
0.67099 0.24259 0.06956
0.80218 0.20217 0.07237
0.89008 0.19556 0.14597
0.91266 0.22914 0.23943
0.00000 0.43542 0.00000
0.00000 0.43826 0.00000
0.15808 0.44486 0.00000
0.44225 0.46257 0.00000
0.66463 0.46091 0.07252
0.81330 0.42194 0.10872
0.90247 0.36925 0.15640
0.91959 0.33852 0.23968
0.00000 0.60782 0.00000
0.00000 0.61229 0.00000
0.00000 0.62298 0.00286
0.33807 0.63731 0.00000
0.61006 0.64845 0.00000
0.78874 0.64722 0.02616
0.89633 0.61098 0.16190
0.92437 0.55551 0.22434
0.00000 0.74532 0.01042
0.00000 0.74893 0.01924
0.00000 0.75775 0.02747
0.11063 0.76802 0.00000
0.52362 0.77709 0.00000
0.73850 0.78103 0.00000
0.87695 0.77719 0.16984
0.92740 0.74643 0.23168
0.00000 0.84074 0.06671
0.00000 0.84320 0.06818
0.00000 0.84934 0.06470
0.00000 0.85940 0.05992
0.39568 0.86822 0.00000
0.66875 0.87752 0.00000
0.83708 0.87792 0.11967
0.92840 0.87188 0.22442
0.00000 0.90759 0.13333
0.00000 0.90950 0.13495
0.00000 0.91412 0.13779
0.00000 0.92169 0.14148
0.34000 0.93141 0.14429
0.61347 0.94108 0.16276
0.78072 0.94729 0.24528
0.87659 0.94250 0.30239
0.01304 0.01605 0.13260
0.14851 0.03605 0.15010
0.30488 0.05600 0.14741
0.49570 0.09357 0.12759
0.66636 0.10755 0.12294
0.79507 0.00000 0.10979
0.88667 0.13444 0.15428
0.91125 0.21409 0.24954
0.00000 0.13054 0.12001
0.14106 0.14159 0.14040
0.29841 0.15855 0.16074
0.49660 0.15200 0.13891
0.66821 0.12976 0.12003
0.79782 0.09470 0.10305
0.88885 0.15272 0.16128
0.91167 0.21745 0.25343
0.00000 0.26653 0.11846
0.09156 0.27289 0.13988
0.28189 0.28733 0.15705
0.49190 0.29487 0.13307
0.67899 0.26083 0.12497
0.80790 0.21197 0.13316
0.89456 0.19377 0.17758
0.91319 0.22929 0.25944
0.00000 0.44487 0.11488
0.00000 0.44987 0.12951
0.20250 0.46169 0.14137
0.46386 0.47717 0.15389
0.67175 0.47708 0.13848
0.81850 0.43282 0.14453
0.90766 0.37269 0.17502
0.92098 0.33575 0.25687
0.00000 0.61570 0.12191
0.00000 0.62035 0.12847
0.00000 0.63127 0.13133
0.35794 0.64437 0.11682
0.62605 0.65603 0.12022
0.79522 0.65762 0.13175
0.90069 0.61936 0.17742
0.92543 0.56107 0.23846
0.00000 0.74918 0.14479
0.00000 0.75288 0.14728
0.00000 0.76098 0.14274
0.15428 0.77126 0.13994
0.54422 0.78025 0.05433
0.74912 0.78444 0.07928
0.88136 0.78261 0.19391
0.92865 0.75084 0.24352
0.00000 0.84253 0.16373
0.00000 0.84493 0.16421
0.00000 0.85092 0.16000
0.00000 0.86068 0.15493
0.41656 0.86965 0.09976
0.68137 0.87996 0.00000
0.84248 0.88058 0.18238
0.93073 0.87556 0.23211
0.00000 0.90900 0.19255
0.00000 0.91087 0.19404
0.00000 0.91534 0.19691
0.00000 0.92295 0.20146
0.35526 0.93281 0.20755
0.62206 0.94296 0.22193
0.78602 0.94944 0.27724
0.87923 0.94473 0.33162
0.03462 0.03387 0.29568
0.15234 0.04630 0.31251
0.32960 0.07199 0.33678
0.52321 0.10430 0.33919
0.68397 0.10865 0.32833
0.81528 0.09160 0.29351
0.90014 0.20100 0.24117
0.91406 0.25608 0.29236
0.07109 0.16329 0.28731
0.18210 0.17930 0.30134
0.32872 0.19523 0.31802
0.51669 0.21453 0.34345
0.68811 0.21676 0.34575
0.82103 0.18075 0.29897
0.90089 0.20491 0.23676
0.91390 0.25493 0.29194
0.00000 0.29622 0.27609
0.13823 0.30143 0.29330
0.31441 0.31404 0.31405
0.51655 0.33107 0.34068
0.69334 0.35944 0.35627
0.82508 0.32463 0.30012
0.90351 0.22650 0.22067
0.91414 0.24751 0.29183
0.00000 0.46969 0.27437
0.00000 0.47326 0.28699
0.26524 0.48555 0.31014
0.49556 0.50334 0.33517
0.68217 0.52092 0.34368
0.82000 0.50591 0.30481
0.91455 0.41775 0.20137
0.92372 0.35567 0.28092
0.00000 0.63212 0.28604
0.00000 0.63691 0.29514
0.10128 0.64756 0.31295
0.43942 0.65902 0.33681
0.65849 0.67196 0.35678
0.80024 0.68089 0.32243
0.90368 0.64524 0.22025
0.92747 0.58225 0.26117
0.00000 0.75683 0.30156
0.00000 0.75964 0.30630
0.00000 0.76600 0.31252
0.29694 0.77473 0.31030
0.60308 0.78504 0.36062
0.77074 0.79103 0.32604
0.88718 0.79496 0.26302
0.92966 0.76241 0.25325
0.00000 0.84570 0.29835
0.00000 0.84790 0.30004
0.00000 0.85302 0.29825
0.00000 0.86008 0.28024
0.48055 0.87188 0.29982
0.71827 0.88344 0.32750
0.85523 0.88536 0.30662
0.93291 0.88093 0.24421
0.00000 0.91186 0.29655
0.00000 0.91364 0.29875
0.00000 0.91792 0.30349
0.00000 0.92520 0.31238
0.39991 0.93601 0.32540
0.64274 0.94716 0.33896
0.79678 0.95399 0.36351
0.88477 0.95002 0.39393
0.06178 0.06509 0.50513
0.16553 0.06723 0.52278
0.33335 0.07378 0.54799
0.55280 0.12210 0.57554
0.71558 0.14082 0.56435
0.83371 0.12323 0.53305
0.90593 0.18570 0.44755
0.92172 0.25393 0.36161
0.07913 0.18027 0.49481
0.19476 0.19369 0.50994
0.35203 0.21205 0.53245
0.55862 0.24877 0.55850
0.71717 0.25617 0.55883
0.83639 0.23509 0.54180
0.90935 0.21848 0.47441
0.92337 0.26834 0.39693
0.10728 0.33770 0.48673
0.21395 0.34807 0.49976
0.37062 0.35851 0.51960
0.55087 0.38032 0.54121
0.71378 0.40107 0.55482
0.83483 0.41046 0.56259
0.92045 0.38321 0.53155
0.92866 0.35652 0.44984
0.00000 0.50184 0.47178
0.07898 0.50590 0.48474
0.32149 0.51319 0.50544
0.52836 0.52800 0.52774
0.70119 0.54044 0.54344
0.82783 0.54688 0.54701
0.91840 0.55767 0.53402
0.93535 0.50769 0.45254
0.00000 0.64746 0.45856
0.00000 0.65112 0.46888
0.20872 0.65957 0.49179
0.47790 0.67063 0.52055
0.67682 0.68237 0.54064
0.80957 0.69243 0.54627
0.90831 0.69404 0.51713
0.93939 0.67215 0.47130
0.00000 0.76309 0.45473
0.00000 0.76536 0.46256
0.00000 0.77110 0.48380
0.40497 0.77958 0.51822
0.64593 0.78973 0.54724
0.79313 0.80046 0.55044
0.89377 0.80838 0.54857
0.94135 0.79279 0.46992
0.00000 0.84927 0.45995
0.00000 0.85135 0.46728
0.00000 0.85638 0.48772
0.27408 0.86353 0.51333
0.57381 0.87449 0.53445
0.76317 0.88514 0.57178
0.87436 0.89145 0.51972
0.94063 0.89073 0.49845
0.00000 0.91528 0.43678
0.00000 0.91732 0.43999
0.00000 0.92167 0.44791
0.10569 0.92945 0.46031
0.47657 0.94014 0.47746
0.67677 0.95174 0.48995
0.81111 0.95982 0.49685
0.89159 0.95720 0.50744
0.06427 0.10133 0.69257
0.16885 0.10224 0.70585
0.33676 0.10268 0.73317
0.54939 0.11683 0.76325
0.73144 0.16291 0.78088
0.85400 0.17859 0.76934
0.91752 0.22188 0.70401
0.92776 0.28016 0.61431
0.08096 0.19603 0.68164
0.18657 0.20013 0.69502
0.35042 0.21330 0.72018
0.56300 0.24098 0.74687
0.73686 0.28057 0.76337
0.85263 0.28681 0.76026
0.91886 0.26914 0.71414
0.92960 0.30803 0.63753
0.14672 0.37748 0.66928
0.27695 0.40470 0.68147
0.41862 0.42031 0.69941
0.58398 0.43070 0.71353
0.73456 0.44906 0.72601
0.84533 0.45167 0.73525
0.92245 0.42939 0.72613
0.93499 0.42920 0.68789
0.08780 0.53561 0.64858
0.21356 0.54005 0.65835
0.37883 0.55096 0.67456
0.56219 0.56439 0.69316
0.71740 0.57800 0.70632
0.83424 0.59010 0.71874
0.92203 0.60138 0.72210
0.94346 0.59967 0.70461
0.00000 0.66852 0.61960
0.00000 0.67118 0.63129
0.29580 0.67755 0.65272
0.51726 0.68593 0.67726
0.69554 0.69528 0.69483
0.82045 0.70262 0.70517
0.91600 0.70823 0.70814
0.95102 0.71708 0.69760
0.00000 0.77010 0.60118
0.00000 0.77241 0.60968
0.12301 0.77838 0.63247
0.45216 0.78635 0.66120
0.65874 0.79691 0.68596
0.80085 0.80551 0.70018
0.90312 0.80958 0.70806
0.95050 0.80790 0.70525
0.00000 0.85103 0.58922
0.00000 0.85305 0.59649
0.00000 0.85804 0.61635
0.34732 0.86622 0.65067
0.61043 0.87809 0.68401
0.77588 0.88872 0.70297
0.88585 0.89679 0.69874
0.94775 0.89735 0.71170
0.00000 0.92000 0.57372
0.00000 0.92144 0.57856
0.00000 0.92622 0.58981
0.33140 0.93389 0.60742
0.54903 0.94429 0.62681
0.70854 0.95580 0.64089
0.82454 0.96500 0.64772
0.89987 0.96376 0.65310
0.06264 0.14068 0.82945
0.18243 0.13757 0.84042
0.34670 0.13621 0.86533
0.54901 0.14318 0.89550
0.72321 0.15159 0.91857
0.85322 0.19688 0.92561
0.92650 0.25923 0.89022
0.93546 0.31959 0.81482
0.08289 0.22283 0.81774
0.19811 0.22179 0.82906
0.35932 0.22571 0.85316
0.55975 0.24135 0.88199
0.73085 0.26093 0.90213
0.85651 0.29826 0.90928
0.92700 0.32426 0.88335
0.93800 0.36093 0.81860
0.13469 0.38921 0.79642
0.23139 0.39871 0.80697
0.42226 0.42830 0.82595
0.59380 0.43415 0.84636
0.74355 0.46260 0.85537
0.85770 0.48155 0.86685
0.92858 0.47770 0.86222
0.94378 0.47245 0.82427
0.22526 0.57386 0.77806
0.31676 0.58786 0.78759
0.46201 0.60467 0.80162
0.60858 0.60849 0.81427
0.73866 0.62114 0.82184
0.84802 0.63598 0.83368
0.92705 0.63448 0.83942
0.94890 0.63224 0.82508
0.09731 0.68777 0.75372
0.21654 0.69052 0.76136
0.38557 0.69716 0.77665
0.56407 0.70630 0.79563
0.71501 0.71590 0.81325
0.83189 0.72638 0.82428
0.92109 0.73750 0.82796
0.95824 0.74367 0.82329
0.00000 0.78164 0.72334
0.00000 0.78441 0.73333
0.27223 0.79117 0.75468
0.49997 0.79971 0.77921
0.68102 0.80731 0.80045
0.81495 0.81481 0.81438
0.91454 0.81899 0.82247
0.96676 0.82033 0.82345
0.00000 0.85532 0.70386
0.00000 0.85712 0.71111
0.00000 0.86280 0.73008
0.42084 0.87315 0.75885
0.63844 0.88471 0.78649
0.78542 0.89380 0.80401
0.89376 0.89934 0.81341
0.95640 0.89943 0.81862
0.00000 0.92472 0.68917
0.00000 0.92656 0.69422
0.24043 0.93079 0.70529
0.43709 0.93831 0.72282
0.60081 0.94825 0.74326
0.73475 0.95906 0.76093
0.84071 0.96790 0.77495
0.91378 0.96753 0.78136
0.08475 0.17718 0.92653
0.18236 0.17464 0.93612
0.33907 0.17279 0.95518
0.53752 0.17262 0.96774
0.70736 0.17165 0.97160
0.83710 0.17690 0.97346
0.92552 0.25263 0.97457
0.94090 0.37392 0.94659
0.09584 0.24802 0.91589
0.19904 0.24676 0.92551
0.35043 0.24777 0.94648
0.54825 0.25362 0.96349
0.71530 0.25691 0.96914
0.84144 0.27655 0.97093
0.92769 0.32889 0.97269
0.94332 0.42124 0.94275
0.11898 0.39320 0.89265
0.22131 0.39658 0.90319
0.38628 0.41092 0.92570
0.57323 0.41856 0.94687
0.73287 0.44069 0.95619
0.85009 0.47983 0.95865
0.93140 0.49149 0.96197
0.94929 0.53114 0.93192
0.23856 0.58559 0.87091
0.34557 0.60351 0.87867
0.50879 0.63379 0.89493
0.63901 0.63603 0.91654
0.75153 0.63995 0.92929
0.85424 0.67567 0.93529
0.93204 0.67690 0.93555
0.95874 0.66852 0.91769
0.27754 0.71071 0.85070
0.35417 0.71728 0.85898
0.48152 0.72771 0.87488
0.61913 0.73403 0.89191
0.74046 0.74498 0.90539
0.84646 0.76565 0.91727
0.92604 0.77730 0.91889
0.96742 0.76971 0.91209
0.13813 0.79165 0.82657
0.24361 0.79361 0.83338
0.39814 0.79847 0.84894
0.56356 0.80679 0.87084
0.71325 0.81792 0.89129
0.82898 0.82734 0.90637
0.91693 0.83656 0.91258
0.97628 0.84122 0.91084
0.00000 0.86339 0.80056
0.00000 0.86565 0.80810
0.30026 0.87182 0.82552
0.50556 0.88056 0.84928
0.67085 0.88889 0.87177
0.80042 0.89777 0.89035
0.90463 0.90468 0.90419
0.97337 0.90665 0.90877
0.24411 0.92798 0.78108
0.29883 0.92969 0.78530
0.39903 0.93408 0.79590
0.52403 0.94083 0.81271
0.65018 0.95012 0.83405
0.76551 0.96055 0.85614
0.86493 0.96834 0.87592
0.93741 0.97082 0.88865
0.09701 0.21334 0.94835
0.18974 0.21059 0.95467
0.33497 0.21301 0.96357
0.52748 0.21820 0.96618
0.69209 0.21648 0.96852
0.81762 0.23094 0.97019
0.91946 0.23752 0.97244
0.93771 0.36988 0.97279
0.14382 0.27843 0.94158
0.20732 0.27625 0.95100
0.34907 0.27838 0.96167
0.53764 0.27695 0.96721
0.69752 0.29019 0.96942
0.82223 0.29278 0.97104
0.92082 0.30601 0.97350
0.93944 0.41554 0.97331
0.17160 0.40936 0.92414
0.23901 0.41270 0.93271
0.38071 0.41696 0.95055
0.55713 0.42695 0.96654
0.71356 0.43802 0.97302
0.83190 0.45148 0.97382
0.92416 0.46883 0.97673
0.94363 0.52635 0.97421
0.29015 0.59252 0.90445
0.36167 0.60344 0.91349
0.49842 0.62440 0.93409
0.63782 0.63851 0.96042
0.74661 0.64471 0.97571
0.84606 0.65873 0.97915
0.92906 0.68626 0.98317
0.95179 0.67779 0.97570
0.38317 0.72985 0.89423
0.45086 0.73998 0.90462
0.56948 0.75955 0.92584
0.68007 0.77172 0.95076
0.76937 0.77629 0.96956
0.85492 0.78853 0.97824
0.92933 0.80713 0.98187
0.96431 0.79677 0.97634
0.36716 0.80425 0.88042
0.41661 0.80731 0.88879
0.51930 0.81361 0.90640
0.63602 0.82194 0.92879
0.74293 0.83201 0.94906
0.83954 0.84985 0.96449
0.92126 0.86845 0.97483
0.97922 0.86377 0.97717
0.32957 0.86651 0.86267
0.37448 0.86859 0.86842
0.47343 0.87311 0.88132
0.59242 0.88117 0.90129
0.71041 0.89277 0.92403
0.81735 0.90691 0.94642
0.90742 0.91757 0.96557
0.98157 0.91572 0.97798
0.43287 0.92704 0.84837
0.45906 0.92866 0.85232
0.51709 0.93266 0.86191
0.60196 0.93987 0.87777
0.69665 0.94934 0.89917
0.79418 0.96028 0.92354
0.88618 0.96844 0.94943
0.96990 0.96992 0.96985
