fuji-film/cube-lut/eterna.cube
LUT_3D_SIZE 32
0.00000 0.00000 0.00000
0.02802 0.01439 0.01239
0.05735 0.01050 0.00929
0.09154 0.01152 0.00780
0.12546 0.01106 0.00274
0.16534 0.01323 0.00003
0.20626 0.01445 0.00000
0.24732 0.02046 0.00000
0.29199 0.02997 0.00000
0.34200 0.03837 0.00000
0.39293 0.04551 0.00000
0.43781 0.05765 0.00281
0.49196 0.06550 0.01260
0.53764 0.07308 0.01400
0.58031 0.07648 0.00868
0.61916 0.07203 0.00468
0.65780 0.05531 0.00565
0.69273 0.01006 0.00726
0.72596 0.00000 0.00722
0.75736 0.00000 0.00348
0.78770 0.00000 0.00145
0.81528 0.00000 0.00504
0.84065 0.00000 0.01689
0.86298 0.02682 0.05582
0.88115 0.10231 0.10773
0.89333 0.14550 0.15593
0.90103 0.17352 0.18996
0.90568 0.19236 0.21272
0.90954 0.20398 0.22700
0.91321 0.21028 0.23492
0.91671 0.21164 0.23980
0.92115 0.21643 0.24985
0.00581 0.02359 0.00922
0.02491 0.02565 0.01321
0.05440 0.02993 0.01089
0.09043 0.02882 0.00876
0.12716 0.02992 0.00234
0.16611 0.03057 0.00000
0.20629 0.03207 0.00000
0.24767 0.03322 0.00000
0.29256 0.03936 0.00000
0.34218 0.04893 0.00000
0.39312 0.05343 0.00000
0.43799 0.06530 0.00280
0.49226 0.07270 0.01199
0.53792 0.07970 0.01258
0.58062 0.08364 0.00554
0.61972 0.08051 0.00319
0.65838 0.06684 0.00449
0.69333 0.02766 0.00620
0.72657 0.00000 0.00564
0.75791 0.00000 0.00157
0.78828 0.00000 0.00000
0.81580 0.00000 0.00396
0.84122 0.00000 0.01671
0.86361 0.04273 0.05709
0.88157 0.10843 0.10950
0.89368 0.14869 0.15744
0.90124 0.17590 0.19124
0.90583 0.19406 0.21374
0.90967 0.20506 0.22781
0.91330 0.21137 0.23548
0.91679 0.21293 0.24012
0.92123 0.21870 0.24995
0.00000 0.04704 0.00954
0.01779 0.04992 0.01193
0.04975 0.05404 0.01189
0.08778 0.05472 0.01088
0.12427 0.06143 0.00543
0.16578 0.05730 0.00020
0.20631 0.05465 0.00000
0.24816 0.05006 0.00000
0.29331 0.05157 0.00000
0.34239 0.05975 0.00000
0.39326 0.06197 0.00000
0.43820 0.07332 0.00505
0.49255 0.07956 0.01189
0.53813 0.08635 0.01176
0.58089 0.09050 0.00433
0.62031 0.08883 0.00268
0.65902 0.07758 0.00431
0.69399 0.04741 0.00596
0.72726 0.00319 0.00471
0.75854 0.00000 0.00018
0.78891 0.00000 0.00000
0.81638 0.00000 0.00338
0.84181 0.00151 0.01857
0.86429 0.05892 0.05893
0.88203 0.11479 0.11152
0.89406 0.15207 0.15916
0.90147 0.17845 0.19268
0.90600 0.19586 0.21487
0.90982 0.20624 0.22871
0.91341 0.21257 0.23609
0.91688 0.21439 0.24047
0.92128 0.22211 0.25001
0.00000 0.07827 0.00579
0.00415 0.07894 0.00985
0.03471 0.08093 0.01143
0.08167 0.08701 0.01152
0.12153 0.08809 0.00985
0.16310 0.08798 0.00826
0.20516 0.08220 0.00090
0.24818 0.07465 0.00000
0.29358 0.07388 0.00000
0.34252 0.07752 0.00063
0.39348 0.07861 0.00318
0.43855 0.08683 0.01025
0.49288 0.08981 0.01284
0.53835 0.09573 0.01216
0.58120 0.09946 0.00688
0.62113 0.09914 0.00507
0.65990 0.09091 0.00732
0.69497 0.06826 0.00742
0.72832 0.03476 0.00504
0.75943 0.01335 0.00000
0.78983 0.00366 0.00000
0.81722 0.00802 0.00384
0.84260 0.03070 0.02294
0.86526 0.07720 0.06267
0.88268 0.12299 0.11464
0.89459 0.15654 0.16159
0.90180 0.18157 0.19471
0.90626 0.19824 0.21645
0.91002 0.20786 0.22996
0.91356 0.21423 0.23700
0.91701 0.21646 0.24097
0.92136 0.22701 0.25010
0.00000 0.10941 0.00472
0.00000 0.11039 0.00959
0.01352 0.11255 0.01384
0.06856 0.11313 0.01454
0.11323 0.12176 0.01411
0.15976 0.12180 0.01455
0.20176 0.11910 0.01056
0.24494 0.11412 0.00511
0.29234 0.10936 0.00645
0.34202 0.10861 0.01119
0.39403 0.10685 0.01158
0.43940 0.11029 0.01632
0.49330 0.10778 0.01782
0.53877 0.11141 0.01688
0.58177 0.11278 0.01286
0.62227 0.11300 0.01288
0.66113 0.10628 0.01569
0.69625 0.09031 0.01638
0.72979 0.07093 0.00823
0.76063 0.05878 0.00170
0.79108 0.05046 0.00028
0.81835 0.05152 0.00678
0.84366 0.06411 0.02903
0.86652 0.09557 0.06964
0.88351 0.13261 0.11920
0.89525 0.16242 0.16475
0.90224 0.18540 0.19721
0.90662 0.20103 0.21844
0.91031 0.20991 0.23153
0.91376 0.21636 0.23816
0.91719 0.21948 0.24160
0.92147 0.23361 0.25022
0.00000 0.14709 0.00336
0.00000 0.14811 0.00990
0.00000 0.14962 0.01369
0.04741 0.15048 0.01735
0.09801 0.15195 0.01775
0.14931 0.15527 0.01856
0.19521 0.15775 0.01666
0.24000 0.15630 0.01703
0.28825 0.15333 0.01744
0.34019 0.14917 0.02161
0.39433 0.14469 0.02170
0.44138 0.14427 0.02400
0.49386 0.13943 0.02359
0.53993 0.13752 0.02419
0.58290 0.13581 0.02221
0.62418 0.13342 0.02354
0.66291 0.12758 0.02759
0.69808 0.11658 0.02753
0.73172 0.10406 0.02211
0.76228 0.09671 0.01025
0.79273 0.09010 0.00695
0.81989 0.08719 0.01853
0.84497 0.09504 0.04007
0.86796 0.11492 0.07891
0.88457 0.14344 0.12482
0.89608 0.16940 0.16857
0.90279 0.19000 0.20015
0.90708 0.20371 0.22081
0.91068 0.21242 0.23337
0.91404 0.21901 0.23953
0.91735 0.22468 0.24230
0.92162 0.24209 0.25034
0.00000 0.18210 0.00019
0.00000 0.18244 0.00535
0.00000 0.18294 0.01055
0.00581 0.18372 0.01763
0.07671 0.18590 0.02001
0.13255 0.18803 0.02011
0.18373 0.19018 0.02194
0.23242 0.19368 0.02650
0.28382 0.19405 0.02651
0.33590 0.19123 0.02721
0.39165 0.18754 0.03123
0.44146 0.18467 0.03117
0.49421 0.18005 0.03142
0.54133 0.17507 0.03467
0.58454 0.17042 0.03498
0.62687 0.16522 0.03736
0.66544 0.15806 0.04174
0.70082 0.14819 0.04344
0.73452 0.13819 0.03786
0.76510 0.13082 0.02860
0.79491 0.12380 0.02635
0.82202 0.12087 0.03653
0.84667 0.12383 0.05519
0.86965 0.13538 0.08971
0.88597 0.15593 0.13138
0.89711 0.17811 0.17279
0.90351 0.19583 0.20340
0.90770 0.20714 0.22356
0.91118 0.21560 0.23535
0.91438 0.22298 0.24102
0.91753 0.23195 0.24305
0.92182 0.25287 0.25045
0.00000 0.21717 0.00000
0.00000 0.21746 0.00466
0.00000 0.21785 0.01121
0.00000 0.21871 0.02025
0.04379 0.22054 0.02434
0.11478 0.22378 0.02683
0.16855 0.22535 0.02754
0.22001 0.22800 0.03129
0.27400 0.23112 0.03286
0.33001 0.23293 0.03581
0.38542 0.23061 0.04245
0.43855 0.22869 0.04199
0.49242 0.22574 0.04416
0.54085 0.22006 0.05016
0.58568 0.21351 0.05214
0.62960 0.20550 0.05492
0.66859 0.19612 0.05835
0.70450 0.18597 0.06127
0.73839 0.17617 0.05827
0.76902 0.16845 0.05090
0.79801 0.16099 0.04955
0.82489 0.15517 0.05809
0.84905 0.15391 0.07561
0.87181 0.15864 0.10082
0.88773 0.17243 0.13920
0.89841 0.18931 0.17710
0.90453 0.20336 0.20657
0.90857 0.21197 0.22619
0.91187 0.21996 0.23749
0.91474 0.23019 0.24249
0.91780 0.24137 0.24385
0.92216 0.26519 0.25056
0.00000 0.25439 0.00000
0.00000 0.25480 0.00274
0.00000 0.25532 0.00989
0.00000 0.25625 0.02089
0.00000 0.25801 0.02886
0.08463 0.26121 0.03112
0.14885 0.26415 0.03243
0.20365 0.26655 0.02938
0.25959 0.26948 0.03844
0.31759 0.27201 0.04492
0.37785 0.27362 0.05182
0.43288 0.27380 0.05563
0.48732 0.27106 0.05998
0.53876 0.26551 0.06219
0.58536 0.26013 0.06418
0.63055 0.25246 0.06658
0.67099 0.24259 0.06956
0.70829 0.23178 0.07321
0.74255 0.22101 0.07416
0.77378 0.21125 0.07206
0.80218 0.20217 0.07237
0.82860 0.19385 0.07969
0.85255 0.18865 0.09086
0.87449 0.18877 0.11352
0.89008 0.19556 0.14597
0.90021 0.20528 0.18096
0.90617 0.21235 0.20961
0.90985 0.21948 0.22859
0.91266 0.22914 0.23943
0.91525 0.24051 0.24389
0.91818 0.25408 0.24457
0.92247 0.28214 0.25045
0.00000 0.29587 0.00000
0.00000 0.29630 0.00000
0.00000 0.29681 0.00000
0.00000 0.29758 0.00315
0.00000 0.29925 0.01001
0.01797 0.30167 0.01262
0.11938 0.30448 0.01193
0.18427 0.30685 0.01255
0.24260 0.30930 0.02301
0.30232 0.31276 0.03658
0.36412 0.31446 0.05625
0.42733 0.32136 0.06415
0.48118 0.32007 0.06509
0.53672 0.31635 0.07069
0.58335 0.31116 0.07214
0.62996 0.30364 0.07309
0.67177 0.29421 0.07518
0.71065 0.28343 0.07949
0.74531 0.27264 0.08210
0.77768 0.26167 0.08250
0.80635 0.25110 0.08443
0.83294 0.24063 0.09210
0.85714 0.23115 0.10428
0.87774 0.22438 0.12323
0.89351 0.22151 0.15189
0.90301 0.22296 0.18459
0.90846 0.22751 0.21195
0.91145 0.23635 0.23020
0.91366 0.24581 0.24081
0.91595 0.25604 0.24497
0.91890 0.26994 0.24518
0.92316 0.29857 0.25039
0.00000 0.34034 0.00000
0.00000 0.34088 0.00000
0.00000 0.34149 0.00000
0.00000 0.34228 0.00000
0.00000 0.34368 0.00085
0.00000 0.34577 0.00927
0.07147 0.34883 0.01170
0.15657 0.35233 0.00972
0.22243 0.35537 0.00784
0.28522 0.35755 0.01835
0.35149 0.35901 0.04597
0.41324 0.35964 0.07104
0.47520 0.36731 0.07547
0.53390 0.36629 0.07924
0.58127 0.36236 0.08355
0.62856 0.35492 0.08424
0.67137 0.34617 0.08328
0.71117 0.33556 0.08658
0.74683 0.32481 0.09007
0.78073 0.31323 0.09259
0.81061 0.30147 0.09599
0.83690 0.28942 0.10410
0.86182 0.27721 0.11444
0.88159 0.26783 0.13072
0.89708 0.26176 0.15537
0.90595 0.26031 0.18590
0.91078 0.26199 0.21234
0.91321 0.26524 0.23054
0.91503 0.26990 0.24141
0.91703 0.27797 0.24557
0.91975 0.29323 0.24534
0.92430 0.31615 0.25028
0.00000 0.38406 0.00000
0.00000 0.38458 0.00000
0.00000 0.38549 0.00000
0.00000 0.38687 0.00000
0.00000 0.38894 0.00402
0.00000 0.39162 0.01473
0.00000 0.39496 0.01999
0.11561 0.39813 0.01316
0.19543 0.40050 0.00000
0.26235 0.40357 0.00000
0.32808 0.40827 0.00591
0.39365 0.41148 0.01710
0.46287 0.41581 0.06017
0.52702 0.41493 0.07861
0.57771 0.41352 0.08119
0.62652 0.41077 0.09169
0.66935 0.40183 0.09108
0.71043 0.39126 0.09305
0.74776 0.37969 0.09602
0.78279 0.36826 0.09940
0.81368 0.35676 0.10390
0.84060 0.34476 0.11178
0.86508 0.33283 0.12158
0.88512 0.32220 0.13490
0.90021 0.31301 0.15660
0.90898 0.30661 0.18531
0.91331 0.30296 0.21124
0.91544 0.30135 0.22960
0.91702 0.30153 0.24099
0.91887 0.30448 0.24563
0.92154 0.31411 0.24559
0.92485 0.34712 0.24914
0.00000 0.43542 0.00000
0.00000 0.43593 0.00000
0.00000 0.43653 0.00000
0.00000 0.43730 0.00000
0.00000 0.43826 0.00000
0.00000 0.43922 0.00000
0.00000 0.44098 0.00094
0.02837 0.44284 0.00000
0.15808 0.44486 0.00000
0.23552 0.44978 0.00000
0.30609 0.45480 0.00000
0.37270 0.45847 0.00000
0.44225 0.46257 0.00000
0.51122 0.46652 0.02142
0.56886 0.46848 0.05855
0.61936 0.46682 0.06014
0.66463 0.46091 0.07252
0.70689 0.45323 0.08959
0.74571 0.44401 0.09926
0.78123 0.43332 0.10379
0.81330 0.42194 0.10872
0.84207 0.40944 0.11633
0.86601 0.39593 0.12584
0.88703 0.38162 0.13792
0.90247 0.36925 0.15640
0.91108 0.35915 0.18313
0.91590 0.35076 0.20869
0.91828 0.34321 0.22751
0.91959 0.33852 0.23968
0.92088 0.33966 0.24480
0.92264 0.35218 0.24451
0.92616 0.37776 0.24794
0.00000 0.47955 0.00000
0.00000 0.48013 0.00000
0.00000 0.48078 0.00000
0.00000 0.48184 0.00000
0.00000 0.48343 0.00000
0.00000 0.48538 0.00000
0.00000 0.48781 0.00000
0.00000 0.49078 0.00000
0.09019 0.49386 0.00000
0.19916 0.49677 0.00000
0.28010 0.49990 0.00000
0.34913 0.50396 0.00000
0.42235 0.50795 0.00000
0.49255 0.51197 0.00000
0.55052 0.51620 0.00000
0.60614 0.51733 0.00000
0.65511 0.51501 0.00000
0.69973 0.51005 0.02590
0.74017 0.50338 0.08440
0.77666 0.49481 0.10489
0.80968 0.48426 0.11212
0.84018 0.47188 0.12072
0.86533 0.45778 0.13034
0.88696 0.44282 0.14053
0.90275 0.42871 0.15535
0.91248 0.41570 0.18008
0.91769 0.40478 0.20490
0.92013 0.39575 0.22398
0.92133 0.38864 0.23685
0.92249 0.38556 0.24283
0.92430 0.39206 0.24317
0.92770 0.41307 0.24632
0.00000 0.52228 0.00000
0.00000 0.52291 0.00000
0.00000 0.52366 0.00000
0.00000 0.52472 0.00000
0.00000 0.52612 0.00000
0.00000 0.52789 0.00000
0.00000 0.53009 0.00000
0.00000 0.53325 0.00000
0.00000 0.53728 0.00000
0.14607 0.54153 0.00000
0.24486 0.54547 0.00000
0.31991 0.54967 0.00000
0.39769 0.55410 0.00000
0.46870 0.55813 0.00000
0.53053 0.56168 0.00000
0.59028 0.56360 0.00000
0.64238 0.56398 0.00000
0.68943 0.56238 0.00000
0.73182 0.55875 0.00000
0.76995 0.55308 0.07504
0.80378 0.54503 0.10973
0.83482 0.53473 0.12425
0.86164 0.52185 0.13428
0.88439 0.50721 0.14308
0.90137 0.49202 0.15508
0.91226 0.47705 0.17649
0.91872 0.46359 0.20039
0.92200 0.45071 0.21977
0.92355 0.43962 0.23354
0.92477 0.43320 0.24042
0.92636 0.43518 0.24149
0.92854 0.45417 0.24409
0.00000 0.56598 0.00000
0.00000 0.56677 0.00000
0.00000 0.56762 0.00000
0.00000 0.56892 0.00000
0.00000 0.57060 0.00000
0.00000 0.57269 0.00000
0.00000 0.57523 0.00000
0.00000 0.57827 0.00000
0.00000 0.58176 0.00000
0.03786 0.58549 0.00000
0.19735 0.58909 0.00000
0.28362 0.59315 0.00000
0.36977 0.59682 0.00000
0.44267 0.60067 0.00000
0.50883 0.60432 0.00000
0.57189 0.60693 0.00000
0.62720 0.60839 0.00000
0.67700 0.60882 0.00000
0.72133 0.60804 0.00000
0.76150 0.60500 0.00000
0.79649 0.59984 0.08306
0.82833 0.59214 0.12604
0.85629 0.58116 0.14211
0.88014 0.56813 0.14863
0.89889 0.55338 0.15715
0.91193 0.53846 0.17400
0.91916 0.52407 0.19547
0.92262 0.51038 0.21475
0.92420 0.49800 0.22898
0.92546 0.48875 0.23672
0.92684 0.48675 0.23881
0.92899 0.49841 0.24148
0.00000 0.60782 0.00000
0.00000 0.60859 0.00000
0.00000 0.60942 0.00000
0.00000 0.61068 0.00000
0.00000 0.61229 0.00000
0.00000 0.61429 0.00000
0.00000 0.61671 0.00000
0.00000 0.61961 0.00000
0.00000 0.62298 0.00286
0.00000 0.62670 0.00000
0.12582 0.63049 0.00000
0.23851 0.63422 0.00000
0.33807 0.63731 0.00000
0.41535 0.64037 0.00000
0.48564 0.64331 0.00000
0.55158 0.64632 0.00000
0.61006 0.64845 0.00000
0.66261 0.64967 0.00000
0.70925 0.65046 0.00000
0.75144 0.64993 0.00000
0.78874 0.64722 0.02616
0.82210 0.64161 0.12996
0.85086 0.63353 0.14763
0.87557 0.62343 0.15501
0.89633 0.61098 0.16190
0.91077 0.59631 0.17399
0.91880 0.58279 0.19253
0.92266 0.56911 0.21026
0.92437 0.55551 0.22434
0.92575 0.54390 0.23294
0.92718 0.53825 0.23605
0.92929 0.54427 0.23880
0.00000 0.64703 0.00000
0.00000 0.64776 0.00000
0.00000 0.64855 0.00000
0.00000 0.64976 0.00000
0.00000 0.65131 0.00000
0.00000 0.65311 0.00000
0.00000 0.65526 0.00000
0.00000 0.65778 0.00159
0.00000 0.66061 0.00678
0.00000 0.66433 0.00054
0.00000 0.66815 0.00000
0.18231 0.67194 0.00000
0.30240 0.67474 0.00000
0.38636 0.67793 0.00000
0.46038 0.68131 0.00000
0.52943 0.68390 0.00000
0.59126 0.68532 0.00000
0.64641 0.68669 0.00000
0.69533 0.68800 0.00000
0.73975 0.68886 0.00000
0.77925 0.68783 0.00000
0.81383 0.68440 0.08924
0.84467 0.67904 0.14531
0.87007 0.67232 0.16045
0.89270 0.66306 0.16743
0.90882 0.65111 0.17767
0.91834 0.63770 0.19262
0.92317 0.62365 0.20887
0.92486 0.61023 0.22135
0.92625 0.59698 0.22995
0.92767 0.58845 0.23379
0.92970 0.58933 0.23639
0.00000 0.68307 0.00000
0.00000 0.68374 0.00000
0.00000 0.68448 0.00000
0.00000 0.68560 0.00000
0.00000 0.68706 0.00000
0.00000 0.68889 0.00000
0.00000 0.69112 0.00281
0.00000 0.69379 0.00808
0.00000 0.69699 0.01298
0.00000 0.70038 0.01296
0.00000 0.70344 0.00117
0.09420 0.70660 0.00000
0.25931 0.70948 0.00000
0.35361 0.71249 0.00000
0.43346 0.71530 0.00000
0.50658 0.71724 0.00000
0.57140 0.71906 0.00000
0.62898 0.72039 0.00000
0.67988 0.72169 0.00000
0.72595 0.72239 0.00000
0.76714 0.72238 0.00000
0.80388 0.72094 0.00000
0.83685 0.71776 0.12343
0.86423 0.71343 0.16372
0.88797 0.70737 0.17338
0.90612 0.69859 0.18231
0.91759 0.68597 0.19695
0.92358 0.67319 0.21035
0.92563 0.66058 0.22209
0.92675 0.64771 0.22926
0.92791 0.63806 0.23206
0.92983 0.63527 0.23543
0.00000 0.71584 0.00000
0.00000 0.71652 0.00000
0.00000 0.71726 0.00000
0.00000 0.71838 0.00216
0.00000 0.71983 0.00555
0.00000 0.72161 0.00915
0.00000 0.72376 0.01238
0.00000 0.72629 0.01538
0.00000 0.72912 0.01819
0.00000 0.73180 0.01977
0.00000 0.73446 0.01553
0.00000 0.73747 0.00000
0.20304 0.74010 0.00000
0.31551 0.74313 0.00000
0.40345 0.74557 0.00000
0.48095 0.74773 0.00000
0.54866 0.74941 0.00000
0.60922 0.75083 0.00000
0.66245 0.75183 0.00000
0.71055 0.75259 0.00000
0.75335 0.75303 0.00000
0.79225 0.75299 0.00000
0.82746 0.75179 0.08737
0.85655 0.74897 0.14857
0.88256 0.74484 0.17541
0.90288 0.73838 0.18718
0.91664 0.72905 0.19996
0.92384 0.71737 0.21437
0.92637 0.70574 0.22549
0.92739 0.69385 0.23261
0.92872 0.68228 0.23416
0.93037 0.67689 0.23827
0.00000 0.74532 0.01042
0.00000 0.74592 0.01218
0.00000 0.74658 0.01408
0.00000 0.74761 0.01647
0.00000 0.74893 0.01924
0.00000 0.75064 0.02195
0.00000 0.75281 0.02418
0.00000 0.75528 0.02588
0.00000 0.75775 0.02747
0.00000 0.76041 0.02886
0.00000 0.76313 0.02898
0.00000 0.76568 0.01888
0.11063 0.76802 0.00000
0.26324 0.77043 0.00000
0.36890 0.77266 0.00000
0.45131 0.77485 0.00000
0.52362 0.77709 0.00000
0.58704 0.77905 0.00000
0.64265 0.78017 0.00000
0.69413 0.78063 0.00000
0.73850 0.78103 0.00000
0.77962 0.78116 0.00000
0.81688 0.78086 0.00000
0.84860 0.77983 0.11335
0.87695 0.77719 0.16984
0.89939 0.77259 0.19012
0.91505 0.76560 0.20254
0.92449 0.75682 0.21698
0.92740 0.74643 0.23168
0.92852 0.73483 0.23910
0.92945 0.72379 0.24215
0.93085 0.71635 0.24330
0.00000 0.77264 0.02793
0.00000 0.77313 0.02932
0.00000 0.77366 0.03082
0.00000 0.77446 0.03268
0.00000 0.77554 0.03471
0.00000 0.77697 0.03652
0.00000 0.77876 0.03771
0.00000 0.78090 0.03806
0.00000 0.78337 0.03769
0.00000 0.78605 0.03748
0.00000 0.78877 0.03861
0.00000 0.79153 0.03598
0.00000 0.79415 0.01088
0.19478 0.79630 0.00000
0.32841 0.79780 0.00000
0.41748 0.79997 0.00000
0.49662 0.80189 0.00000
0.56396 0.80400 0.00000
0.62170 0.80611 0.00000
0.67617 0.80695 0.00000
0.72311 0.80740 0.00000
0.76607 0.80766 0.00000
0.80519 0.80813 0.00000
0.84031 0.80860 0.11257
0.87207 0.80782 0.18345
0.89538 0.80406 0.19125
0.91315 0.79888 0.20331
0.92415 0.79092 0.21814
0.92800 0.78212 0.23475
0.92932 0.77150 0.24685
0.93008 0.76121 0.24901
0.93142 0.75311 0.25309
0.00000 0.79757 0.04099
0.00000 0.79806 0.04186
0.00000 0.79862 0.04273
0.00000 0.79942 0.04377
0.00000 0.80053 0.04473
0.00000 0.80188 0.04544
0.00000 0.80352 0.04551
0.00000 0.80537 0.04483
0.00000 0.80741 0.04343
0.00000 0.80964 0.04195
0.00000 0.81229 0.04183
0.00000 0.81489 0.04395
0.00000 0.81741 0.03380
0.09409 0.81968 0.00000
0.27813 0.82165 0.00000
0.37957 0.82364 0.00000
0.46651 0.82567 0.00000
0.53830 0.82792 0.00000
0.60044 0.83003 0.00000
0.65634 0.83157 0.00000
0.70649 0.83256 0.00000
0.75139 0.83307 0.00000
0.79228 0.83340 0.00000
0.82903 0.83391 0.09379
0.86218 0.83371 0.16177
0.89123 0.83326 0.19660
0.91052 0.82897 0.20443
0.92263 0.82225 0.21570
0.92840 0.81403 0.23426
0.92982 0.80492 0.24941
0.93085 0.79549 0.25743
0.93185 0.78718 0.25969
0.00000 0.82000 0.05289
0.00000 0.82045 0.05347
0.00000 0.82093 0.05408
0.00000 0.82162 0.05481
0.00000 0.82258 0.05545
0.00000 0.82376 0.05586
0.00000 0.82520 0.05579
0.00000 0.82703 0.05492
0.00000 0.82929 0.05325
0.00000 0.83178 0.05148
0.00000 0.83430 0.05106
0.00000 0.83690 0.05305
0.00000 0.83961 0.05077
0.00000 0.84157 0.02781
0.21356 0.84344 0.00000
0.33807 0.84559 0.00000
0.43287 0.84796 0.00000
0.51057 0.85024 0.00000
0.57772 0.85240 0.00000
0.63596 0.85441 0.00000
0.68828 0.85586 0.00000
0.73535 0.85662 0.00000
0.77733 0.85710 0.00000
0.81545 0.85707 0.04587
0.85035 0.85626 0.15096
0.88127 0.85537 0.20125
0.90511 0.85540 0.20551
0.92141 0.85135 0.21331
0.92892 0.84425 0.22909
0.93109 0.83498 0.24874
0.93207 0.82649 0.25838
0.93318 0.81911 0.26571
0.00000 0.84074 0.06671
0.00000 0.84118 0.06707
0.00000 0.84162 0.06746
0.00000 0.84226 0.06789
0.00000 0.84320 0.06818
0.00000 0.84434 0.06822
0.00000 0.84570 0.06781
0.00000 0.84735 0.06668
0.00000 0.84934 0.06470
0.00000 0.85153 0.06224
0.00000 0.85395 0.06019
0.00000 0.85656 0.06000
0.00000 0.85940 0.05992
0.00000 0.86147 0.04995
0.12285 0.86347 0.01937
0.28913 0.86571 0.00000
0.39568 0.86822 0.00000
0.48026 0.87064 0.00000
0.55215 0.87327 0.00000
0.61415 0.87554 0.00000
0.66875 0.87752 0.00000
0.71725 0.87894 0.00000
0.76100 0.87941 0.00000
0.80099 0.87890 0.00000
0.83708 0.87792 0.11967
0.86961 0.87724 0.17776
0.89668 0.87709 0.20524
0.91703 0.87605 0.20948
0.92840 0.87188 0.22442
0.93164 0.86405 0.24268
0.93410 0.85665 0.25593
0.93656 0.84962 0.26546
0.00000 0.85959 0.07915
0.00000 0.85999 0.07932
0.00000 0.86044 0.07946
0.00000 0.86107 0.07959
0.00000 0.86194 0.07952
0.00000 0.86304 0.07914
0.00000 0.86436 0.07824
0.00000 0.86594 0.07656
0.00000 0.86777 0.07397
0.00000 0.86964 0.07070
0.00000 0.87182 0.06708
0.00000 0.87425 0.06438
0.00000 0.87696 0.06294
0.00000 0.87943 0.05779
0.00000 0.88179 0.04051
0.22766 0.88429 0.00222
0.35258 0.88675 0.00000
0.44635 0.88941 0.00000
0.52418 0.89211 0.00000
0.59025 0.89452 0.00000
0.64873 0.89679 0.00000
0.69910 0.89862 0.00000
0.74441 0.89938 0.00000
0.78638 0.89940 0.00000
0.82384 0.89916 0.07218
0.85782 0.89866 0.15581
0.88750 0.89803 0.19566
0.91135 0.89707 0.21429
0.92550 0.89476 0.22235
0.93031 0.88908 0.23753
0.93296 0.88204 0.25218
0.93555 0.87592 0.26061
0.00000 0.87673 0.09165
0.00000 0.87709 0.09169
0.00000 0.87748 0.09172
0.00000 0.87808 0.09163
0.00000 0.87884 0.09137
0.00000 0.87980 0.09075
0.00000 0.88103 0.08954
0.00000 0.88252 0.08752
0.00000 0.88422 0.08454
0.00000 0.88607 0.08061
0.00000 0.88816 0.07605
0.00000 0.89063 0.07191
0.00000 0.89331 0.07013
0.00000 0.89596 0.06957
0.00000 0.89869 0.06121
0.12829 0.90109 0.04029
0.29710 0.90370 0.00000
0.40981 0.90612 0.00000
0.49668 0.90878 0.00000
0.56817 0.91091 0.00000
0.63102 0.91346 0.00000
0.68272 0.91592 0.00000
0.72936 0.91749 0.00000
0.77227 0.91849 0.00000
0.81071 0.91863 0.09993
0.84614 0.91852 0.17865
0.87782 0.91851 0.22260
0.90332 0.91698 0.22245
0.91956 0.91477 0.22715
0.92362 0.91013 0.24451
0.92681 0.90349 0.25935
0.92964 0.89658 0.27406
0.00000 0.89253 0.10776
0.00000 0.89285 0.10783
0.00000 0.89324 0.10786
0.00000 0.89381 0.10785
0.00000 0.89457 0.10772
0.00000 0.89555 0.10735
0.00000 0.89674 0.10666
0.00000 0.89810 0.10553
0.00000 0.89960 0.10390
0.00000 0.90132 0.10172
0.00000 0.90341 0.09908
0.00000 0.90570 0.09665
0.00000 0.90831 0.09517
0.00000 0.91075 0.09521
0.00000 0.91337 0.09332
0.11571 0.91587 0.08662
0.29277 0.91815 0.07370
0.40342 0.92043 0.04797
0.48806 0.92338 0.01011
0.55756 0.92582 0.00000
0.61920 0.92831 0.00000
0.67049 0.93076 0.00838
0.71724 0.93243 0.07113
0.75996 0.93341 0.13260
0.79717 0.93424 0.18355
0.83120 0.93458 0.22068
0.86010 0.93417 0.24204
0.88272 0.93267 0.25256
0.89786 0.92984 0.26361
0.90765 0.92536 0.27533
0.91481 0.91962 0.28768
0.92010 0.91335 0.30970
0.00000 0.90759 0.13333
0.00000 0.90791 0.13364
0.00000 0.90828 0.13397
0.00000 0.90880 0.13441
