fuji-film/cube-lut/pro-neg-hi.cube
LUT_3D_SIZE 5
DOMAIN_MIN 0.000000 0.000000 0.000000
DOMAIN_MAX 0.903226 0.903226 0.903226
0.00000 0.00000 0.00000
0.16344 0.01076 0.00000
0.59742 0.00000 0.00000
0.87287 0.00000 0.07906
0.95825 0.00000 0.00000
0.00000 0.15395 0.00000
0.17962 0.17979 0.00000
0.63547 0.18175 0.00000
0.90195 0.13538 0.00000
0.97029 0.08276 0.00000
0.00000 0.54717 0.00000
0.00000 0.55748 0.00000
0.57419 0.57550 0.00000
0.92845 0.55420 0.00000
1.00000 0.48016 0.00000
0.00000 0.80597 0.00000
0.00000 0.81279 0.00000
0.31451 0.82701 0.00000
0.83620 0.83268 0.00000
0.98881 0.80947 0.00000
0.00000 0.95050 0.00000
0.00000 0.95452 0.00000
0.15143 0.96549 0.00000
0.69744 0.98645 0.00000
0.89696 0.99258 0.05841
0.00789 0.00506 0.17898
0.23350 0.03338 0.25451
0.62100 0.08342 0.32981
0.88035 0.00000 0.41494
0.95963 0.00000 0.17319
0.00000 0.20404 0.19093
0.22852 0.22853 0.22868
0.63434 0.28014 0.32075
0.91120 0.20365 0.31763
0.97159 0.15089 0.00000
0.00000 0.56500 0.15881
0.00000 0.57441 0.17817
0.58992 0.59700 0.24563
0.93018 0.58933 0.21132
1.00000 0.50142 0.00000
0.00000 0.81669 0.12095
0.00000 0.82322 0.11411
0.34186 0.83645 0.11426
0.84664 0.84278 0.17184
0.99455 0.82423 0.00000
0.00000 0.95736 0.18363
0.00000 0.96125 0.17336
0.14802 0.97265 0.17348
0.71008 0.99656 0.25370
0.90158 1.00000 0.28940
0.00000 0.00000 0.64911
0.26211 0.00000 0.71279
0.64727 0.03218 0.77918
0.88965 0.09260 0.80816
0.95267 0.22113 0.69478
0.05883 0.27242 0.65707
0.34693 0.32106 0.67382
0.66282 0.36299 0.70217
0.90796 0.38373 0.75559
0.96933 0.34852 0.73215
0.00000 0.59591 0.57684
0.15908 0.60160 0.58746
0.61654 0.61652 0.61619
0.90230 0.63319 0.65868
1.00000 0.65557 0.67870
0.00000 0.82985 0.51854
0.00000 0.83387 0.52502
0.47031 0.84225 0.54856
0.85165 0.85308 0.59399
0.99329 0.85757 0.63792
0.00000 0.97382 0.50644
0.00000 0.97771 0.50911
0.31901 0.99173 0.52192
0.73659 1.00000 0.55609
0.90777 1.00000 0.58327
0.16756 0.00000 0.88748
0.33330 0.00000 0.93584
0.63466 0.00000 0.96413
0.89277 0.08696 0.97534
0.95521 0.32167 0.96585
0.18776 0.26952 0.95796
0.37846 0.28999 0.96026
0.67520 0.33367 0.96354
0.91677 0.41750 0.96769
0.97652 0.45173 0.96007
0.21991 0.64264 0.90053
0.41515 0.65781 0.90710
0.68239 0.66722 0.92024
0.91573 0.69785 0.93583
1.00000 0.71444 0.91734
0.00000 0.85056 0.82896
0.00000 0.85442 0.83493
0.57023 0.85707 0.84986
0.86714 0.86719 0.86675
1.00000 0.86866 0.87970
0.00000 0.99889 0.77725
0.00000 1.00000 0.78127
0.49824 1.00000 0.79283
0.76515 1.00000 0.81269
0.92620 1.00000 0.82826
0.27941 0.09383 0.94615
0.40581 0.10380 0.95926
0.64613 0.11349 0.96102
0.87212 0.00268 0.96460
0.94618 0.35863 0.96979
0.32158 0.29371 0.95829
0.44135 0.29690 0.96184
0.67812 0.31881 0.96368
0.89425 0.36263 0.96953
0.96159 0.48916 0.97308
0.41443 0.67210 0.97050
0.57156 0.70667 0.97403
0.76437 0.71983 0.97710
0.92624 0.74302 0.98349
0.98939 0.75473 0.98767
0.34598 0.86195 0.98198
0.47421 0.86291 0.98336
0.69186 0.86810 0.98849
0.88465 0.89113 1.00000
1.00000 0.89032 1.00000
0.39228 0.99177 0.94804
0.47218 0.99512 0.95097
0.63656 1.00000 0.96070
0.81497 1.00000 0.97793
0.99102 0.99117 0.99114
