fuji-film/cube-lut/pro-neg-std.cube
LUT_3D_SIZE 32
0.00000 0.00000 0.00000
0.01336 0.00000 0.00104
0.02643 0.00091 0.00185
0.04224 0.00227 0.00139
0.06164 0.00240 0.00000
0.09108 0.00514 0.00000
0.13833 0.00904 0.00000
0.18708 0.01597 0.00000
0.24214 0.01817 0.00000
0.29968 0.02426 0.00042
0.35758 0.03074 0.00885
0.41627 0.03080 0.01450
0.47201 0.03037 0.01141
0.52425 0.02118 0.00000
0.57509 0.00714 0.00000
0.62678 0.00000 0.00707
0.67084 0.00000 0.02300
0.71086 0.00000 0.02054
0.74677 0.00000 0.00000
0.78015 0.00000 0.00000
0.81044 0.00000 0.00000
0.83742 0.00000 0.00000
0.86163 0.00000 0.00000
0.88247 0.00000 0.00000
0.89851 0.00000 0.00000
0.90911 0.00000 0.00000
0.91589 0.07506 0.00000
0.92037 0.12657 0.00000
0.92303 0.15242 0.00000
0.92554 0.16404 0.00000
0.92907 0.16588 0.00000
0.93491 0.17793 0.00000
0.00000 0.01547 0.00000
0.01364 0.01598 0.00077
0.02795 0.01625 0.00109
0.04558 0.01684 0.00095
0.06541 0.01711 0.00000
0.09544 0.02196 0.00000
0.14253 0.02483 0.00000
0.19097 0.03209 0.00000
0.24631 0.03245 0.00000
0.30303 0.03786 0.00000
0.36010 0.04337 0.00446
0.41760 0.04561 0.00972
0.47459 0.04643 0.00547
0.52741 0.04043 0.00000
0.57871 0.02658 0.00000
0.62872 0.00000 0.00000
0.67241 0.00000 0.00211
0.71242 0.00000 0.00000
0.74818 0.00000 0.00000
0.78149 0.00000 0.00000
0.81162 0.00000 0.00000
0.83857 0.00000 0.00000
0.86265 0.00000 0.00000
0.88351 0.00000 0.00000
0.89929 0.00000 0.00000
0.90963 0.00000 0.00000
0.91623 0.08703 0.00000
0.92051 0.13334 0.00000
0.92305 0.15815 0.00000
0.92553 0.16917 0.00000
0.92910 0.17112 0.00000
0.93512 0.18117 0.00000
0.00000 0.02924 0.00000
0.00996 0.03141 0.00000
0.02889 0.03312 0.00055
0.04872 0.03405 0.00032
0.07145 0.03441 0.00000
0.10220 0.03813 0.00000
0.14807 0.04364 0.00000
0.19617 0.04677 0.00000
0.25106 0.04871 0.00000
0.30720 0.05160 0.00000
0.36337 0.05539 0.00052
0.41943 0.05910 0.00457
0.47768 0.05885 0.00059
0.53173 0.05783 0.00000
0.58353 0.04626 0.00000
0.63093 0.01127 0.00000
0.67429 0.00000 0.00000
0.71421 0.00000 0.00000
0.74977 0.00000 0.00000
0.78304 0.00000 0.00000
0.81295 0.00000 0.00000
0.83985 0.00000 0.00000
0.86382 0.00000 0.00000
0.88470 0.00000 0.00000
0.90018 0.00000 0.00000
0.91021 0.00000 0.00000
0.91662 0.09879 0.00000
0.92063 0.14178 0.00000
0.92306 0.16436 0.00000
0.92550 0.17478 0.00000
0.92917 0.17596 0.00000
0.93539 0.18448 0.00000
0.00000 0.04515 0.00000
0.00424 0.04645 0.00000
0.02651 0.04895 0.00286
0.04634 0.05283 0.00344
0.07289 0.05612 0.00000
0.10719 0.06064 0.00000
0.15162 0.06311 0.00000
0.20181 0.06828 0.00000
0.25637 0.06883 0.00000
0.31283 0.07013 0.00000
0.36866 0.07201 0.00000
0.42244 0.07708 0.00000
0.48401 0.07473 0.00000
0.53814 0.07591 0.00000
0.58945 0.06838 0.00000
0.63402 0.04603 0.00000
0.67692 0.01511 0.00000
0.71666 0.00000 0.00000
0.75205 0.00000 0.00000
0.78522 0.00000 0.00000
0.81484 0.00000 0.00000
0.84166 0.00000 0.00000
0.86549 0.00000 0.00000
0.88638 0.00000 0.00000
0.90149 0.00000 0.00000
0.91103 0.03278 0.00000
0.91716 0.11348 0.00000
0.92077 0.15284 0.00000
0.92307 0.17287 0.00000
0.92553 0.18120 0.00000
0.92930 0.18222 0.00000
0.93579 0.18921 0.00000
0.00000 0.06942 0.00000
0.00000 0.06902 0.00211
0.01881 0.07055 0.00675
0.04462 0.07452 0.00659
0.07231 0.07956 0.00522
0.10930 0.08548 0.00146
0.15493 0.09283 0.00000
0.20497 0.09529 0.00000
0.26097 0.09661 0.00000
0.31927 0.09604 0.00000
0.37585 0.09755 0.00000
0.43034 0.09838 0.00000
0.49432 0.09572 0.00000
0.54487 0.09780 0.00000
0.59587 0.09221 0.00000
0.63806 0.08114 0.00000
0.68021 0.06596 0.00000
0.71973 0.05682 0.00000
0.75494 0.04866 0.00000
0.78805 0.02398 0.00000
0.81731 0.00000 0.00000
0.84408 0.00000 0.00000
0.86776 0.00000 0.00000
0.88854 0.00000 0.00000
0.90314 0.00000 0.00000
0.91213 0.07452 0.00000
0.91785 0.13029 0.00000
0.92095 0.16607 0.00000
0.92312 0.18230 0.00000
0.92559 0.18875 0.00000
0.92956 0.18896 0.00000
0.93635 0.19553 0.00000
0.00000 0.10267 0.00000
0.00000 0.10206 0.00343
0.00540 0.10246 0.00993
0.03803 0.10860 0.01099
0.06742 0.11308 0.00988
0.10766 0.11926 0.00952
0.15743 0.12637 0.00646
0.20919 0.13258 0.00159
0.26514 0.13335 0.00000
0.32478 0.13192 0.00000
0.38350 0.13076 0.00000
0.44013 0.12989 0.00000
0.49898 0.12814 0.00000
0.55248 0.12594 0.00000
0.60162 0.12215 0.00000
0.64280 0.11563 0.00000
0.68423 0.10793 0.00000
0.72346 0.10403 0.00000
0.75860 0.09872 0.00000
0.79133 0.08451 0.00000
0.82043 0.05870 0.00000
0.84716 0.01939 0.00000
0.87069 0.00000 0.00000
0.89112 0.00029 0.00000
0.90514 0.05060 0.00000
0.91360 0.10782 0.00000
0.91855 0.15294 0.00000
0.92121 0.18077 0.00000
0.92328 0.19201 0.00000
0.92584 0.19530 0.00000
0.93005 0.19527 0.00000
0.93684 0.20893 0.00000
0.00000 0.14452 0.00000
0.00000 0.14423 0.00000
0.00000 0.14414 0.00754
0.01557 0.14740 0.01539
0.05650 0.15265 0.01627
0.09861 0.15794 0.01646
0.15024 0.16313 0.01367
0.20906 0.17211 0.01048
0.26942 0.17754 0.00460
0.32873 0.17648 0.00000
0.39050 0.17296 0.00000
0.44682 0.17069 0.00000
0.50149 0.16927 0.00000
0.55648 0.16475 0.00000
0.60553 0.15926 0.00000
0.64803 0.15430 0.00000
0.68898 0.14902 0.00000
0.72788 0.14471 0.00000
0.76290 0.13923 0.00000
0.79519 0.12919 0.00000
0.82408 0.11414 0.00000
0.85085 0.09615 0.00000
0.87418 0.08468 0.00000
0.89424 0.08504 0.00000
0.90769 0.10523 0.00000
0.91544 0.14089 0.00000
0.91944 0.17701 0.00000
0.92182 0.19329 0.00000
0.92379 0.19923 0.00000
0.92629 0.20218 0.00000
0.93076 0.20304 0.00000
0.93739 0.22727 0.00000
0.00000 0.19282 0.00000
0.00000 0.19275 0.00000
0.00000 0.19282 0.00117
0.00000 0.19341 0.01462
0.02650 0.19845 0.01667
0.08414 0.20279 0.01581
0.13778 0.20786 0.01537
0.19898 0.21445 0.01285
0.26435 0.22121 0.00754
0.32787 0.22585 0.00551
0.39406 0.22408 0.00368
0.44910 0.22313 0.00000
0.50095 0.21810 0.00000
0.55574 0.21214 0.00000
0.60720 0.20444 0.00000
0.65245 0.19807 0.00000
0.69396 0.19295 0.00000
0.73254 0.18831 0.00000
0.76750 0.18271 0.00000
0.79963 0.17356 0.00000
0.82829 0.16201 0.00000
0.85520 0.15002 0.00000
0.87880 0.14132 0.00000
0.89815 0.13892 0.00000
0.91080 0.15314 0.00000
0.91765 0.17806 0.00000
0.92118 0.19463 0.00000
0.92306 0.20300 0.00000
0.92466 0.20793 0.00000
0.92698 0.21244 0.00000
0.93148 0.21932 0.00000
0.93831 0.24599 0.00000
0.00000 0.24521 0.00000
0.00000 0.24561 0.00000
0.00000 0.24620 0.00000
0.00000 0.24741 0.00000
0.00000 0.24963 0.00130
0.04082 0.25361 0.00269
0.11687 0.25816 0.00483
0.18348 0.26287 0.00446
0.25199 0.26849 0.00010
0.31936 0.27332 0.00000
0.38725 0.27705 0.00000
0.44256 0.27656 0.00000
0.49754 0.27298 0.00000
0.55175 0.26658 0.00000
0.60727 0.25815 0.00000
0.65461 0.25032 0.00000
0.69782 0.24334 0.00000
0.73652 0.23747 0.00000
0.77203 0.23075 0.00000
0.80414 0.22264 0.00000
0.83308 0.21411 0.00000
0.85978 0.20637 0.00000
0.88396 0.19893 0.00000
0.90230 0.19460 0.00000
0.91518 0.19433 0.00000
0.92153 0.20093 0.00000
0.92397 0.21152 0.00000
0.92478 0.22131 0.00000
0.92576 0.22729 0.00000
0.92787 0.23208 0.00000
0.93249 0.24092 0.00000
0.93976 0.26656 0.00000
0.00000 0.29900 0.00000
0.00000 0.29956 0.00000
0.00000 0.30025 0.00000
0.00000 0.30146 0.00000
0.00000 0.30353 0.00000
0.00000 0.30670 0.00000
0.07384 0.31044 0.00000
0.15933 0.31375 0.00000
0.23187 0.31703 0.00000
0.30075 0.32126 0.00000
0.37344 0.32809 0.00000
0.43215 0.33033 0.00000
0.49031 0.32666 0.00000
0.54897 0.32101 0.00000
0.60555 0.31299 0.00000
0.65446 0.30460 0.00000
0.69951 0.29628 0.00000
0.73913 0.28796 0.00000
0.77620 0.27854 0.00000
0.80874 0.26869 0.00000
0.83848 0.25909 0.00000
0.86549 0.25143 0.00000
0.88960 0.24417 0.00000
0.90795 0.23829 0.00000
0.92091 0.23649 0.00000
0.92610 0.24077 0.00000
0.92739 0.24614 0.00000
0.92742 0.24986 0.00000
0.92786 0.25215 0.00000
0.92971 0.25453 0.00000
0.93420 0.26239 0.00000
0.94101 0.29938 0.00000
0.00000 0.35550 0.00000
0.00000 0.35612 0.00000
0.00000 0.35683 0.00000
0.00000 0.35792 0.00000
0.00000 0.35873 0.00000
0.00000 0.35956 0.00000
0.00471 0.36057 0.00000
0.13006 0.36210 0.00000
0.20816 0.36602 0.00000
0.28048 0.37150 0.00000
0.35538 0.37516 0.00000
0.41886 0.37806 0.00000
0.48201 0.38043 0.00000
0.54130 0.38132 0.00000
0.59907 0.37805 0.00000
0.64980 0.37236 0.00000
0.69644 0.36389 0.00000
0.73802 0.35489 0.00000
0.77676 0.34470 0.00000
0.81062 0.33364 0.00000
0.84168 0.32284 0.00000
0.86987 0.31390 0.00000
0.89381 0.30518 0.00000
0.91393 0.29533 0.00000
0.92665 0.28797 0.00000
0.93126 0.28495 0.00000
0.93194 0.28370 0.00000
0.93142 0.28263 0.00000
0.93131 0.28164 0.00000
0.93255 0.28246 0.00000
0.93619 0.29627 0.00000
0.94425 0.31673 0.00000
0.00000 0.40276 0.00000
0.00000 0.40342 0.00000
0.00000 0.40420 0.00000
0.00000 0.40532 0.00000
0.00000 0.40684 0.00000
0.00000 0.40911 0.00000
0.00000 0.41210 0.00000
0.06081 0.41782 0.00000
0.16923 0.42280 0.00000
0.25256 0.42374 0.00000
0.33443 0.42390 0.00000
0.40218 0.42775 0.00000
0.46661 0.43237 0.00000
0.52832 0.43483 0.00000
0.58974 0.43244 0.00000
0.64303 0.42795 0.00000
0.69187 0.42098 0.00000
0.73567 0.41242 0.00000
0.77607 0.40292 0.00000
0.81112 0.39274 0.00000
0.84294 0.38240 0.00000
0.87244 0.37243 0.00000
0.89736 0.36227 0.00000
0.91916 0.34916 0.00000
0.93299 0.33676 0.00000
0.93794 0.32896 0.00000
0.93823 0.32283 0.00000
0.93691 0.31916 0.00000
0.93583 0.31722 0.00000
0.93644 0.31634 0.00000
0.94045 0.32085 0.00000
0.94633 0.35802 0.00000
0.00000 0.45082 0.00000
0.00000 0.45165 0.00000
0.00000 0.45267 0.00000
0.00000 0.45410 0.00000
0.00000 0.45661 0.00000
0.00000 0.46019 0.00000
0.00000 0.46422 0.00000
0.00000 0.46757 0.00000
0.12061 0.47066 0.00000
0.22069 0.47378 0.00000
0.31020 0.47483 0.00000
0.38129 0.47597 0.00000
0.44648 0.48216 0.00000
0.51010 0.48572 0.00000
0.57595 0.48632 0.00000
0.63228 0.48402 0.00000
0.68368 0.47937 0.00000
0.72958 0.47280 0.00000
0.77193 0.46443 0.00000
0.80869 0.45523 0.00000
0.84147 0.44561 0.00000
0.87187 0.43586 0.00000
0.89912 0.42470 0.00000
0.92199 0.41221 0.00000
0.93786 0.39508 0.00000
0.94364 0.38503 0.00000
0.94392 0.37908 0.00000
0.94240 0.37371 0.00000
0.94107 0.36730 0.00000
0.94115 0.36345 0.00000
0.94404 0.36911 0.00000
0.95019 0.38809 0.00000
0.00000 0.50019 0.00000
0.00000 0.50163 0.00000
0.00000 0.50348 0.00000
0.00000 0.50609 0.00000
0.00000 0.50922 0.00000
0.00000 0.51186 0.00000
0.00000 0.51498 0.00000
0.00000 0.51793 0.00000
0.01581 0.51985 0.00000
0.17861 0.52169 0.00000
0.27767 0.52318 0.00000
0.35213 0.52645 0.00000
0.42178 0.52947 0.00000
0.49051 0.53159 0.00000
0.55926 0.53285 0.00000
0.61880 0.53373 0.00000
0.67301 0.53289 0.00000
0.72096 0.52924 0.00000
0.76488 0.52249 0.00000
0.80364 0.51402 0.00000
0.83826 0.50439 0.00000
0.86934 0.49453 0.00000
0.89845 0.48403 0.00000
0.92292 0.47259 0.00000
0.93991 0.46061 0.00000
0.94728 0.44825 0.00000
0.94880 0.43693 0.00000
0.94778 0.42866 0.00000
0.94641 0.42048 0.00000
0.94635 0.41261 0.00000
0.94825 0.41653 0.00000
0.95260 0.43584 0.00000
0.00000 0.55082 0.00000
0.00000 0.55162 0.00000
0.00000 0.55254 0.00000
0.00000 0.55385 0.00000
0.00000 0.55552 0.00000
0.00000 0.55760 0.00000
0.00000 0.56009 0.00000
0.00000 0.56280 0.00000
0.00000 0.56543 0.00000
0.11758 0.56800 0.00000
0.23659 0.57039 0.00000
0.31827 0.57321 0.00000
0.39408 0.57584 0.00000
0.46844 0.57804 0.00000
0.53870 0.57995 0.00000
0.60117 0.58201 0.00000
0.65852 0.58318 0.00000
0.70931 0.58180 0.00000
0.75512 0.57773 0.00000
0.79558 0.57159 0.00000
0.83214 0.56393 0.00000
0.86419 0.55538 0.00000
0.89474 0.54547 0.00000
0.92082 0.53453 0.00000
0.94007 0.52221 0.00000
0.95000 0.50908 0.00000
0.95296 0.49627 0.00000
0.95269 0.48413 0.00000
0.95143 0.47289 0.00000
0.95111 0.46435 0.00000
0.95238 0.46437 0.00000
0.95581 0.48108 0.00000
0.00000 0.59612 0.00000
0.00000 0.59689 0.00000
0.00000 0.59775 0.00000
0.00000 0.59902 0.00000
0.00000 0.60069 0.00000
0.00000 0.60276 0.00000
0.00000 0.60525 0.00000
0.00000 0.60805 0.00000
0.00000 0.61095 0.00000
0.00000 0.61383 0.00000
0.18068 0.61623 0.00000
0.27743 0.61892 0.00000
0.36281 0.62145 0.00000
0.44261 0.62351 0.00000
0.51522 0.62518 0.00000
0.58065 0.62667 0.00000
0.64037 0.62803 0.00000
0.69409 0.62850 0.00000
0.74294 0.62713 0.00000
0.78552 0.62379 0.00000
0.82388 0.61857 0.00000
0.85750 0.61180 0.00000
0.88909 0.60339 0.00000
0.91616 0.59384 0.00000
0.93796 0.58246 0.00000
0.95056 0.56941 0.00000
0.95573 0.55602 0.00000
0.95648 0.54341 0.00000
0.95576 0.53075 0.00000
0.95536 0.52033 0.00000
0.95617 0.51741 0.00000
0.95867 0.52931 0.00000
0.00000 0.63955 0.00000
0.00000 0.64029 0.00000
0.00000 0.64111 0.00000
0.00000 0.64229 0.00000
0.00000 0.64384 0.00000
0.00000 0.64581 0.00000
0.00000 0.64814 0.00000
0.00000 0.65073 0.00000
0.00000 0.65351 0.00000
0.00000 0.65643 0.00000
0.08109 0.65924 0.00000
0.22346 0.66234 0.00000
0.32601 0.66504 0.00000
0.41165 0.66740 0.00000
0.48814 0.66896 0.00000
0.55662 0.67032 0.00000
0.61916 0.67130 0.00000
0.67517 0.67211 0.00000
0.72754 0.67218 0.00000
0.77326 0.67118 0.00000
0.81412 0.66875 0.00000
0.84954 0.66459 0.00000
0.88186 0.65836 0.00000
0.90952 0.65043 0.00000
0.93307 0.64047 0.00000
0.94862 0.62858 0.00000
0.95646 0.61538 0.00000
0.95897 0.60159 0.00000
0.95876 0.58823 0.00000
0.95847 0.57718 0.00000
0.95901 0.57198 0.00000
0.96102 0.57866 0.00000
0.00000 0.68092 0.00000
0.00000 0.68169 0.00000
0.00000 0.68255 0.00000
0.00000 0.68380 0.00000
0.00000 0.68535 0.00000
0.00000 0.68721 0.00000
0.00000 0.68946 0.00000
0.00000 0.69209 0.00000
0.00000 0.69491 0.00000
0.00000 0.69776 0.00000
0.00000 0.70050 0.00000
0.13164 0.70331 0.00000
0.28158 0.70541 0.00000
0.37363 0.70783 0.00000
0.45756 0.70960 0.00000
0.52942 0.71084 0.00000
0.59599 0.71153 0.00000
0.65454 0.71206 0.00000
0.70986 0.71255 0.00000
0.75900 0.71329 0.00000
0.80308 0.71332 0.00000
0.84078 0.71189 0.00000
0.87390 0.70771 0.00000
0.90220 0.70102 0.00000
0.92705 0.69257 0.00000
0.94485 0.68269 0.00000
0.95516 0.67112 0.00000
0.95951 0.65825 0.00000
0.96022 0.64530 0.00000
0.96016 0.63399 0.00000
0.96071 0.62713 0.00000
0.96239 0.62973 0.00000
0.00000 0.71925 0.00000
0.00000 0.71990 0.00000
0.00000 0.72067 0.00000
0.00000 0.72177 0.00000
0.00000 0.72328 0.00000
0.00000 0.72518 0.00000
0.00000 0.72742 0.00000
0.00000 0.72997 0.00000
0.00000 0.73276 0.00000
0.00000 0.73572 0.00000
0.00000 0.73848 0.00000
0.00000 0.74119 0.00000
0.20899 0.74339 0.00000
0.32751 0.74561 0.00000
0.42167 0.74769 0.00000
0.49761 0.74896 0.00000
0.56940 0.74913 0.00000
0.63247 0.74924 0.00000
0.69083 0.74942 0.00000
0.74269 0.75057 0.00000
0.78980 0.75228 0.00000
0.83014 0.75290 0.00000
0.86479 0.75068 0.00000
0.89406 0.74585 0.00000
0.91991 0.73909 0.00000
0.93976 0.73076 0.00000
0.95233 0.72134 0.00000
0.95844 0.71073 0.00000
0.96034 0.69870 0.00000
0.96092 0.68712 0.00000
0.96163 0.67936 0.00000
0.96303 0.67866 0.00000
0.00000 0.75455 0.00000
0.00000 0.75516 0.00000
0.00000 0.75586 0.00000
0.00000 0.75690 0.00000
0.00000 0.75826 0.00000
0.00000 0.76001 0.00000
0.00000 0.76230 0.00000
0.00000 0.76496 0.00000
0.00000 0.76762 0.00000
0.00000 0.77027 0.00000
0.00000 0.77293 0.00000
0.00000 0.77544 0.00000
0.08356 0.77769 0.00000
0.26060 0.78019 0.00000
0.37387 0.78222 0.00000
0.46163 0.78367 0.00000
0.53909 0.78393 0.00000
0.60796 0.78379 0.00000
0.66987 0.78395 0.00000
0.72429 0.78484 0.00000
0.77342 0.78611 0.00000
0.81611 0.78692 0.00000
0.85345 0.78606 0.00000
0.88444 0.78334 0.00000
0.91187 0.77905 0.00000
0.93369 0.77344 0.00000
0.94814 0.76614 0.00000
0.95615 0.75722 0.00000
0.95918 0.74698 0.00000
0.96027 0.73665 0.00000
0.96145 0.72803 0.00000
0.96271 0.72450 0.00000
0.00000 0.78642 0.00000
0.00000 0.78684 0.00000
0.00000 0.78741 0.00000
0.00000 0.78833 0.00000
0.00000 0.78961 0.00000
0.00000 0.79123 0.00000
0.00000 0.79329 0.00000
0.00000 0.79571 0.00000
0.00000 0.79847 0.00000
0.00000 0.80126 0.00000
0.00000 0.80397 0.00000
0.00000 0.80664 0.00000
0.00000 0.80949 0.00000
0.17357 0.81204 0.00000
0.31529 0.81403 0.00000
0.42185 0.81520 0.00000
0.50620 0.81563 0.00000
0.58069 0.81535 0.00000
0.64720 0.81487 0.00000
0.70426 0.81496 0.00000
0.75473 0.81547 0.00000
0.79906 0.81608 0.00000
0.83899 0.81621 0.00000
0.87225 0.81549 0.00000
0.90203 0.81328 0.00000
0.92595 0.80953 0.00000
0.94271 0.80408 0.00000
0.95333 0.79715 0.00000
0.95803 0.78881 0.00000
0.95992 0.78004 0.00000
0.96102 0.77264 0.00000
0.96222 0.76716 0.00000
0.00000 0.81592 0.00000
0.00000 0.81635 0.00000
0.00000 0.81684 0.00000
0.00000 0.81769 0.00000
0.00000 0.81886 0.00000
0.00000 0.82033 0.00000
0.00000 0.82206 0.00000
0.00000 0.82409 0.00000
0.00000 0.82640 0.00000
0.00000 0.82890 0.00000
0.00000 0.83149 0.00000
0.00000 0.83403 0.00000
0.00000 0.83679 0.00000
0.03044 0.83952 0.00000
0.26421 0.84190 0.00000
0.37871 0.84388 0.00000
0.47088 0.84516 0.00000
0.55061 0.84533 0.00000
0.62065 0.84473 0.00000
0.68204 0.84386 0.00000
0.73502 0.84334 0.00000
0.78103 0.84335 0.00000
0.82256 0.84354 0.00000
0.85806 0.84371 0.00000
0.88994 0.84296 0.00000
0.91616 0.84095 0.00000
0.93578 0.83770 0.00000
0.94930 0.83292 0.00000
0.95607 0.82664 0.00000
0.95894 0.81926 0.00000
0.96058 0.81144 0.00000
0.96168 0.80501 0.00000
0.00000 0.84199 0.00000
0.00000 0.84234 0.00000
0.00000 0.84275 0.00000
0.00000 0.84343 0.00000
0.00000 0.84443 0.00000
0.00000 0.84579 0.00000
0.00000 0.84746 0.00000
0.00000 0.84943 0.00000
0.00000 0.85166 0.00000
0.00000 0.85402 0.00000
0.00000 0.85663 0.00000
0.00000 0.85937 0.00000
0.00000 0.86218 0.00000
0.00000 0.86473 0.00000
0.19304 0.86751 0.00000
0.33469 0.86998 0.00000
0.43223 0.87200 0.00000
0.51853 0.87257 0.00000
0.59203 0.87225 0.00000
0.65811 0.87112 0.00000
0.71434 0.86999 0.00000
0.76299 0.86933 0.00000
0.80574 0.86922 0.00000
0.84285 0.86961 0.00000
0.87608 0.86978 0.00000
0.90487 0.86926 0.00000
0.92746 0.86782 0.00000
0.94399 0.86495 0.00000
0.95363 0.86058 0.00000
0.95831 0.85440 0.00000
0.96022 0.84692 0.00000
0.96147 0.83934 0.00000
0.00000 0.86659 0.00000
0.00000 0.86693 0.00000
0.00000 0.86731 0.00000
0.00000 0.86790 0.00000
0.00000 0.86887 0.00000
0.00000 0.87012 0.00000
0.00000 0.87164 0.00000
0.00000 0.87342 0.00000
0.00000 0.87547 0.00000
0.00000 0.87770 0.00000
0.00000 0.88019 0.00000
0.00000 0.88280 0.00000
0.00000 0.88561 0.00000
0.00000 0.88812 0.00000
0.04511 0.89116 0.00000
0.27819 0.89392 0.00000
0.38968 0.89643 0.00000
0.48260 0.89794 0.00000
0.56163 0.89820 0.00000
0.63233 0.89704 0.00000
0.69229 0.89540 0.00000
0.74405 0.89397 0.00000
0.78881 0.89327 0.00000
0.82746 0.89324 0.00000
0.86181 0.89372 0.00000
0.89259 0.89424 0.00000
0.91768 0.89433 0.00000
0.93725 0.89317 0.00000
0.94977 0.89040 0.00000
0.95639 0.88582 0.00000
0.95899 0.87908 0.00000
0.96022 0.87188 0.00000
0.00000 0.88910 0.00000
0.00000 0.88942 0.00000
0.00000 0.88979 0.00000
0.00000 0.89037 0.00000
0.00000 0.89126 0.00000
0.00000 0.89237 0.00000
0.00000 0.89369 0.00000
0.00000 0.89524 0.00000
0.00000 0.89731 0.00000
0.00000 0.89963 0.00000
0.00000 0.90216 0.00000
0.00000 0.90485 0.00000
0.00000 0.90779 0.00000
0.00000 0.91065 0.00000
0.00000 0.91346 0.00000
0.18392 0.91561 0.00000
0.34324 0.91737 0.00000
0.44565 0.91903 0.00000
0.53066 0.91992 0.00000
0.60483 0.91982 0.00000
0.66823 0.91885 0.00000
0.72353 0.91772 0.00000
0.77023 0.91704 0.00000
0.81091 0.91713 0.00000
0.84647 0.91779 0.00000
0.87849 0.91903 0.00000
0.90531 0.91990 0.00000
0.92709 0.91992 0.00000
0.94205 0.91856 0.00000
0.95029 0.91512 0.00000
0.95406 0.90928 0.00000
0.95588 0.90222 0.00000
0.00000 0.90938 0.00000
0.00000 0.90968 0.00000
0.00000 0.91002 0.00000
0.00000 0.91064 0.00000
0.00000 0.91152 0.00000
0.00000 0.91264 0.00000
0.00000 0.91400 0.00000
0.00000 0.91559 0.00000
0.00000 0.91742 0.00000
0.00000 0.91945 0.00000
0.00000 0.92160 0.00000
0.00000 0.92376 0.00000
0.00000 0.92605 0.00000
0.00000 0.92847 0.00000
0.00000 0.93101 0.00000
0.05793 0.93323 0.00000
0.28995 0.93535 0.00000
0.40734 0.93721 0.00000
0.49890 0.93867 0.00000
0.57677 0.93952 0.00000
0.64343 0.93946 0.00000
0.70133 0.93902 0.00000
0.75107 0.93871 0.00000
0.79420 0.93886 0.00000
0.82995 0.94037 0.00000
0.86253 0.94162 0.00000
0.89040 0.94233 0.00000
0.91287 0.94280 0.00000
0.92930 0.94209 0.00000
0.93926 0.93955 0.00000
0.94422 0.93523 0.00000
0.94737 0.92851 0.00000
0.00000 0.92693 0.00000
0.00000 0.92722 0.00000
0.00000 0.92758 0.00000
0.00000 0.92807 0.00000
0.00000 0.92873 0.00000
0.00000 0.92955 0.00000
0.00000 0.93063 0.00000
0.00000 0.93189 0.00000
0.00000 0.93333 0.00000
0.00000 0.93499 0.00000
0.00000 0.93686 0.00000
0.00000 0.93884 0.00000
0.00000 0.94100 0.00000
0.00000 0.94322 0.00000
0.00000 0.94538 0.00000
0.00000 0.94741 0.00000
0.24832 0.94958 0.00000
0.37779 0.95179 0.00000
0.47425 0.95362 0.00000
0.55330 0.95510 0.00000
0.62170 0.95655 0.00000
0.68109 0.95693 0.00000
0.73157 0.95770 0.00000
0.77546 0.95944 0.00000
0.81159 0.96096 0.00000
0.84416 0.96184 0.00000
0.87135 0.96295 0.00000
0.89302 0.96370 0.00000
0.91012 0.96299 0.00000
0.92200 0.96024 0.00000
0.92965 0.95550 0.00000
0.93512 0.94969 0.00000
0.00000 0.94232 0.00000
0.00000 0.94261 0.00000
0.00000 0.94296 0.00000
0.00000 0.94346 0.00000
0.00000 0.94412 0.00000
0.00000 0.94495 0.00000
0.00000 0.94596 0.00000
0.00000 0.94710 0.00000
0.00000 0.94841 0.00000
0.00000 0.94984 0.00000
0.00000 0.95134 0.00000
0.00000 0.95296 0.00000
0.00000 0.95471 0.00000
0.00000 0.95660 0.00000
0.00000 0.95883 0.00000
0.00000 0.96106 0.00000
0.26134 0.96305 0.00000
0.37690 0.96604 0.00000
0.46682 0.96782 0.00000
0.54179 0.96990 0.00000
0.60680 0.97267 0.00000
0.66373 0.97380 0.00000
0.71269 0.97557 0.00000
0.75528 0.97727 0.00000
0.79116 0.97894 0.00000
0.82214 0.98061 0.00000
0.84888 0.98173 0.00000
0.87073 0.98193 0.00000
0.88839 0.98065 0.00000
0.90230 0.97750 0.00000
0.91311 0.97238 0.00000
0.92194 0.96533 0.00000
0.00000 0.95811 0.00000
0.00000 0.95835 0.00000
0.00000 0.95862 0.00000
0.00000 0.95902 0.00000
