fuji-film/cube-lut/pro-neg-hi.cube
LUT_3D_SIZE 32
0.00000 0.00000 0.00000
0.00208 0.00000 0.00000
0.00763 0.00000 0.00000
0.01958 0.00000 0.00000
0.03613 0.00120 0.00000
0.06496 0.00239 0.00000
0.10807 0.00320 0.00000
0.16344 0.01076 0.00000
0.23181 0.01815 0.00000
0.29866 0.02730 0.00000
0.36765 0.03737 0.00000
0.43136 0.04446 0.00000
0.49052 0.04278 0.00000
0.54559 0.02579 0.00000
0.59742 0.00000 0.00000
0.64675 0.00000 0.00277
0.69430 0.00000 0.01896
0.73612 0.00000 0.03420
0.77395 0.00000 0.04265
0.80946 0.00000 0.05790
0.84233 0.00000 0.06817
0.87287 0.00000 0.07906
0.90066 0.00000 0.08859
0.92367 0.00000 0.08491
0.93925 0.00000 0.04407
0.94795 0.00000 0.00000
0.95191 0.00000 0.00000
0.95468 0.00000 0.00000
0.95825 0.00000 0.00000
0.96298 0.00000 0.00000
0.96848 0.00000 0.00000
0.97506 0.00755 0.00000
0.00000 0.00108 0.00000
0.00063 0.00135 0.00000
0.00540 0.00186 0.00000
0.01735 0.00154 0.00000
0.03339 0.00471 0.00000
0.06267 0.00615 0.00000
0.10716 0.00791 0.00000
0.16325 0.01519 0.00000
0.23203 0.02372 0.00000
0.29952 0.03328 0.00000
0.36931 0.04421 0.00000
0.43293 0.05167 0.00000
0.49212 0.05142 0.00000
0.54744 0.03882 0.00000
0.59951 0.00218 0.00000
0.64881 0.00000 0.00000
0.69647 0.00000 0.00683
0.73813 0.00000 0.01353
0.77590 0.00000 0.01716
0.81134 0.00000 0.02979
0.84420 0.00000 0.04257
0.87495 0.00000 0.05634
0.90236 0.00000 0.06702
0.92531 0.00000 0.06283
0.94061 0.00000 0.02322
0.94904 0.00000 0.00000
0.95281 0.00000 0.00000
0.95547 0.00000 0.00000
0.95891 0.00000 0.00000
0.96356 0.00000 0.00000
0.96902 0.00000 0.00000
0.97564 0.02661 0.00000
0.00000 0.00649 0.00000
0.00000 0.00666 0.00000
0.00566 0.00698 0.00000
0.01726 0.00896 0.00000
0.03454 0.00968 0.00000
0.06376 0.01098 0.00000
0.10956 0.01400 0.00000
0.16577 0.02025 0.00000
0.23384 0.03005 0.00000
0.30153 0.03979 0.00000
0.37176 0.05032 0.00000
0.43517 0.05656 0.00000
0.49374 0.05934 0.00000
0.54970 0.05119 0.00000
0.60170 0.02049 0.00000
0.65124 0.00000 0.00000
0.69900 0.00000 0.00000
0.74031 0.00000 0.00003
0.77804 0.00000 0.00160
0.81335 0.00000 0.00818
0.84626 0.00000 0.01412
0.87734 0.00000 0.02225
0.90434 0.00000 0.03247
0.92714 0.00000 0.02901
0.94214 0.00000 0.00215
0.95030 0.00000 0.00000
0.95386 0.00000 0.00000
0.95636 0.00000 0.00000
0.95970 0.00000 0.00000
0.96425 0.00000 0.00000
0.96955 0.00000 0.00000
0.97631 0.04785 0.00000
0.00000 0.01851 0.00000
0.00000 0.01852 0.00000
0.00507 0.01910 0.00000
0.01713 0.02030 0.00000
0.03735 0.02165 0.00000
0.06624 0.02287 0.00000
0.11399 0.02742 0.00000
0.17081 0.03250 0.00000
0.23884 0.04094 0.00000
0.30620 0.05116 0.00000
0.37674 0.05922 0.00000
0.43958 0.06414 0.00000
0.49676 0.06958 0.00000
0.55354 0.06516 0.00000
0.60461 0.04731 0.00000
0.65495 0.01484 0.00000
0.70269 0.00000 0.00000
0.74347 0.00000 0.00000
0.78114 0.00000 0.00000
0.81619 0.00000 0.00000
0.84912 0.00000 0.00000
0.88054 0.00000 0.00000
0.90715 0.00000 0.00070
0.92955 0.00000 0.00000
0.94433 0.00000 0.00000
0.95212 0.00000 0.00000
0.95535 0.00000 0.00000
0.95762 0.00000 0.00000
0.96086 0.00000 0.00000
0.96526 0.00000 0.00000
0.97030 0.00000 0.00000
0.97729 0.07184 0.00000
0.00000 0.03838 0.00000
0.00000 0.03690 0.00000
0.00079 0.03606 0.00000
0.01554 0.03775 0.00000
0.03898 0.03994 0.00000
0.06976 0.04469 0.00000
0.11660 0.04838 0.00000
0.17569 0.05769 0.00000
0.24548 0.06217 0.00000
0.31372 0.06820 0.00000
0.38333 0.07711 0.00000
0.44523 0.08022 0.00000
0.50255 0.08471 0.00000
0.55885 0.08173 0.00000
0.60938 0.07399 0.00000
0.66019 0.05707 0.00000
0.70776 0.02654 0.00000
0.74768 0.00012 0.00000
0.78510 0.00000 0.00000
0.81999 0.00000 0.00000
0.85283 0.00000 0.00000
0.88435 0.00000 0.00000
0.91093 0.00000 0.00000
0.93275 0.00000 0.00000
0.94720 0.00000 0.00000
0.95450 0.00000 0.00000
0.95734 0.00000 0.00000
0.95940 0.00000 0.00000
0.96244 0.00000 0.00000
0.96659 0.00000 0.00000
0.97149 0.01944 0.00000
0.97847 0.10197 0.00000
0.00000 0.06423 0.00000
0.00000 0.06200 0.00000
0.00000 0.06023 0.00000
0.01001 0.06163 0.00000
0.03463 0.06620 0.00000
0.06939 0.07337 0.00000
0.11849 0.08006 0.00045
0.17809 0.08790 0.00030
0.25023 0.09393 0.00000
0.32077 0.09850 0.00000
0.38982 0.10186 0.00000
0.45259 0.10670 0.00000
0.51185 0.10724 0.00000
0.56567 0.10603 0.00000
0.61720 0.10260 0.00000
0.66735 0.09336 0.00000
0.71379 0.07992 0.00000
0.75308 0.06502 0.00000
0.79014 0.04622 0.00000
0.82483 0.02172 0.00000
0.85761 0.00000 0.00000
0.88918 0.00000 0.00000
0.91597 0.00000 0.00000
0.93706 0.00000 0.00000
0.95098 0.00000 0.00000
0.95761 0.00000 0.00000
0.96000 0.00000 0.00000
0.96174 0.00000 0.00000
0.96449 0.00000 0.00000
0.96811 0.00209 0.00000
0.97329 0.06523 0.00000
0.97987 0.13655 0.00000
0.00000 0.10164 0.00000
0.00000 0.09930 0.00000
0.00000 0.09710 0.00000
0.00120 0.09682 0.00452
0.02027 0.10120 0.00560
0.06041 0.10874 0.00751
0.11177 0.11807 0.00649
0.17910 0.12956 0.00000
0.25444 0.13407 0.00000
0.32737 0.13952 0.00000
0.39423 0.14365 0.00000
0.46161 0.14385 0.00000
0.52258 0.14100 0.00000
0.57469 0.13982 0.00000
0.62746 0.13588 0.00000
0.67571 0.13065 0.00000
0.72060 0.12512 0.00000
0.75947 0.11819 0.00000
0.79639 0.10761 0.00000
0.83118 0.09539 0.00000
0.86392 0.08037 0.00000
0.89515 0.05533 0.00000
0.92206 0.02065 0.00000
0.94227 0.00000 0.00000
0.95559 0.00000 0.00000
0.96147 0.00000 0.00000
0.96332 0.00000 0.00000
0.96459 0.00000 0.00000
0.96676 0.00764 0.00000
0.97052 0.06538 0.00000
0.97546 0.10643 0.00000
0.98147 0.17480 0.00000
0.00000 0.15395 0.00000
0.00000 0.15343 0.00000
0.00000 0.15306 0.00000
0.00000 0.15353 0.00000
0.00067 0.15700 0.00000
0.05547 0.16272 0.00000
0.11302 0.16977 0.00000
0.17962 0.17979 0.00000
0.25385 0.18861 0.00000
0.32806 0.19415 0.00000
0.39905 0.19596 0.00000
0.46815 0.19600 0.00000
0.52953 0.19035 0.00000
0.58382 0.18516 0.00000
0.63547 0.18175 0.00000
0.68336 0.17709 0.00000
0.72768 0.17087 0.00000
0.76701 0.16348 0.00000
0.80364 0.15631 0.00000
0.83848 0.15477 0.00000
0.87175 0.14868 0.00000
0.90195 0.13538 0.00000
0.92868 0.11732 0.00000
0.94864 0.09693 0.00000
0.96105 0.07416 0.00000
0.96601 0.05210 0.00000
0.96727 0.04353 0.00000
0.96822 0.05671 0.00000
0.97029 0.08276 0.00000
0.97354 0.11528 0.00000
0.97784 0.15260 0.00000
0.98396 0.20195 0.00000
0.00000 0.21690 0.00000
0.00000 0.21749 0.00000
0.00000 0.21840 0.00000
0.00000 0.22033 0.00000
0.00000 0.22344 0.00000
0.03998 0.22749 0.00000
0.11280 0.23306 0.00000
0.18106 0.24002 0.00000
0.25123 0.24656 0.00000
0.32386 0.25312 0.00000
0.39665 0.25793 0.00000
0.46614 0.25872 0.00000
0.52918 0.25290 0.00000
0.58763 0.24476 0.00000
0.63893 0.23997 0.00000
0.68811 0.23547 0.00000
0.73323 0.22709 0.00000
0.77438 0.21756 0.00000
0.81147 0.20877 0.00000
0.84708 0.20234 0.00000
0.88104 0.19677 0.00000
0.91099 0.19073 0.00000
0.93669 0.18238 0.00000
0.95592 0.17096 0.00000
0.96775 0.15560 0.00000
0.97212 0.13859 0.00000
0.97282 0.12946 0.00000
0.97316 0.13208 0.00000
0.97446 0.14689 0.00000
0.97686 0.16961 0.00000
0.98075 0.19462 0.00000
0.98686 0.23369 0.00000
0.00000 0.28014 0.00000
0.00000 0.28119 0.00000
0.00000 0.28249 0.00000
0.00000 0.28455 0.00000
0.00000 0.28759 0.00000
0.00036 0.29166 0.00000
0.09610 0.29612 0.00000
0.17369 0.30047 0.00000
0.24423 0.30738 0.00000
0.31540 0.31447 0.00000
0.38946 0.31680 0.00000
0.45912 0.31855 0.00000
0.52377 0.31766 0.00000
0.58269 0.31335 0.00000
0.63675 0.30630 0.00000
0.68902 0.29816 0.00000
0.73605 0.29014 0.00000
0.77964 0.28183 0.00000
0.81863 0.27313 0.00000
0.85528 0.26519 0.00000
0.88963 0.25641 0.00000
0.92040 0.24745 0.00000
0.94575 0.23890 0.00000
0.96452 0.22919 0.00000
0.97603 0.21732 0.00000
0.97941 0.20762 0.00000
0.97928 0.20128 0.00000
0.97889 0.19936 0.00000
0.97951 0.20237 0.00000
0.98139 0.20955 0.00000
0.98487 0.22739 0.00000
0.98975 0.27474 0.00000
0.00000 0.34011 0.00000
0.00000 0.34087 0.00000
0.00000 0.34176 0.00000
0.00000 0.34310 0.00000
0.00000 0.34535 0.00000
0.00000 0.34902 0.00000
0.07976 0.35331 0.00000
0.16452 0.35920 0.00000
0.23607 0.36640 0.00000
0.30956 0.37085 0.00000
0.38123 0.37285 0.00000
0.44933 0.37551 0.00000
0.51429 0.37802 0.00000
0.57351 0.37770 0.00000
0.62982 0.37378 0.00000
0.68505 0.36580 0.00000
0.73520 0.35679 0.00000
0.78200 0.34724 0.00000
0.82357 0.33866 0.00000
0.86284 0.33105 0.00000
0.89735 0.32342 0.00000
0.92861 0.31494 0.00000
0.95406 0.30623 0.00000
0.97334 0.29672 0.00000
0.98481 0.28587 0.00000
0.98777 0.27445 0.00000
0.98710 0.26388 0.00000
0.98611 0.25602 0.00000
0.98583 0.25405 0.00000
0.98659 0.25907 0.00000
0.98901 0.27627 0.00000
0.99351 0.31182 0.00000
0.00000 0.39549 0.00000
0.00000 0.39650 0.00000
0.00000 0.39768 0.00000
0.00000 0.39943 0.00000
0.00000 0.40185 0.00000
0.00000 0.40560 0.00000
0.03016 0.40991 0.00000
0.14297 0.41485 0.00000
0.22191 0.41961 0.00000
0.29846 0.42335 0.00000
0.36766 0.42696 0.00000
0.43536 0.43007 0.00000
0.50211 0.43234 0.00000
0.56215 0.43389 0.00000
0.61946 0.43438 0.00000
0.67625 0.43102 0.00000
0.72910 0.42370 0.00000
0.77894 0.41485 0.00000
0.82341 0.40613 0.00000
0.86532 0.39738 0.00000
0.90277 0.38883 0.00000
0.93489 0.38022 0.00000
0.96148 0.37151 0.00000
0.98174 0.36230 0.00000
0.99376 0.35192 0.00000
0.99689 0.33623 0.00000
0.99580 0.32343 0.00000
0.99415 0.31427 0.00000
0.99301 0.30890 0.00000
0.99278 0.30893 0.00000
0.99432 0.32093 0.00000
0.99716 0.35634 0.00000
0.00000 0.45164 0.00000
0.00000 0.45253 0.00000
0.00000 0.45356 0.00000
0.00000 0.45500 0.00000
0.00000 0.45697 0.00000
0.00000 0.45930 0.00000
0.00000 0.46207 0.00000
0.09455 0.46573 0.00000
0.19254 0.47042 0.00000
0.27478 0.47378 0.00000
0.34938 0.47528 0.00000
0.41928 0.47680 0.00000
0.48744 0.47930 0.00000
0.54845 0.48374 0.00000
0.60707 0.48512 0.00000
0.66539 0.48303 0.00000
0.71964 0.47890 0.00000
0.77166 0.47272 0.00000
0.81854 0.46541 0.00000
0.86303 0.45718 0.00000
0.90301 0.44890 0.00000
0.93747 0.44073 0.00000
0.96627 0.43223 0.00000
0.98842 0.42233 0.00000
1.00000 0.41157 0.00000
1.00000 0.39914 0.00000
1.00000 0.38235 0.00000
1.00000 0.37178 0.00000
1.00000 0.36563 0.00000
0.99921 0.36332 0.00000
0.99978 0.36944 0.00000
1.00000 0.39731 0.00000
0.00000 0.49938 0.00000
0.00000 0.50021 0.00000
0.00000 0.50111 0.00000
0.00000 0.50237 0.00000
0.00000 0.50409 0.00000
0.00000 0.50643 0.00000
0.00000 0.51005 0.00000
0.00000 0.51392 0.00000
0.14496 0.51645 0.00000
0.24270 0.51852 0.00000
0.32169 0.52094 0.00000
0.39504 0.52408 0.00000
0.46609 0.52669 0.00000
0.53226 0.52874 0.00000
0.59237 0.53076 0.00000
0.65169 0.53135 0.00000
0.70677 0.53042 0.00000
0.76024 0.52718 0.00000
0.80905 0.52192 0.00000
0.85581 0.51483 0.00000
0.89849 0.50700 0.00000
0.93526 0.49926 0.00000
0.96649 0.49128 0.00000
0.99054 0.48201 0.00000
1.00000 0.47094 0.00000
1.00000 0.45792 0.00000
1.00000 0.44474 0.00000
1.00000 0.43310 0.00000
1.00000 0.42312 0.00000
1.00000 0.41773 0.00000
1.00000 0.42158 0.00000
1.00000 0.44135 0.00000
0.00000 0.54717 0.00000
0.00000 0.54788 0.00000
0.00000 0.54867 0.00000
0.00000 0.54978 0.00000
0.00000 0.55125 0.00000
0.00000 0.55295 0.00000
0.00000 0.55503 0.00000
0.00000 0.55748 0.00000
0.01271 0.56015 0.00000
0.17997 0.56292 0.00000
0.27176 0.56598 0.00000
0.35706 0.56879 0.00000
0.43701 0.57109 0.00000
0.51069 0.57319 0.00000
0.57419 0.57550 0.00000
0.63537 0.57717 0.00000
0.69184 0.57764 0.00000
0.74653 0.57621 0.00000
0.79664 0.57311 0.00000
0.84495 0.56796 0.00000
0.88963 0.56134 0.00000
0.92845 0.55420 0.00000
0.96178 0.54664 0.00000
0.98763 0.53803 0.00000
1.00000 0.52800 0.00000
1.00000 0.51586 0.00000
1.00000 0.50255 0.00000
1.00000 0.49053 0.00000
1.00000 0.48016 0.00000
1.00000 0.47291 0.00000
1.00000 0.47341 0.00000
1.00000 0.48721 0.00000
0.00000 0.59044 0.00000
0.00000 0.59109 0.00000
0.00000 0.59183 0.00000
0.00000 0.59288 0.00000
0.00000 0.59432 0.00000
0.00000 0.59604 0.00000
0.00000 0.59813 0.00000
0.00000 0.60063 0.00000
0.00000 0.60350 0.00000
0.01811 0.60670 0.00000
0.20013 0.60974 0.00000
0.30670 0.61226 0.00000
0.40202 0.61424 0.00000
0.48046 0.61641 0.00000
0.55252 0.61825 0.00000
0.61698 0.61978 0.00000
0.67547 0.62093 0.00000
0.73144 0.62108 0.00000
0.78252 0.62010 0.00000
0.83174 0.61716 0.00000
0.87750 0.61244 0.00000
0.91770 0.60662 0.00000
0.95264 0.59972 0.00000
0.98056 0.59139 0.00000
0.99878 0.58142 0.00000
1.00000 0.56981 0.00000
1.00000 0.55743 0.00000
1.00000 0.54553 0.00000
1.00000 0.53491 0.00000
1.00000 0.52700 0.00000
1.00000 0.52480 0.00000
1.00000 0.53341 0.00000
0.00000 0.63168 0.00000
0.00000 0.63230 0.00000
0.00000 0.63302 0.00000
0.00000 0.63404 0.00000
0.00000 0.63544 0.00000
0.00000 0.63712 0.00000
0.00000 0.63919 0.00000
0.00000 0.64162 0.00000
0.00000 0.64433 0.00000
0.00000 0.64725 0.00000
0.10451 0.65032 0.00000
0.25319 0.65318 0.00000
0.36156 0.65569 0.00000
0.44681 0.65827 0.00000
0.52642 0.65999 0.00000
0.59506 0.66173 0.00000
0.65688 0.66308 0.00000
0.71493 0.66369 0.00000
0.76748 0.66349 0.00000
0.81771 0.66173 0.00000
0.86427 0.65862 0.00000
0.90535 0.65455 0.00000
0.94139 0.64918 0.00000
0.97121 0.64215 0.00000
0.99165 0.63336 0.00000
1.00000 0.62264 0.00000
1.00000 0.61072 0.00000
1.00000 0.59887 0.00000
1.00000 0.58763 0.00000
1.00000 0.57846 0.00000
1.00000 0.57410 0.00000
1.00000 0.57929 0.00000
0.00000 0.67113 0.00000
0.00000 0.67179 0.00000
0.00000 0.67252 0.00000
0.00000 0.67355 0.00000
0.00000 0.67498 0.00000
0.00000 0.67672 0.00000
0.00000 0.67872 0.00000
0.00000 0.68096 0.00000
0.00000 0.68357 0.00000
0.00000 0.68639 0.00000
0.00000 0.68934 0.00000
0.18799 0.69210 0.00000
0.31421 0.69464 0.00000
0.41175 0.69678 0.00000
0.49635 0.69871 0.00000
0.57014 0.70044 0.00000
0.63627 0.70181 0.00000
0.69722 0.70261 0.00000
0.75187 0.70270 0.00000
0.80342 0.70186 0.00000
0.85097 0.70032 0.00000
0.89305 0.69819 0.00000
0.93017 0.69497 0.00000
0.96162 0.68960 0.00000
0.98395 0.68170 0.00000
0.99650 0.67163 0.00000
1.00000 0.66045 0.00000
1.00000 0.64890 0.00000
1.00000 0.63789 0.00000
1.00000 0.62896 0.00000
1.00000 0.62346 0.00000
1.00000 0.62544 0.00000
0.00000 0.70830 0.00000
0.00000 0.70885 0.00000
0.00000 0.70948 0.00000
0.00000 0.71037 0.00000
0.00000 0.71156 0.00000
0.00000 0.71302 0.00000
0.00000 0.71476 0.00000
0.00000 0.71693 0.00000
0.00000 0.71941 0.00000
0.00000 0.72208 0.00000
0.00000 0.72489 0.00000
0.07668 0.72774 0.00000
0.25653 0.73037 0.00000
0.37293 0.73241 0.00000
0.46109 0.73460 0.00000
0.54138 0.73668 0.00000
0.61231 0.73841 0.00000
0.67710 0.73919 0.00000
0.73453 0.73957 0.00000
0.78814 0.73919 0.00000
0.83755 0.73881 0.00000
0.88135 0.73866 0.00000
0.92009 0.73780 0.00000
0.95269 0.73440 0.00000
0.97615 0.72773 0.00000
0.99030 0.71847 0.00000
0.99665 0.70830 0.00000
0.99911 0.69735 0.00000
1.00000 0.68571 0.00000
1.00000 0.67597 0.00000
1.00000 0.66963 0.00000
1.00000 0.66929 0.00000
0.00000 0.74249 0.00000
0.00000 0.74300 0.00000
0.00000 0.74357 0.00000
0.00000 0.74439 0.00000
0.00000 0.74546 0.00000
0.00000 0.74684 0.00000
0.00000 0.74852 0.00000
0.00000 0.75053 0.00000
0.00000 0.75286 0.00000
0.00000 0.75566 0.00000
0.00000 0.75872 0.00000
0.00000 0.76158 0.00000
0.17201 0.76413 0.00000
0.31731 0.76620 0.00000
0.42232 0.76782 0.00000
0.50853 0.76966 0.00000
0.58522 0.77133 0.00000
0.65411 0.77240 0.00000
0.71517 0.77288 0.00000
0.77101 0.77330 0.00000
0.82331 0.77377 0.00000
0.86973 0.77464 0.00000
0.91041 0.77490 0.00000
0.94398 0.77270 0.00000
0.96838 0.76790 0.00000
0.98385 0.76082 0.00000
0.99165 0.75199 0.00000
0.99489 0.74207 0.00000
0.99605 0.73188 0.00000
0.99665 0.72175 0.00000
0.99689 0.71454 0.00000
0.99714 0.71246 0.00000
0.00000 0.77543 0.00000
0.00000 0.77591 0.00000
0.00000 0.77645 0.00000
0.00000 0.77724 0.00000
0.00000 0.77824 0.00000
0.00000 0.77947 0.00000
0.00000 0.78090 0.00000
0.00000 0.78259 0.00000
0.00000 0.78465 0.00000
0.00000 0.78701 0.00000
0.00000 0.78961 0.00000
0.00000 0.79252 0.00000
0.00000 0.79505 0.00000
0.25046 0.79702 0.00000
0.37246 0.79896 0.00000
0.47018 0.80050 0.00000
0.55439 0.80165 0.00000
0.62741 0.80251 0.00000
0.69341 0.80290 0.00000
0.75170 0.80327 0.00000
0.80627 0.80381 0.00000
0.85511 0.80473 0.00000
0.89683 0.80537 0.00000
0.93248 0.80446 0.00000
0.95922 0.80150 0.00000
0.97729 0.79637 0.00000
0.98702 0.78953 0.00000
0.99115 0.78133 0.00000
0.99238 0.77258 0.00000
0.99258 0.76393 0.00000
0.99267 0.75670 0.00000
0.99312 0.75319 0.00000
0.00000 0.80597 0.00000
0.00000 0.80639 0.00000
0.00000 0.80688 0.00000
0.00000 0.80758 0.00000
0.00000 0.80852 0.00000
0.00000 0.80969 0.00000
0.00000 0.81113 0.00000
0.00000 0.81279 0.00000
0.00000 0.81466 0.00000
0.00000 0.81670 0.00000
0.00000 0.81890 0.00000
0.00000 0.82119 0.00000
0.00000 0.82339 0.00000
0.15966 0.82520 0.00000
0.31451 0.82701 0.00000
0.42700 0.82844 0.00000
0.51782 0.82964 0.00000
0.59683 0.83043 0.00000
0.66805 0.83094 0.00000
0.72947 0.83142 0.00000
0.78573 0.83195 0.00000
0.83620 0.83268 0.00000
0.87870 0.83360 0.00000
0.91661 0.83377 0.00000
0.94706 0.83255 0.00000
0.96898 0.82936 0.00000
0.98147 0.82440 0.00000
0.98709 0.81765 0.00000
0.98881 0.80947 0.00000
0.98894 0.80105 0.00000
0.98892 0.79381 0.00000
0.98945 0.78950 0.00000
0.00000 0.83367 0.00000
0.00000 0.83407 0.00000
0.00000 0.83450 0.00000
0.00000 0.83512 0.00000
0.00000 0.83597 0.00000
0.00000 0.83703 0.00000
0.00000 0.83830 0.00000
0.00000 0.83977 0.00000
0.00000 0.84148 0.00000
0.00000 0.84341 0.00000
0.00000 0.84550 0.00000
0.00000 0.84764 0.00000
0.00000 0.84970 0.00000
0.00000 0.85181 0.00000
0.25286 0.85366 0.00000
0.37638 0.85551 0.00000
0.47636 0.85689 0.00000
0.56180 0.85784 0.00000
0.63829 0.85831 0.00000
0.70436 0.85865 0.00000
0.76380 0.85871 0.00000
0.81594 0.85923 0.00000
0.85997 0.86021 0.00000
0.89929 0.86093 0.00000
0.93242 0.86095 0.00000
0.95814 0.85976 0.00000
0.97401 0.85688 0.00000
0.98182 0.85167 0.00000
0.98452 0.84433 0.00000
0.98490 0.83634 0.00000
0.98497 0.82944 0.00000
0.98575 0.82425 0.00000
0.00000 0.85876 0.00000
0.00000 0.85914 0.00000
0.00000 0.85959 0.00000
0.00000 0.86024 0.00000
0.00000 0.86112 0.00000
0.00000 0.86221 0.00000
0.00000 0.86352 0.00000
0.00000 0.86501 0.00000
0.00000 0.86678 0.00000
0.00000 0.86876 0.00000
0.00000 0.87090 0.00000
0.00000 0.87311 0.00000
0.00000 0.87530 0.00000
0.00000 0.87751 0.00000
0.15125 0.87942 0.00000
0.32078 0.88085 0.00000
0.43119 0.88218 0.00000
0.52387 0.88324 0.00000
0.60528 0.88382 0.00000
0.67605 0.88429 0.00000
0.73957 0.88467 0.00000
0.79494 0.88514 0.00000
0.84146 0.88590 0.00000
0.88197 0.88663 0.00000
0.91661 0.88730 0.00000
0.94497 0.88754 0.00000
0.96391 0.88637 0.00000
0.97419 0.88268 0.00000
0.97845 0.87666 0.00000
0.97996 0.86972 0.00000
0.98099 0.86296 0.00000
0.98234 0.85711 0.00000
0.00000 0.88247 0.00000
0.00000 0.88285 0.00000
0.00000 0.88330 0.00000
0.00000 0.88393 0.00000
0.00000 0.88478 0.00000
0.00000 0.88585 0.00000
0.00000 0.88712 0.00000
0.00000 0.88861 0.00000
0.00000 0.89028 0.00000
0.00000 0.89207 0.00000
0.00000 0.89396 0.00000
0.00000 0.89616 0.00000
0.00000 0.89845 0.00000
0.00000 0.90067 0.00000
0.00000 0.90255 0.00000
0.25062 0.90427 0.00000
0.38248 0.90553 0.00000
0.48425 0.90637 0.00000
0.56960 0.90687 0.00000
0.64606 0.90708 0.00000
0.71263 0.90754 0.00000
0.77307 0.90814 0.00000
0.82304 0.90928 0.00000
0.86469 0.91098 0.00000
0.90090 0.91275 0.00000
0.93015 0.91408 0.00000
0.95128 0.91384 0.00000
0.96346 0.91116 0.00000
0.96981 0.90617 0.00000
0.97344 0.89999 0.00000
0.97596 0.89347 0.00000
0.97810 0.88705 0.00000
0.00000 0.90312 0.00000
0.00000 0.90349 0.00000
0.00000 0.90393 0.00000
0.00000 0.90454 0.00000
0.00000 0.90534 0.00000
0.00000 0.90637 0.00000
0.00000 0.90756 0.00000
0.00000 0.90898 0.00000
0.00000 0.91058 0.00000
0.00000 0.91239 0.00000
0.00000 0.91435 0.00000
0.00000 0.91631 0.00000
0.00000 0.91825 0.00000
0.00000 0.92016 0.00000
0.00000 0.92162 0.00000
0.17223 0.92292 0.00000
0.33638 0.92389 0.00000
0.44563 0.92477 0.00000
0.53650 0.92580 0.00000
0.61748 0.92691 0.00000
0.68698 0.92843 0.00000
0.74980 0.93002 0.00000
0.80359 0.93192 0.00000
0.84667 0.93440 0.00000
0.88393 0.93664 0.00000
0.91379 0.93826 0.00000
0.93606 0.93832 0.00000
0.94963 0.93666 0.00000
0.95790 0.93331 0.00000
0.96355 0.92831 0.00000
0.96763 0.92189 0.00000
0.97105 0.91469 0.00000
0.00000 0.92107 0.00000
0.00000 0.92137 0.00000
0.00000 0.92173 0.00000
0.00000 0.92225 0.00000
0.00000 0.92291 0.00000
0.00000 0.92373 0.00000
0.00000 0.92474 0.00000
0.00000 0.92589 0.00000
0.00000 0.92718 0.00000
0.00000 0.92851 0.00000
0.00000 0.92995 0.00000
0.00000 0.93144 0.00000
0.00000 0.93283 0.00000
0.00000 0.93439 0.00000
0.00000 0.93588 0.00000
0.12786 0.93744 0.00000
0.31127 0.93898 0.00000
0.42328 0.94075 0.00000
0.51567 0.94266 0.00000
0.59749 0.94472 0.00000
0.66704 0.94723 0.00000
0.72938 0.94984 0.00000
0.78352 0.95230 0.00000
0.82661 0.95550 0.00000
0.86328 0.95835 0.00000
0.89291 0.95958 0.00000
0.91568 0.96001 0.00000
0.93121 0.95892 0.00000
0.94170 0.95621 0.00000
0.94935 0.95204 0.00000
0.95506 0.94566 0.00000
0.96024 0.93756 0.00000
0.00000 0.93585 0.00000
0.00000 0.93610 0.00000
0.00000 0.93638 0.00000
0.00000 0.93679 0.00000
0.00000 0.93733 0.00000
0.00000 0.93801 0.00000
0.00000 0.93883 0.00000
0.00000 0.93975 0.00000
0.00000 0.94084 0.00000
0.00000 0.94205 0.00000
0.00000 0.94353 0.00000
0.00000 0.94478 0.00000
0.00000 0.94657 0.00000
0.00000 0.94819 0.00000
0.00000 0.94993 0.00000
0.20622 0.95187 0.00000
0.33484 0.95411 0.00000
0.43356 0.95646 0.00000
0.51559 0.95921 0.00000
0.59012 0.96196 0.00000
0.65458 0.96488 0.00000
0.71267 0.96859 0.00000
0.76349 0.97113 0.00000
0.80420 0.97487 0.00000
0.83847 0.97769 0.00000
0.86723 0.97903 0.00000
0.88936 0.97954 0.00000
0.90685 0.97855 0.00000
0.92027 0.97574 0.00000
0.93044 0.97126 0.00000
0.93864 0.96536 0.00000
0.94659 0.95665 0.02461
0.00000 0.95050 0.00000
0.00000 0.95075 0.00000
0.00000 0.95104 0.00000
0.00000 0.95145 0.00000
