fuji-film/cube-lut/pro-neg-std.cube
LUT_3D_SIZE 8
DOMAIN_MIN 0.000000 0.000000 0.000000
DOMAIN_MAX 0.903226 0.903226 0.903226
0.00000 0.00000 0.00000
0.06164 0.00240 0.00000
0.24214 0.01817 0.00000
0.47201 0.03037 0.01141
0.67084 0.00000 0.02300
0.81044 0.00000 0.00000
0.89851 0.00000 0.00000
0.92303 0.15242 0.00000
0.00000 0.06942 0.00000
0.07231 0.07956 0.00522
0.26097 0.09661 0.00000
0.49432 0.09572 0.00000
0.68021 0.06596 0.00000
0.81731 0.00000 0.00000
0.90314 0.00000 0.00000
0.92312 0.18230 0.00000
0.00000 0.24521 0.00000
0.00000 0.24963 0.00130
0.25199 0.26849 0.00010
0.49754 0.27298 0.00000
0.69782 0.24334 0.00000
0.83308 0.21411 0.00000
0.91518 0.19433 0.00000
0.92576 0.22729 0.00000
0.00000 0.45082 0.00000
0.00000 0.45661 0.00000
0.12061 0.47066 0.00000
0.44648 0.48216 0.00000
0.68368 0.47937 0.00000
0.84147 0.44561 0.00000
0.93786 0.39508 0.00000
0.94107 0.36730 0.00000
0.00000 0.63955 0.00000
0.00000 0.64384 0.00000
0.00000 0.65351 0.00000
0.32601 0.66504 0.00000
0.61916 0.67130 0.00000
0.81412 0.66875 0.00000
0.93307 0.64047 0.00000
0.95876 0.58823 0.00000
0.00000 0.78642 0.00000
0.00000 0.78961 0.00000
0.00000 0.79847 0.00000
0.00000 0.80949 0.00000
0.50620 0.81563 0.00000
0.75473 0.81547 0.00000
0.90203 0.81328 0.00000
0.95803 0.78881 0.00000
0.00000 0.88910 0.00000
0.00000 0.89126 0.00000
0.00000 0.89731 0.00000
0.00000 0.90779 0.00000
0.34324 0.91737 0.00000
0.66823 0.91885 0.00000
0.84647 0.91779 0.00000
0.94205 0.91856 0.00000
0.00000 0.95811 0.00000
0.00000 0.95961 0.00000
0.00000 0.96353 0.00000
0.00000 0.96937 0.00000
0.30533 0.97820 0.00000
0.59706 0.98765 0.00000
0.76919 0.99574 0.00000
0.86572 0.99555 0.02298
0.00878 0.00915 0.07239
0.09718 0.02429 0.10766
0.27784 0.05377 0.14593
0.49443 0.08230 0.18466
0.68491 0.00270 0.20749
0.81988 0.00000 0.20356
0.90358 0.00000 0.10080
0.92560 0.17139 0.00000
0.00945 0.09307 0.08260
0.10898 0.10975 0.10936
0.29216 0.13752 0.15380
0.51076 0.13896 0.18105
0.69249 0.11097 0.17001
0.82557 0.05209 0.15559
0.90763 0.00952 0.00000
0.92537 0.18794 0.00000
0.00000 0.26270 0.08319
0.05056 0.26998 0.09737
0.27722 0.28841 0.12929
0.51359 0.29458 0.14326
0.70829 0.26321 0.13168
0.84026 0.22088 0.04077
0.92061 0.18930 0.00000
0.92659 0.22106 0.00000
0.00000 0.46258 0.04246
0.00000 0.46860 0.07149
0.16566 0.47700 0.09653
0.46722 0.49561 0.12291
0.69228 0.49217 0.10717
0.84899 0.45209 0.04563
0.94459 0.40060 0.00000
0.94320 0.36218 0.00000
0.00000 0.64505 0.00000
0.00000 0.64956 0.00000
0.00000 0.65972 0.00000
0.33837 0.67096 0.03622
0.63143 0.67660 0.03669
0.82046 0.67721 0.00000
0.93959 0.64696 0.00000
0.96167 0.59147 0.00000
0.00000 0.78937 0.00000
0.00000 0.79291 0.00000
0.00000 0.80163 0.00000
0.00000 0.81235 0.00000
0.52490 0.81786 0.00000
0.76530 0.81750 0.00000
0.90778 0.81783 0.00000
0.96096 0.79308 0.00000
0.00000 0.89088 0.00000
0.00000 0.89321 0.00000
0.00000 0.89945 0.00000
0.00000 0.91002 0.00000
0.36075 0.91937 0.00000
0.68216 0.92066 0.00000
0.85372 0.92022 0.00000
0.94656 0.92226 0.00000
0.00000 0.95982 0.00000
0.00000 0.96147 0.00000
0.00000 0.96520 0.00000
0.00000 0.97150 0.00000
0.31956 0.98054 0.00000
0.60600 0.98987 0.06685
0.77470 0.99859 0.14371
0.86985 0.99815 0.16923
0.02605 0.02543 0.26758
0.12250 0.03271 0.30110
0.32803 0.06974 0.35537
0.53473 0.09954 0.39008
0.71260 0.10652 0.42090
0.84301 0.11286 0.44939
0.92540 0.07852 0.40482
0.93482 0.20338 0.16451
0.05913 0.13659 0.28527
0.16259 0.15679 0.30771
0.33315 0.17649 0.34205
0.53498 0.20285 0.38002
0.71719 0.21714 0.41845
0.85111 0.20674 0.44748
0.93029 0.15166 0.38766
0.93309 0.20888 0.11780
0.00000 0.29757 0.27224
0.10339 0.30328 0.28563
0.31525 0.31530 0.31550
0.52857 0.32966 0.34868
0.71844 0.35801 0.40509
0.85963 0.32406 0.40968
0.93896 0.22803 0.33476
0.93160 0.21650 0.10685
0.00000 0.48204 0.24794
0.00000 0.48400 0.25647
0.24832 0.49281 0.28166
0.49729 0.50887 0.32065
0.69944 0.52305 0.35178
0.85424 0.51085 0.35857
0.95992 0.43119 0.28468
0.95349 0.36556 0.15028
0.00000 0.65523 0.23876
0.00000 0.65918 0.24665
0.00000 0.66839 0.26217
0.42147 0.67655 0.29966
0.66013 0.68677 0.32082
0.82971 0.69489 0.32922
0.95085 0.66455 0.26644
0.97025 0.60839 0.17600
0.00000 0.79470 0.23235
0.00000 0.79775 0.23816
0.00000 0.80387 0.25067
0.22722 0.81350 0.24746
0.58243 0.81763 0.30597
0.78551 0.81948 0.29037
0.92021 0.82706 0.27399
0.97017 0.80186 0.21616
0.00000 0.89424 0.23058
0.00000 0.89660 0.23348
0.00000 0.90244 0.23403
0.00000 0.91162 0.21430
0.42921 0.92010 0.21919
0.71921 0.92143 0.30461
0.87187 0.92444 0.26319
0.96305 0.93041 0.18956
0.00000 0.96393 0.23542
0.00000 0.96540 0.23581
0.00000 0.96882 0.23618
0.00000 0.97501 0.23745
0.36299 0.98411 0.24595
0.62924 0.99508 0.28935
0.78781 1.00000 0.32029
0.87944 1.00000 0.33006
0.04036 0.04693 0.50807
0.14658 0.05373 0.53841
0.33635 0.06436 0.59355
0.57146 0.11376 0.64541
0.74704 0.13522 0.66439
0.86421 0.13236 0.67439
0.94339 0.16595 0.64697
0.95491 0.24145 0.56196
0.07020 0.15651 0.52233
0.17899 0.17197 0.54457
0.36091 0.19301 0.57756
0.57398 0.23562 0.61247
0.74621 0.24156 0.63774
0.86850 0.24178 0.66331
0.94721 0.22270 0.65966
0.96099 0.27366 0.59200
0.08008 0.33831 0.50816
0.19660 0.34376 0.51797
0.37067 0.35850 0.53583
0.55699 0.37818 0.56596
0.73697 0.39820 0.59683
0.87098 0.41320 0.63204
0.96449 0.39756 0.66308
0.97823 0.35820 0.61080
0.00000 0.51215 0.47098
0.00000 0.51354 0.48015
0.31258 0.51581 0.49806
0.52660 0.52629 0.52603
0.71820 0.53620 0.55828
0.86339 0.54293 0.58501
0.96930 0.56064 0.62016
0.98877 0.51523 0.56864
0.00000 0.66913 0.43706
0.00000 0.67145 0.44231
0.16766 0.67718 0.46568
0.46056 0.68503 0.49109
0.67945 0.69276 0.51788
0.83568 0.69928 0.54449
0.95312 0.70040 0.56334
0.98803 0.68494 0.54383
0.00000 0.79973 0.42391
0.00000 0.80151 0.42797
0.00000 0.80529 0.44417
0.35585 0.81123 0.46944
0.63012 0.81446 0.50085
0.80493 0.82168 0.52398
0.92315 0.83054 0.55500
0.98125 0.81489 0.51226
0.00000 0.89660 0.42505
0.00000 0.89825 0.43359
0.00000 0.90208 0.44875
0.14528 0.90830 0.45951
0.53561 0.91330 0.47849
0.76331 0.91846 0.52650
0.89538 0.92923 0.51954
0.97412 0.93138 0.53536
0.00000 0.96986 0.40985
0.00000 0.97133 0.41263
0.00000 0.97535 0.42077
0.00000 0.98132 0.43258
0.44077 0.99009 0.44762
0.66489 1.00000 0.47303
0.80764 1.00000 0.48938
0.89168 1.00000 0.49672
0.05989 0.07693 0.73191
0.15824 0.08008 0.76003
0.35445 0.07560 0.80712
0.56917 0.10598 0.85191
0.76596 0.16638 0.88551
0.88755 0.18869 0.89498
0.96001 0.18813 0.86521
0.96814 0.24575 0.77709
0.09392 0.17788 0.74405
0.18275 0.18315 0.76294
0.36969 0.19549 0.79336
0.58069 0.23436 0.82541
0.77037 0.27826 0.85358
0.88944 0.28920 0.87308
0.96493 0.26055 0.86217
0.97386 0.29874 0.78879
0.12573 0.36948 0.71843
0.26260 0.40014 0.72818
0.42607 0.41453 0.74560
0.59497 0.42356 0.76329
0.76173 0.44628 0.78492
0.88649 0.45388 0.81106
0.97430 0.43536 0.83542
0.98922 0.44038 0.79941
0.05932 0.53890 0.67963
0.19025 0.54281 0.68854
0.38016 0.55002 0.70490
0.56274 0.55994 0.72454
0.73632 0.57293 0.74228
0.87217 0.58898 0.76388
0.97506 0.60373 0.78684
0.99897 0.61104 0.77985
0.00000 0.68776 0.63689
0.00000 0.68967 0.64410
0.25215 0.69411 0.66138
0.50248 0.69811 0.68340
0.70386 0.70366 0.70337
0.84599 0.70881 0.72498
0.95796 0.71672 0.74529
1.00000 0.72936 0.75149
0.00000 0.80548 0.60557
0.00000 0.80683 0.61209
0.00000 0.81076 0.62883
0.41329 0.81397 0.65036
0.65277 0.81783 0.67322
0.81497 0.82373 0.69298
0.93091 0.82799 0.71866
0.98834 0.82359 0.73530
0.00000 0.89990 0.59009
0.00000 0.90120 0.59527
0.00000 0.90397 0.60893
0.28072 0.90763 0.63179
0.58960 0.91284 0.65811
0.78051 0.92134 0.68259
0.90774 0.93040 0.70005
0.97716 0.92823 0.73401
0.00000 0.97723 0.57516
0.00000 0.97863 0.57840
0.00000 0.98308 0.58634
0.26778 0.98834 0.60007
0.52266 0.99695 0.61828
0.70035 1.00000 0.63762
0.82498 1.00000 0.65425
0.90518 1.00000 0.66179
0.11946 0.11873 0.89311
0.18301 0.12186 0.91907
0.36233 0.12088 0.95336
0.56730 0.13043 0.96924
0.75541 0.15703 0.97329
0.89122 0.20103 0.97529
0.96510 0.24070 0.98121
0.98113 0.30085 0.96103
0.10064 0.21210 0.90845
0.20709 0.21272 0.92520
0.37166 0.21844 0.94731
0.57759 0.23467 0.96350
0.76311 0.26359 0.96816
0.89627 0.31151 0.97027
0.97009 0.32388 0.97744
0.98830 0.35965 0.95816
0.12417 0.39048 0.87845
0.24876 0.40032 0.88920
0.43677 0.42746 0.91079
0.61129 0.43430 0.93406
0.77646 0.46060 0.94302
0.90102 0.48594 0.95130
0.98131 0.48968 0.96226
1.00000 0.48346 0.94256
0.22830 0.58153 0.83893
0.31829 0.59471 0.84660
0.46320 0.60720 0.86144
0.61755 0.60792 0.87654
0.76494 0.61996 0.89679
0.88933 0.63899 0.91076
0.98457 0.64462 0.92752
1.00000 0.64755 0.90612
0.00000 0.71084 0.79696
0.17670 0.71173 0.80367
0.36451 0.71432 0.81772
0.55804 0.71925 0.83634
0.72916 0.72500 0.85345
0.86265 0.73661 0.86982
0.97040 0.75035 0.88430
1.00000 0.76013 0.87661
0.00000 0.81817 0.76319
0.00000 0.81953 0.76886
0.20875 0.82302 0.78213
0.47818 0.82535 0.80139
0.68267 0.82815 0.81930
0.83456 0.83423 0.83442
0.95287 0.83835 0.85134
1.00000 0.83995 0.85672
0.00000 0.90792 0.73566
0.00000 0.90918 0.74081
0.00000 0.91082 0.75344
0.38004 0.91448 0.77365
0.62857 0.92044 0.79445
0.79389 0.92492 0.81050
0.91581 0.92869 0.82511
0.97909 0.92592 0.83768
0.00000 0.98370 0.71524
0.00000 0.98475 0.71827
0.14904 0.98808 0.72645
0.40184 0.99338 0.73955
0.58412 1.00000 0.75525
0.72921 1.00000 0.77123
0.84072 1.00000 0.78622
0.92047 1.00000 0.79249
0.10212 0.17998 0.94070
0.21683 0.17882 0.94961
0.37259 0.18287 0.96103
0.57119 0.18731 0.96685
0.75368 0.19053 0.96890
0.88745 0.20118 0.97179
0.97655 0.27642 0.97505
0.98400 0.37413 0.97581
0.13847 0.25252 0.96232
0.21135 0.25396 0.96584
0.38229 0.25963 0.96782
0.57993 0.25723 0.96863
0.75868 0.28098 0.97037
0.89280 0.29650 0.97359
0.98305 0.35675 0.97663
0.98845 0.42771 0.97751
0.10331 0.39930 0.96835
0.24081 0.40539 0.96946
0.40443 0.41717 0.96942
0.59926 0.42041 0.97063
0.77258 0.44807 0.97398
0.90068 0.48708 0.97816
0.99326 0.51361 0.98098
0.99800 0.54607 0.97964
0.22678 0.59916 0.95785
0.34068 0.61627 0.96317
0.51338 0.64744 0.97216
0.65344 0.64627 0.97724
0.78039 0.64485 0.97929
0.89817 0.68154 0.98177
0.99091 0.69323 0.98591
1.00000 0.68753 0.97734
0.25388 0.74019 0.92959
0.33828 0.74527 0.93611
0.47510 0.75241 0.94918
0.62335 0.75555 0.96160
0.75867 0.76107 0.96901
0.87977 0.78128 0.97307
0.97382 0.79679 0.97961
1.00000 0.78909 0.96663
0.05641 0.83150 0.89261
0.20494 0.83242 0.89824
0.37672 0.83455 0.91075
0.55862 0.83790 0.92710
0.72302 0.84289 0.94253
0.85173 0.85143 0.95632
0.95453 0.85867 0.96152
1.00000 0.85810 0.94985
0.00000 0.91627 0.85867
0.00000 0.91744 0.86312
0.26068 0.92057 0.87430
0.49216 0.92397 0.89183
0.67210 0.92626 0.90907
0.81372 0.92925 0.92174
0.92957 0.92958 0.92949
0.99454 0.92529 0.93214
0.17797 0.98444 0.82585
0.24855 0.98557 0.82847
0.37027 0.98813 0.83559
0.50608 0.99285 0.84689
0.64189 0.99808 0.86063
0.76347 1.00000 0.87578
0.86911 1.00000 0.89042
0.94463 0.99382 0.89896
0.16142 0.23314 0.96057
0.22723 0.23488 0.96083
0.38517 0.23860 0.96724
0.57154 0.24410 0.96954
0.74610 0.25613 0.96987
0.87768 0.25729 0.97213
0.98344 0.27435 0.97481
0.99439 0.39216 0.97660
0.17168 0.29720 0.96517
0.25549 0.29557 0.96657
0.39686 0.29978 0.96948
0.57931 0.30691 0.97036
0.75140 0.31301 0.97100
0.88248 0.32811 0.97356
0.98835 0.34356 0.97619
0.99741 0.44257 0.97817
0.20024 0.43003 0.96860
0.26712 0.43174 0.96886
0.41688 0.43161 0.96953
0.59711 0.44646 0.97106
0.76286 0.45986 0.97383
0.89195 0.47937 0.97720
0.99490 0.49959 0.97992
1.00000 0.55532 0.98180
0.29812 0.61578 0.97325
0.37648 0.62619 0.97396
0.52058 0.64677 0.97536
0.66880 0.65675 0.97797
0.78909 0.66207 0.98172
0.89957 0.67972 0.98441
0.99114 0.70581 0.98762
1.00000 0.70159 0.98869
0.38133 0.76179 0.98294
0.45673 0.77125 0.98564
0.58161 0.78769 0.98969
0.70156 0.79674 0.99340
0.80138 0.79735 0.99263
0.89592 0.80745 0.99158
0.97421 0.82403 0.99553
1.00000 0.81433 0.99537
0.35522 0.84470 0.97106
0.41246 0.84639 0.97572
0.52051 0.84907 0.98411
0.64637 0.85153 0.99177
0.76103 0.85663 0.99318
0.86451 0.86889 0.99408
0.95218 0.88555 0.99951
1.00000 0.87679 0.99921
0.31312 0.91220 0.93811
0.36587 0.91294 0.94160
0.46768 0.91477 0.95016
0.59291 0.91794 0.96252
0.71621 0.92355 0.97455
0.82768 0.93085 0.98480
0.92672 0.93497 0.99431
1.00000 0.92595 0.99745
0.40837 0.97469 0.90521
0.43745 0.97586 0.90762
0.50075 0.97828 0.91427
0.59097 0.98252 0.92420
0.68996 0.98742 0.93818
0.79094 0.99157 0.95437
0.89035 0.98931 0.97013
0.97902 0.97907 0.97902
