fuji-film/cube-lut/pro-neg-std.cube
LUT_3D_SIZE 5
DOMAIN_MIN 0.000000 0.000000 0.000000
DOMAIN_MAX 0.903226 0.903226 0.903226
0.00000 0.00000 0.00000
0.18708 0.01597 0.00000
0.57509 0.00714 0.00000
0.83742 0.00000 0.00000
0.92303 0.15242 0.00000
0.00000 0.19282 0.00000
0.19898 0.21445 0.01285
0.60720 0.20444 0.00000
0.85520 0.15002 0.00000
0.92466 0.20793 0.00000
0.00000 0.55082 0.00000
0.00000 0.56280 0.00000
0.53870 0.57995 0.00000
0.86419 0.55538 0.00000
0.95143 0.47289 0.00000
0.00000 0.81592 0.00000
0.00000 0.82409 0.00000
0.26421 0.84190 0.00000
0.78103 0.84335 0.00000
0.95607 0.82664 0.00000
0.00000 0.95811 0.00000
0.00000 0.96234 0.00000
0.00000 0.97410 0.00000
0.64864 0.99008 0.00000
0.86572 0.99555 0.02298
0.02176 0.02137 0.20939
0.26502 0.05775 0.28528
0.62583 0.10193 0.34795
0.86317 0.00990 0.38636
0.93071 0.18846 0.00000
0.00000 0.24086 0.22177
0.26112 0.26115 0.26090
0.62649 0.29757 0.33995
0.87644 0.20017 0.30698
0.92803 0.20682 0.00000
0.00000 0.56572 0.19435
0.00000 0.57719 0.21819
0.57499 0.59851 0.27521
0.87733 0.58080 0.23919
0.96056 0.48016 0.00000
0.00000 0.82155 0.17264
0.00000 0.82881 0.18248
0.34973 0.84584 0.17729
0.80446 0.84626 0.21647
0.96626 0.83580 0.11004
0.00000 0.96274 0.17919
0.00000 0.96663 0.17858
0.02095 0.97762 0.18240
0.67166 0.99616 0.25072
0.87674 1.00000 0.28464
0.05309 0.06180 0.62537
0.28727 0.06964 0.69514
0.67539 0.13989 0.77512
0.89858 0.13379 0.78864
0.95825 0.23843 0.66028
0.11054 0.31094 0.62623
0.35027 0.34781 0.65298
0.67169 0.37638 0.69183
0.90238 0.38831 0.74511
0.97291 0.34245 0.71508
0.00000 0.60201 0.55952
0.20936 0.60937 0.57984
0.62102 0.62092 0.62102
0.88558 0.63213 0.66292
0.99786 0.65008 0.68143
0.00000 0.82777 0.51344
0.00000 0.83186 0.52932
0.50231 0.83858 0.57114
0.83370 0.84959 0.61367
0.98316 0.84866 0.65005
0.00000 0.97411 0.49724
0.00000 0.97732 0.50494
0.35122 0.98892 0.52631
0.72244 1.00000 0.56265
0.89879 1.00000 0.58146
0.09799 0.13365 0.92024
0.32065 0.13232 0.95812
0.66797 0.14287 0.96908
0.91865 0.21806 0.97482
0.98462 0.33662 0.97088
0.13900 0.34285 0.92633
0.34851 0.35902 0.95146
0.69041 0.38476 0.97003
0.93078 0.44407 0.96995
1.00000 0.46407 0.96528
0.20498 0.65765 0.85167
0.40464 0.67030 0.86921
0.68398 0.68066 0.90026
0.91018 0.70637 0.92464
1.00000 0.71681 0.91825
0.00000 0.84417 0.78894
0.08725 0.84861 0.80366
0.58536 0.85310 0.83595
0.86231 0.86207 0.86212
1.00000 0.86180 0.87487
0.00000 0.98432 0.74606
0.15245 0.98790 0.75438
0.51755 0.99708 0.77566
0.76732 1.00000 0.80368
0.92453 1.00000 0.82068
0.16142 0.23314 0.96057
0.34467 0.23574 0.96713
0.66190 0.25356 0.97045
0.90807 0.25486 0.97293
0.99439 0.39216 0.97660
0.18166 0.38673 0.96833
0.36809 0.39081 0.96932
0.68067 0.39993 0.97125
0.91999 0.44079 0.97700
1.00000 0.52153 0.98058
0.35173 0.70081 0.97765
0.54159 0.73212 0.98120
0.75250 0.74401 0.98738
0.92711 0.75981 0.98924
1.00000 0.76584 0.99174
0.33420 0.86156 0.96519
0.46856 0.86315 0.97662
0.68997 0.86844 0.99015
0.88146 0.88834 0.99498
1.00000 0.88929 0.99956
0.40837 0.97469 0.90521
0.48170 0.97758 0.91201
0.63920 0.98520 0.93165
0.81523 0.99175 0.95856
0.97902 0.97907 0.97902
