fuji-film/cube-lut/pro-neg-hi.cube
LUT_3D_SIZE 8
DOMAIN_MIN 0.000000 0.000000 0.000000
DOMAIN_MAX 0.903226 0.903226 0.903226
0.00000 0.00000 0.00000
0.03613 0.00120 0.00000
0.23181 0.01815 0.00000
0.49052 0.04278 0.00000
0.69430 0.00000 0.01896
0.84233 0.00000 0.06817
0.93925 0.00000 0.04407
0.95825 0.00000 0.00000
0.00000 0.03838 0.00000
0.03898 0.03994 0.00000
0.24548 0.06217 0.00000
0.50255 0.08471 0.00000
0.70776 0.02654 0.00000
0.85283 0.00000 0.00000
0.94720 0.00000 0.00000
0.96244 0.00000 0.00000
0.00000 0.21690 0.00000
0.00000 0.22344 0.00000
0.25123 0.24656 0.00000
0.52918 0.25290 0.00000
0.73323 0.22709 0.00000
0.88104 0.19677 0.00000
0.96775 0.15560 0.00000
0.97446 0.14689 0.00000
0.00000 0.45164 0.00000
0.00000 0.45697 0.00000
0.19254 0.47042 0.00000
0.48744 0.47930 0.00000
0.71964 0.47890 0.00000
0.90301 0.44890 0.00000
1.00000 0.41157 0.00000
1.00000 0.36563 0.00000
0.00000 0.63168 0.00000
0.00000 0.63544 0.00000
0.00000 0.64433 0.00000
0.36156 0.65569 0.00000
0.65688 0.66308 0.00000
0.86427 0.65862 0.00000
0.99165 0.63336 0.00000
1.00000 0.58763 0.00000
0.00000 0.77543 0.00000
0.00000 0.77824 0.00000
0.00000 0.78465 0.00000
0.00000 0.79505 0.00000
0.55439 0.80165 0.00000
0.80627 0.80381 0.00000
0.95922 0.80150 0.00000
0.99238 0.77258 0.00000
0.00000 0.88247 0.00000
0.00000 0.88478 0.00000
0.00000 0.89028 0.00000
0.00000 0.89845 0.00000
0.38248 0.90553 0.00000
0.71263 0.90754 0.00000
0.90090 0.91275 0.00000
0.96981 0.90617 0.00000
0.00000 0.95050 0.00000
0.00000 0.95201 0.00000
0.00000 0.95575 0.00000
0.00000 0.96152 0.00000
0.37741 0.97034 0.00000
0.64556 0.98250 0.00000
0.81299 0.99453 0.00000
0.89696 0.99258 0.05841
0.00000 0.00000 0.03849
0.05326 0.01035 0.05939
0.25986 0.03887 0.10072
0.50399 0.08082 0.14354
0.70183 0.00000 0.19701
0.84558 0.00000 0.23089
0.94157 0.00000 0.23555
0.95899 0.00000 0.00000
0.00170 0.04807 0.04300
0.06300 0.06306 0.06354
0.26898 0.09598 0.10524
0.51810 0.11449 0.13989
0.71449 0.08872 0.15670
0.85656 0.00000 0.17704
0.95011 0.00000 0.18068
0.96298 0.00000 0.00000
0.00000 0.22966 0.03768
0.00000 0.23990 0.05125
0.25441 0.26640 0.08029
0.53560 0.28008 0.10155
0.74041 0.23988 0.11188
0.88657 0.21249 0.00000
0.97139 0.17084 0.00000
0.97468 0.15582 0.00000
0.00000 0.46165 0.00000
0.00000 0.46750 0.01252
0.17488 0.47927 0.02465
0.48998 0.49470 0.07114
0.72450 0.49630 0.00000
0.90890 0.46298 0.00000
1.00000 0.41973 0.00000
1.00000 0.36703 0.00000
0.00000 0.63821 0.00000
0.00000 0.64202 0.00000
0.00000 0.65115 0.00000
0.36522 0.66294 0.00000
0.66443 0.67072 0.00000
0.86778 0.66886 0.00000
0.99754 0.64252 0.00000
1.00000 0.59506 0.00000
0.00000 0.78012 0.00000
0.00000 0.78279 0.00000
0.00000 0.78955 0.00000
0.00000 0.79950 0.00000
0.56401 0.80576 0.00000
0.81394 0.80819 0.00000
0.96719 0.80801 0.00000
0.99449 0.77797 0.00000
0.00000 0.88625 0.00000
0.00000 0.88859 0.00000
0.00000 0.89408 0.00000
0.00000 0.90286 0.00000
0.38681 0.90974 0.00000
0.72218 0.91127 0.00000
0.90820 0.91789 0.00000
0.97452 0.91208 0.00000
0.00000 0.95314 0.00000
0.00000 0.95462 0.00000
0.00000 0.95828 0.00000
0.00000 0.96406 0.00000
0.37979 0.97304 0.00000
0.64946 0.98708 0.08308
0.81614 0.99962 0.13057
0.89872 0.99745 0.18395
0.00870 0.00696 0.24941
0.06815 0.00608 0.27828
0.31266 0.05266 0.34484
0.53256 0.09487 0.37143
0.70937 0.08275 0.42384
0.85015 0.10205 0.47374
0.94450 0.00000 0.47745
0.95883 0.00000 0.27324
0.01332 0.08261 0.26882
0.10706 0.10350 0.29083
0.31338 0.13097 0.33228
0.53252 0.16134 0.37753
0.71712 0.19381 0.42587
0.86372 0.19386 0.46919
0.95320 0.07223 0.46043
0.96429 0.09082 0.23355
0.00000 0.27294 0.25585
0.01924 0.27987 0.26555
0.29668 0.29633 0.29715
0.53424 0.31910 0.33736
0.72736 0.35353 0.39767
0.88465 0.32662 0.41910
0.97283 0.23503 0.37071
0.97517 0.19819 0.16410
0.00000 0.48293 0.22474
0.00000 0.48602 0.23041
0.18916 0.49191 0.25185
0.49962 0.51083 0.29635
0.71710 0.52889 0.33638
0.89071 0.52264 0.35740
1.00000 0.45297 0.29633
1.00000 0.39006 0.15883
0.00000 0.65130 0.21353
0.00000 0.65479 0.21736
0.00000 0.66128 0.23117
0.40700 0.67278 0.26839
0.67712 0.68453 0.29582
0.86176 0.69190 0.31527
1.00000 0.66938 0.24266
1.00000 0.61871 0.17283
0.00000 0.79016 0.20387
0.00000 0.79316 0.20621
0.00000 0.79972 0.21181
0.07682 0.80732 0.20453
0.59277 0.81220 0.26891
0.81998 0.81606 0.26177
0.97569 0.82239 0.24832
0.99589 0.79272 0.04147
0.00000 0.89443 0.18800
0.00000 0.89675 0.18472
0.00000 0.90313 0.17055
0.00000 0.91281 0.12917
0.40685 0.91826 0.15335
0.74251 0.92003 0.26760
0.92281 0.92937 0.22255
0.98184 0.92655 0.14208
0.00000 0.95918 0.23089
0.00000 0.96058 0.22862
0.00000 0.96400 0.22336
0.00000 0.97009 0.22059
0.39299 0.98062 0.24436
0.66398 0.99531 0.28634
0.82302 1.00000 0.31018
0.90214 1.00000 0.33392
0.00000 0.00000 0.52876
0.09155 0.00000 0.55226
0.31023 0.00000 0.60861
0.54984 0.04085 0.65409
0.73034 0.12709 0.67542
0.85527 0.08528 0.69833
0.93521 0.06716 0.70329
0.95640 0.18803 0.59326
0.00000 0.09349 0.54264
0.12095 0.11261 0.56199
0.33829 0.14069 0.59907
0.55826 0.19530 0.62656
0.73237 0.21155 0.65435
0.86547 0.22336 0.68258
0.94265 0.20563 0.69515
0.96270 0.24935 0.61061
0.00000 0.31473 0.52910
0.14103 0.32413 0.53502
0.35223 0.34653 0.54834
0.55438 0.36664 0.57242
0.73572 0.39135 0.60047
0.87985 0.41415 0.63863
0.97432 0.40839 0.67369
0.98619 0.37571 0.62670
0.00000 0.50216 0.48503
0.00000 0.50679 0.48931
0.26675 0.51232 0.50430
0.52440 0.52427 0.52438
0.72139 0.53738 0.55071
0.87961 0.54781 0.58314
0.99112 0.57023 0.62443
1.00000 0.53027 0.57936
0.00000 0.66471 0.44402
0.00000 0.66705 0.44744
0.00000 0.67283 0.45805
0.45091 0.68153 0.48032
0.68687 0.68997 0.50296
0.85547 0.70126 0.53660
0.98121 0.70767 0.56575
1.00000 0.69519 0.54622
0.00000 0.79899 0.42353
0.00000 0.80090 0.42476
0.00000 0.80505 0.42837
0.30303 0.81009 0.44303
0.62384 0.81474 0.47522
0.82326 0.82283 0.50344
0.96193 0.83128 0.54175
0.99254 0.82011 0.51220
0.00000 0.90344 0.41807
0.00000 0.90562 0.41906
0.00000 0.91060 0.42117
0.00000 0.91715 0.41960
0.48847 0.92145 0.43594
0.77004 0.92812 0.48799
0.93119 0.94347 0.49233
0.98725 0.94463 0.51698
0.00000 0.96802 0.41840
0.00000 0.96947 0.41854
0.00000 0.97310 0.41916
0.00000 0.97949 0.42307
0.43567 0.99203 0.44187
0.68436 1.00000 0.46724
0.82976 1.00000 0.48457
0.90566 1.00000 0.50047
0.00000 0.00000 0.76230
0.14617 0.00000 0.78337
0.33277 0.00000 0.82991
0.53944 0.00000 0.86856
0.73249 0.00686 0.88307
0.86839 0.15519 0.89882
0.94697 0.12466 0.88952
0.95410 0.23500 0.80313
0.00032 0.09821 0.77348
0.15730 0.10167 0.79162
0.36179 0.10985 0.82447
0.55861 0.15549 0.84746
0.74238 0.23705 0.85932
0.87540 0.27776 0.87850
0.95486 0.25134 0.88218
0.96227 0.29173 0.80745
0.08026 0.34499 0.75488
0.26060 0.37936 0.75604
0.42206 0.39343 0.76832
0.58723 0.40738 0.77917
0.75102 0.43520 0.79564
0.88520 0.44879 0.81742
0.97241 0.44022 0.84520
0.98586 0.44638 0.80379
0.00000 0.52882 0.70619
0.15733 0.53192 0.71091
0.36597 0.54045 0.72066
0.56102 0.55256 0.73234
0.73369 0.56653 0.74453
0.87939 0.58575 0.76668
0.98313 0.60749 0.78764
1.00000 0.61340 0.77812
0.00000 0.68235 0.65837
0.00000 0.68411 0.66289
0.21801 0.68936 0.67222
0.49196 0.69403 0.68552
0.70071 0.70053 0.70028
0.85660 0.70716 0.72090
0.97522 0.72084 0.74010
1.00000 0.73416 0.74691
0.00000 0.80673 0.62338
0.00000 0.80865 0.62602
0.00000 0.81262 0.63317
0.37378 0.81707 0.64413
0.64067 0.82005 0.66096
0.82321 0.82463 0.67978
0.95133 0.83152 0.70966
0.99862 0.83057 0.72381
0.00000 0.90909 0.59781
0.00000 0.91049 0.59993
0.00000 0.91365 0.60570
0.13670 0.91722 0.61624
0.55536 0.92193 0.63376
0.78173 0.93239 0.65733
0.92931 0.94804 0.68035
0.98803 0.95004 0.71850
0.00000 0.98011 0.58897
0.00000 0.98158 0.59044
0.00000 0.98627 0.59440
0.19853 0.99398 0.60232
0.50777 1.00000 0.61562
0.70641 1.00000 0.63316
0.83291 1.00000 0.65110
0.90996 1.00000 0.66315
0.14247 0.00000 0.87884
0.22261 0.00000 0.90682
0.36831 0.00000 0.94901
0.54052 0.00000 0.96660
0.71632 0.00000 0.97669
0.86689 0.04248 0.98073
0.92935 0.20635 0.97446
0.94888 0.28917 0.95896
0.14688 0.10485 0.91866
0.22650 0.09864 0.93845
0.37961 0.08621 0.96004
0.55725 0.08803 0.96475
0.73020 0.13041 0.97049
0.87666 0.25572 0.97347
0.93826 0.31035 0.97256
0.95821 0.34219 0.95635
0.19469 0.33869 0.93119
0.28752 0.36094 0.93449
0.45020 0.39042 0.93907
0.60592 0.40179 0.94485
0.76168 0.43390 0.94736
0.89495 0.46617 0.95112
0.96400 0.47701 0.96391
0.97900 0.47529 0.94015
0.24296 0.56192 0.88128
0.33022 0.57672 0.88400
0.47079 0.59131 0.89024
0.61694 0.59296 0.89846
0.76533 0.60625 0.90782
0.89541 0.62773 0.91747
0.98686 0.63568 0.93114
1.00000 0.64281 0.90434
0.00000 0.70028 0.83469
0.17205 0.70207 0.83778
0.36483 0.70565 0.84488
0.55450 0.71063 0.85579
0.72614 0.71816 0.86554
0.86684 0.73239 0.87902
0.98234 0.74805 0.88710
1.00000 0.76050 0.87695
0.00000 0.82084 0.79771
0.00000 0.82242 0.80014
0.14080 0.82494 0.80590
0.46097 0.82670 0.81453
0.67406 0.82936 0.82557
0.83591 0.83548 0.83567
0.96307 0.84042 0.85353
1.00000 0.84454 0.85712
0.00000 0.91912 0.76719
0.00000 0.91989 0.76919
0.00000 0.92212 0.77431
0.31271 0.92576 0.78298
0.60403 0.93109 0.79406
0.79136 0.93927 0.80653
0.92581 0.94703 0.82371
0.98792 0.94379 0.83786
0.00000 0.99517 0.74429
0.00000 0.99738 0.74583
0.00000 1.00000 0.74991
0.36820 1.00000 0.75682
0.57200 1.00000 0.76644
0.72711 1.00000 0.77874
0.84020 1.00000 0.79229
0.92007 1.00000 0.79933
0.21999 0.00000 0.90531
0.28692 0.00000 0.91823
0.40349 0.00000 0.93898
0.55671 0.00000 0.95227
0.71344 0.00000 0.95919
0.85449 0.00000 0.96380
0.93393 0.22750 0.96838
0.94634 0.36588 0.96915
0.23019 0.13098 0.93570
0.28866 0.12521 0.94267
0.41443 0.10127 0.95307
0.56879 0.07047 0.95859
0.72514 0.04989 0.96139
0.86368 0.13457 0.96526
0.94213 0.31713 0.97008
0.95211 0.41720 0.97054
0.25153 0.33464 0.96155
0.32126 0.33938 0.96199
0.45005 0.35172 0.96238
0.60319 0.36084 0.96380
0.75729 0.39029 0.96727
0.88649 0.44349 0.97113
0.96181 0.48358 0.97443
0.96860 0.53533 0.97248
0.29901 0.56755 0.96669
0.39105 0.58661 0.96791
0.53857 0.61998 0.97097
0.66330 0.62061 0.97446
0.78170 0.62144 0.97607
0.90303 0.66179 0.98013
0.98242 0.67715 0.98469
0.99303 0.68032 0.97312
0.28570 0.72556 0.97055
0.35942 0.73195 0.97248
0.48882 0.73935 0.97514
0.62599 0.74307 0.97569
0.75677 0.75123 0.97660
0.88237 0.77077 0.98765
0.98194 0.78679 0.98975
1.00000 0.78526 0.96884
0.00000 0.83306 0.95522
0.19264 0.83345 0.95576
0.37184 0.83453 0.95687
0.55026 0.83719 0.96033
0.71729 0.84162 0.97108
0.85340 0.84914 0.98005
0.97017 0.85872 0.97871
1.00000 0.86076 0.95912
0.00000 0.93076 0.91352
0.00000 0.93149 0.91525
0.19797 0.93296 0.91926
0.47020 0.93463 0.92456
0.66601 0.93737 0.93135
0.81661 0.94375 0.93780
0.94601 0.94615 0.94582
1.00000 0.93964 0.94451
0.09142 1.00000 0.86423
0.20171 1.00000 0.86546
0.34411 1.00000 0.86851
0.49442 1.00000 0.87384
0.63906 1.00000 0.88175
0.76312 1.00000 0.89248
0.87171 1.00000 0.90411
0.94922 1.00000 0.91105
0.27941 0.09383 0.94615
0.33112 0.09642 0.95495
0.43662 0.10205 0.95974
0.57308 0.10971 0.96029
0.71604 0.11731 0.96199
0.84662 0.00000 0.96386
0.92767 0.12064 0.96659
0.94618 0.35863 0.96979
0.29470 0.16922 0.95084
0.34959 0.17056 0.95687
0.45168 0.17485 0.96109
0.58575 0.18902 0.96142
0.72746 0.21291 0.96320
0.85530 0.18766 0.96520
0.93611 0.24207 0.96820
0.95176 0.40824 0.97103
0.32820 0.34477 0.96052
0.37674 0.34757 0.96156
0.47958 0.35047 0.96254
0.61636 0.36379 0.96363
0.75506 0.38793 0.96689
0.87447 0.41412 0.97011
0.95435 0.44466 0.97213
0.96618 0.52342 0.97434
0.38329 0.57337 0.96705
0.44379 0.58448 0.96772
0.56193 0.60694 0.96938
0.68663 0.61875 0.97145
0.79599 0.62518 0.97393
0.89796 0.64712 0.97737
0.97496 0.68494 0.98134
0.98190 0.68358 0.98217
0.43265 0.74544 0.97415
0.49581 0.75681 0.97524
0.60756 0.77439 0.97793
0.71742 0.78305 0.98006
0.80867 0.78356 0.98160
0.89904 0.79543 0.98676
0.97719 0.81519 0.99429
1.00000 0.80663 0.99333
0.37530 0.84211 0.98051
0.42853 0.84379 0.98107
0.52953 0.84627 0.98217
0.65271 0.84800 0.98436
0.76261 0.85417 0.98830
0.86643 0.86897 0.99602
0.96169 0.88549 1.00000
1.00000 0.87546 1.00000
0.29176 0.92150 0.98039
0.34807 0.92210 0.98105
0.45507 0.92367 0.98288
0.58964 0.92668 0.98624
0.71460 0.93343 0.99107
0.82865 0.94316 0.99782
0.93522 0.94633 1.00000
1.00000 0.93245 1.00000
0.39228 0.99177 0.94804
0.42211 0.99314 0.94922
0.49258 0.99593 0.95180
0.58716 1.00000 0.95711
0.68718 1.00000 0.96469
0.78955 1.00000 0.97532
0.89544 1.00000 0.98608
0.99102 0.99117 0.99114
