fuji-film/cube-lut/provia.cube
LUT_3D_SIZE 5
DOMAIN_MIN 0.000000 0.000000 0.000000
DOMAIN_MAX 0.903226 0.903226 0.903226
0.00000 0.00000 0.00000
0.26818 0.01370 0.00358
0.71101 0.00000 0.00000
0.99077 0.00000 0.07208
1.00000 0.00000 0.00000
0.00000 0.19754 0.00000
0.20192 0.20780 0.00000
0.70417 0.20175 0.00000
0.99923 0.16096 0.00000
1.00000 0.10912 0.00000
0.00000 0.57026 0.00000
0.00000 0.57636 0.00000
0.57424 0.58440 0.00000
0.94838 0.54982 0.00000
1.00000 0.46074 0.00000
0.00000 0.84069 0.00000
0.00000 0.84428 0.00000
0.17395 0.84879 0.00000
0.79892 0.83670 0.00000
0.98747 0.80424 0.00000
0.00000 0.97336 0.00000
0.00000 0.97525 0.00000
0.00000 0.97935 0.00000
0.62609 0.98757 0.00000
0.88194 0.98613 0.00000
0.02334 0.01270 0.25800
0.30692 0.05005 0.29349
0.73223 0.11119 0.32937
0.99837 0.04664 0.38600
1.00000 0.00000 0.17950
0.00000 0.23411 0.22771
0.24803 0.24857 0.24821
0.69769 0.29348 0.31125
1.00000 0.23195 0.28572
1.00000 0.17454 0.00000
0.00000 0.59199 0.18093
0.00000 0.59778 0.17037
0.57154 0.60527 0.23036
0.94558 0.58818 0.18243
1.00000 0.47864 0.00000
0.00000 0.84945 0.11895
0.00000 0.85367 0.08809
0.09615 0.85565 0.05021
0.81487 0.84661 0.08388
0.98944 0.82038 0.00000
0.00000 0.97885 0.12756
0.00000 0.98042 0.10000
0.00000 0.98442 0.04726
0.64200 0.99577 0.14985
0.88963 0.99514 0.20621
0.08689 0.00000 0.72660
0.34416 0.00000 0.75315
0.76464 0.10126 0.77573
1.00000 0.16195 0.77994
1.00000 0.19949 0.68257
0.03077 0.30098 0.69472
0.35687 0.32945 0.69687
0.72679 0.36305 0.70540
0.98337 0.38280 0.73842
1.00000 0.35094 0.70143
0.00000 0.61977 0.61023
0.00000 0.61865 0.61130
0.62093 0.62062 0.62024
0.92757 0.63311 0.64671
1.00000 0.64786 0.65817
0.00000 0.85110 0.54780
0.00000 0.85040 0.54751
0.38627 0.84396 0.55037
0.83504 0.85060 0.58096
1.00000 0.85308 0.61989
0.00000 0.98965 0.50212
0.00000 0.99104 0.50157
0.00000 0.99624 0.50568
0.68595 1.00000 0.52727
0.90236 1.00000 0.54961
0.18013 0.02200 0.95390
0.39814 0.00000 0.96257
0.75772 0.00000 0.97657
1.00000 0.13241 0.98805
1.00000 0.27280 0.96292
0.14769 0.30363 0.96405
0.39221 0.31257 0.96532
0.75341 0.34686 0.97092
1.00000 0.42559 0.97065
1.00000 0.44858 0.95820
0.00000 0.65748 0.92873
0.35130 0.66572 0.92300
0.68726 0.67572 0.92001
0.93468 0.70017 0.92133
1.00000 0.71494 0.91036
0.00000 0.86262 0.85640
0.00000 0.86055 0.85530
0.50599 0.85504 0.85513
0.86179 0.86169 0.86172
1.00000 0.86169 0.86755
0.00000 1.00000 0.78650
0.00000 1.00000 0.78797
0.39901 1.00000 0.79238
0.73507 1.00000 0.80165
0.92072 1.00000 0.81031
0.30049 0.14930 0.96270
0.46293 0.15244 0.96504
0.76215 0.17641 0.96888
0.99247 0.17439 0.97485
1.00000 0.34291 0.97702
0.29136 0.33529 0.96564
0.46059 0.33457 0.96679
0.75810 0.35169 0.97120
0.98375 0.39951 0.97728
1.00000 0.49679 0.98095
0.34001 0.69090 0.97584
0.53944 0.72039 0.97906
0.76413 0.73014 0.98307
0.94899 0.75120 0.98880
1.00000 0.75985 0.99215
0.14046 0.86581 0.98482
0.36640 0.86502 0.98559
0.66072 0.86686 0.98907
0.88434 0.88745 0.99725
1.00000 0.88696 0.99929
0.28500 0.98733 0.95065
0.39464 0.98893 0.95292
0.59327 0.99301 0.96000
0.79610 0.99541 0.97099
0.97900 0.97904 0.97896
