fuji-film/cube-lut/provia.cube
LUT_3D_SIZE 32
0.00000 0.00000 0.00000
0.01709 0.00311 0.00053
0.03757 0.00118 0.00078
0.06568 0.00261 0.00215
0.10321 0.00185 0.00163
0.14971 0.00430 0.00154
0.20708 0.01103 0.00224
0.26818 0.01370 0.00358
0.33048 0.02011 0.00638
0.39697 0.01888 0.00941
0.46187 0.01393 0.01236
0.52632 0.00230 0.01294
0.59169 0.00000 0.00954
0.65300 0.00000 0.00100
0.71101 0.00000 0.00000
0.76440 0.00000 0.00246
0.81275 0.00000 0.01988
0.85717 0.00000 0.03476
0.89596 0.00000 0.04947
0.93158 0.00000 0.06222
0.96307 0.00000 0.06946
0.99077 0.00000 0.07208
1.00000 0.00000 0.06834
1.00000 0.00000 0.04819
1.00000 0.00000 0.00000
1.00000 0.00000 0.00000
1.00000 0.00000 0.00000
1.00000 0.00000 0.00000
1.00000 0.00000 0.00000
1.00000 0.00000 0.00000
1.00000 0.00000 0.00000
1.00000 0.00000 0.00000
0.00000 0.01430 0.00000
0.01356 0.01450 0.00114
0.03309 0.01638 0.00000
0.06112 0.01425 0.00000
0.09802 0.01575 0.00000
0.14422 0.02016 0.00000
0.20377 0.02382 0.00000
0.26514 0.02967 0.00100
0.32854 0.03565 0.00271
0.39590 0.03515 0.00399
0.46120 0.03223 0.00507
0.52597 0.02373 0.00420
0.59161 0.01129 0.00000
0.65309 0.00016 0.00000
0.71137 0.00000 0.00000
0.76478 0.00000 0.00000
0.81314 0.00000 0.00000
0.85753 0.00000 0.00363
0.89635 0.00000 0.02157
0.93201 0.00000 0.03286
0.96356 0.00000 0.04169
0.99134 0.00000 0.04452
1.00000 0.00000 0.03788
1.00000 0.00000 0.00139
1.00000 0.00000 0.00000
1.00000 0.00000 0.00000
1.00000 0.00000 0.00000
1.00000 0.00000 0.00000
1.00000 0.00000 0.00000
1.00000 0.00000 0.00000
1.00000 0.00000 0.00000
1.00000 0.00000 0.00000
0.00000 0.02809 0.00000
0.00589 0.02768 0.00000
0.02652 0.02953 0.00000
0.05546 0.02900 0.00000
0.09203 0.03239 0.00000
0.13916 0.03494 0.00000
0.19921 0.03880 0.00000
0.26173 0.04561 0.00000
0.32657 0.04847 0.00029
0.39469 0.05034 0.00034
0.46049 0.05023 0.00000
0.52564 0.04682 0.00000
0.59150 0.03692 0.00000
0.65311 0.02960 0.00000
0.71172 0.01238 0.00000
0.76512 0.00000 0.00000
0.81358 0.00000 0.00000
0.85802 0.00000 0.00000
0.89695 0.00000 0.00000
0.93261 0.00000 0.00000
0.96420 0.00000 0.00000
0.99207 0.00000 0.00000
1.00000 0.00000 0.00000
1.00000 0.00000 0.00000
1.00000 0.00000 0.00000
1.00000 0.00000 0.00000
1.00000 0.00000 0.00000
1.00000 0.00000 0.00000
1.00000 0.00000 0.00000
1.00000 0.00000 0.00000
1.00000 0.00000 0.00000
1.00000 0.00000 0.00000
0.00000 0.04815 0.00000
0.00000 0.04597 0.00000
0.01618 0.04646 0.00077
0.04568 0.04765 0.00100
0.08441 0.05118 0.00000
0.13052 0.05500 0.00000
0.19311 0.05688 0.00000
0.25671 0.06323 0.00000
0.32322 0.06426 0.00000
0.39249 0.06664 0.00000
0.45900 0.06908 0.00000
0.52496 0.07004 0.00000
0.59109 0.06753 0.00000
0.65301 0.06410 0.00000
0.71205 0.05346 0.00000
0.76548 0.02898 0.00000
0.81410 0.00002 0.00000
0.85866 0.00000 0.00000
0.89774 0.00000 0.00000
0.93354 0.00000 0.00000
0.96520 0.00000 0.00000
0.99317 0.00000 0.00000
1.00000 0.00000 0.00000
1.00000 0.00000 0.00000
1.00000 0.00000 0.00000
1.00000 0.00000 0.00000
1.00000 0.00000 0.00000
1.00000 0.00000 0.00000
1.00000 0.00000 0.00000
1.00000 0.00000 0.00000
1.00000 0.00000 0.00000
1.00000 0.00000 0.00000
0.00000 0.07394 0.00000
0.00000 0.07156 0.00187
0.00179 0.07092 0.00423
0.02998 0.07303 0.00389
0.07077 0.07570 0.00384
0.12057 0.08106 0.00000
0.18212 0.08420 0.00000
0.24863 0.08611 0.00000
0.31716 0.08653 0.00000
0.38779 0.08733 0.00000
0.45572 0.09080 0.00000
0.52342 0.09394 0.00000
0.59004 0.09551 0.00000
0.65253 0.09436 0.00000
0.71210 0.09028 0.00000
0.76566 0.07817 0.00000
0.81462 0.06104 0.00000
0.85932 0.04068 0.00000
0.89871 0.01861 0.00000
0.93474 0.00000 0.00000
0.96648 0.00000 0.00000
0.99452 0.00000 0.00000
1.00000 0.00000 0.00000
1.00000 0.00000 0.00000
1.00000 0.00000 0.00000
1.00000 0.00000 0.00000
1.00000 0.00000 0.00000
1.00000 0.00000 0.00000
1.00000 0.00000 0.00000
1.00000 0.00000 0.00000
1.00000 0.00000 0.00000
1.00000 0.00448 0.00000
0.00000 0.10921 0.00000
0.00000 0.10698 0.00000
0.00000 0.10572 0.00266
0.00910 0.10644 0.00368
0.04536 0.10932 0.00699
0.10121 0.11115 0.00868
0.16602 0.11626 0.00276
0.23544 0.12047 0.00000
0.30714 0.11921 0.00000
0.38000 0.11822 0.00000
0.45010 0.11896 0.00000
0.52046 0.12216 0.00000
0.58793 0.12370 0.00000
0.65125 0.12416 0.00000
0.71140 0.12288 0.00000
0.76536 0.11664 0.00000
0.81483 0.10942 0.00000
0.85989 0.09987 0.00000
0.89972 0.09067 0.00000
0.93607 0.07940 0.00000
0.96790 0.06506 0.00000
0.99615 0.03041 0.00000
1.00000 0.00000 0.00000
1.00000 0.00000 0.00000
1.00000 0.00000 0.00000
1.00000 0.00000 0.00000
1.00000 0.00000 0.00000
1.00000 0.00000 0.00000
1.00000 0.00000 0.00000
1.00000 0.00000 0.00000
1.00000 0.00000 0.00000
1.00000 0.07610 0.00000
0.00000 0.14988 0.00000
0.00000 0.14815 0.00000
0.00000 0.14695 0.00025
0.00000 0.14665 0.00715
0.01620 0.14852 0.01040
0.07402 0.15157 0.01281
0.14210 0.15497 0.01106
0.21873 0.16091 0.00000
0.29456 0.16220 0.00000
0.36872 0.16100 0.00000
0.44295 0.16035 0.00000
0.51519 0.16035 0.00000
0.58380 0.15905 0.00000
0.64846 0.15860 0.00000
0.70918 0.15740 0.00000
0.76398 0.15451 0.00000
0.81436 0.15095 0.00000
0.86008 0.14630 0.00000
0.90058 0.14214 0.00000
0.93746 0.13177 0.00000
0.96956 0.11991 0.00000
0.99790 0.10471 0.00000
1.00000 0.08178 0.00000
1.00000 0.04624 0.00000
1.00000 0.00000 0.00000
1.00000 0.00000 0.00000
1.00000 0.00000 0.00000
1.00000 0.00474 0.00000
1.00000 0.03016 0.00000
1.00000 0.05001 0.00000
1.00000 0.07483 0.00000
1.00000 0.12673 0.00000
0.00000 0.19754 0.00000
0.00000 0.19669 0.00000
0.00000 0.19639 0.00000
0.00000 0.19684 0.00000
0.00000 0.19849 0.00000
0.04842 0.20057 0.00000
0.12521 0.20351 0.00000
0.20192 0.20780 0.00000
0.27953 0.21161 0.00000
0.35489 0.21339 0.00000
0.43078 0.21387 0.00000
0.50576 0.21157 0.00000
0.57596 0.20673 0.00000
0.64265 0.20403 0.00000
0.70417 0.20175 0.00000
0.76068 0.19806 0.00000
0.81247 0.19500 0.00000
0.85958 0.18888 0.00000
0.90120 0.18250 0.00000
0.93843 0.17740 0.00000
0.97078 0.17136 0.00000
0.99923 0.16096 0.00000
1.00000 0.14629 0.00000
1.00000 0.12740 0.00000
1.00000 0.10573 0.00000
1.00000 0.08788 0.00000
1.00000 0.08743 0.00000
1.00000 0.10067 0.00000
1.00000 0.10912 0.00000
1.00000 0.11583 0.00000
1.00000 0.12999 0.00000
1.00000 0.16757 0.00000
0.00000 0.25087 0.00000
0.00000 0.25052 0.00000
0.00000 0.25063 0.00000
0.00000 0.25113 0.00000
0.00000 0.25237 0.00000
0.00578 0.25405 0.00000
0.10759 0.25629 0.00000
0.18651 0.25972 0.00000
0.26210 0.26373 0.00000
0.33754 0.26731 0.00000
0.41424 0.26960 0.00000
0.48952 0.26916 0.00000
0.56343 0.26479 0.00000
0.63235 0.26196 0.00000
0.69542 0.25686 0.00000
0.75469 0.24912 0.00000
0.80855 0.24250 0.00000
0.85738 0.23617 0.00000
0.90021 0.23066 0.00000
0.93815 0.22457 0.00000
0.97110 0.21748 0.00000
0.99989 0.20758 0.00000
1.00000 0.19564 0.00000
1.00000 0.18208 0.00000
1.00000 0.16762 0.00000
1.00000 0.15639 0.00000
1.00000 0.15439 0.00000
1.00000 0.15861 0.00000
1.00000 0.16085 0.00000
1.00000 0.16336 0.00000
1.00000 0.17321 0.00000
1.00000 0.21014 0.00000
0.00000 0.30624 0.00000
0.00000 0.30645 0.00000
0.00000 0.30677 0.00000
0.00000 0.30737 0.00000
0.00000 0.30820 0.00000
0.00000 0.30931 0.00000
0.06923 0.31084 0.00000
0.16132 0.31328 0.00000
0.24014 0.31698 0.00000
0.31565 0.32160 0.00000
0.39310 0.32357 0.00000
0.46658 0.32506 0.00000
0.54620 0.32385 0.00000
0.61760 0.32117 0.00000
0.68306 0.31638 0.00000
0.74505 0.30862 0.00000
0.80132 0.29964 0.00000
0.85213 0.29215 0.00000
0.89643 0.28446 0.00000
0.93570 0.27430 0.00000
0.96967 0.26432 0.00000
0.99921 0.25322 0.00000
1.00000 0.24229 0.00000
1.00000 0.23221 0.00000
1.00000 0.22259 0.00000
1.00000 0.21402 0.00000
1.00000 0.20898 0.00000
1.00000 0.20816 0.00000
1.00000 0.20646 0.00000
1.00000 0.20693 0.00000
1.00000 0.21787 0.00000
1.00000 0.24028 0.00000
0.00000 0.36220 0.00000
0.00000 0.36256 0.00000
0.00000 0.36303 0.00000
0.00000 0.36371 0.00000
0.00000 0.36462 0.00000
0.00000 0.36578 0.00000
0.00000 0.36717 0.00000
0.12031 0.36900 0.00000
0.21258 0.37159 0.00000
0.29320 0.37421 0.00000
0.37076 0.37630 0.00000
0.44381 0.38062 0.00000
0.52534 0.37949 0.00000
0.59782 0.37579 0.00000
0.66671 0.37422 0.00000
0.73115 0.37003 0.00000
0.78973 0.36213 0.00000
0.84317 0.35162 0.00000
0.88904 0.34078 0.00000
0.92988 0.33004 0.00000
0.96515 0.31974 0.00000
0.99588 0.30865 0.00000
1.00000 0.29789 0.00000
1.00000 0.28786 0.00000
1.00000 0.27679 0.00000
1.00000 0.26297 0.00000
1.00000 0.25316 0.00000
1.00000 0.24689 0.00000
1.00000 0.24356 0.00000
1.00000 0.24278 0.00000
1.00000 0.25244 0.00000
1.00000 0.28748 0.00000
0.00000 0.41731 0.00000
0.00000 0.41749 0.00000
0.00000 0.41774 0.00000
0.00000 0.41805 0.00000
0.00000 0.41847 0.00000
0.00000 0.41893 0.00000
0.00000 0.41938 0.00000
0.06862 0.42119 0.00000
0.18341 0.42448 0.00000
0.26852 0.42839 0.00000
0.34802 0.43052 0.00000
0.42424 0.43115 0.00000
0.50200 0.43216 0.00000
0.57351 0.43446 0.00000
0.64523 0.43475 0.00000
0.71283 0.43082 0.00000
0.77348 0.42374 0.00000
0.82939 0.41411 0.00000
0.87690 0.40387 0.00000
0.91964 0.39292 0.00000
0.95679 0.38160 0.00000
0.98920 0.36939 0.00000
1.00000 0.35707 0.00000
1.00000 0.34469 0.00000
1.00000 0.33086 0.00000
1.00000 0.31717 0.00000
1.00000 0.30749 0.00000
1.00000 0.30068 0.00000
1.00000 0.29606 0.00000
1.00000 0.29395 0.00000
1.00000 0.30010 0.00000
1.00000 0.32925 0.00000
0.00000 0.46978 0.00000
0.00000 0.47035 0.00000
0.00000 0.47108 0.00000
0.00000 0.47209 0.00000
0.00000 0.47344 0.00000
0.00000 0.47507 0.00000
0.00000 0.47695 0.00000
0.00000 0.47897 0.00000
0.13902 0.48072 0.00000
0.23964 0.48259 0.00000
0.32334 0.48437 0.00000
0.40190 0.48542 0.00000
0.47679 0.48656 0.00000
0.55121 0.48774 0.00000
0.62262 0.48676 0.00000
0.69192 0.48323 0.00000
0.75344 0.47831 0.00000
0.81102 0.47116 0.00000
0.86095 0.46189 0.00000
0.90613 0.45083 0.00000
0.94536 0.43868 0.00000
0.97942 0.42632 0.00000
1.00000 0.41415 0.00000
1.00000 0.40282 0.00000
1.00000 0.39042 0.00000
1.00000 0.37790 0.00000
1.00000 0.36787 0.00000
1.00000 0.35859 0.00000
1.00000 0.35029 0.00000
1.00000 0.34574 0.00000
1.00000 0.35220 0.00000
1.00000 0.37486 0.00000
0.00000 0.52201 0.00000
0.00000 0.52249 0.00000
0.00000 0.52294 0.00000
0.00000 0.52356 0.00000
0.00000 0.52436 0.00000
0.00000 0.52532 0.00000
0.00000 0.52636 0.00000
0.00000 0.52742 0.00000
0.08377 0.52879 0.00000
0.20841 0.53145 0.00000
0.29685 0.53456 0.00000
0.37785 0.53695 0.00000
0.45154 0.53811 0.00000
0.52818 0.53798 0.00000
0.59893 0.53740 0.00000
0.66694 0.53582 0.00000
0.72935 0.53277 0.00000
0.78780 0.52756 0.00000
0.84059 0.52026 0.00000
0.88816 0.51103 0.00000
0.92961 0.50055 0.00000
0.96521 0.48909 0.00000
0.99470 0.47669 0.00000
1.00000 0.46493 0.00000
1.00000 0.45306 0.00000
1.00000 0.43981 0.00000
1.00000 0.42371 0.00000
1.00000 0.41123 0.00000
1.00000 0.40277 0.00000
1.00000 0.39720 0.00000
1.00000 0.40049 0.00000
1.00000 0.41866 0.00000
0.00000 0.57026 0.00000
0.00000 0.57064 0.00000
0.00000 0.57110 0.00000
0.00000 0.57181 0.00000
0.00000 0.57273 0.00000
0.00000 0.57384 0.00000
0.00000 0.57507 0.00000
0.00000 0.57636 0.00000
0.00000 0.57768 0.00000
0.16280 0.57916 0.00000
0.26532 0.58081 0.00000
0.35232 0.58223 0.00000
0.42634 0.58369 0.00000
0.50306 0.58416 0.00000
0.57424 0.58440 0.00000
0.64071 0.58418 0.00000
0.70390 0.58311 0.00000
0.76275 0.58043 0.00000
0.81732 0.57565 0.00000
0.86646 0.56883 0.00000
0.91038 0.56012 0.00000
0.94838 0.54982 0.00000
0.98068 0.53808 0.00000
1.00000 0.52612 0.00000
1.00000 0.51312 0.00000
1.00000 0.49885 0.00000
1.00000 0.48412 0.00000
1.00000 0.47137 0.00000
1.00000 0.46074 0.00000
1.00000 0.45379 0.00000
1.00000 0.45423 0.00000
1.00000 0.46782 0.00000
0.00000 0.61584 0.00000
0.00000 0.61630 0.00000
0.00000 0.61682 0.00000
0.00000 0.61756 0.00000
0.00000 0.61853 0.00000
0.00000 0.61969 0.00000
0.00000 0.62109 0.00000
0.00000 0.62262 0.00000
0.00000 0.62417 0.00000
0.07386 0.62568 0.00000
0.21989 0.62698 0.00000
0.31887 0.62769 0.00000
0.39641 0.62845 0.00000
0.47548 0.62854 0.00000
0.54870 0.62853 0.00000
0.61455 0.62881 0.00000
0.67840 0.62829 0.00000
0.73804 0.62666 0.00000
0.79387 0.62353 0.00000
0.84333 0.61905 0.00000
0.88891 0.61278 0.00000
0.92863 0.60493 0.00000
0.96355 0.59528 0.00000
0.99030 0.58436 0.00000
1.00000 0.57228 0.00000
1.00000 0.55963 0.00000
1.00000 0.54634 0.00000
1.00000 0.53184 0.00000
1.00000 0.51887 0.00000
1.00000 0.50923 0.00000
1.00000 0.50699 0.00000
1.00000 0.51729 0.00000
0.00000 0.65889 0.00000
0.00000 0.65931 0.00000
0.00000 0.65981 0.00000
0.00000 0.66050 0.00000
0.00000 0.66141 0.00000
0.00000 0.66251 0.00000
0.00000 0.66375 0.00000
0.00000 0.66505 0.00000
0.00000 0.66635 0.00000
0.00000 0.66759 0.00000
0.15048 0.66871 0.00000
0.27370 0.66960 0.00000
0.36204 0.67043 0.00000
0.44525 0.67077 0.00000
0.51932 0.67114 0.00000
0.58627 0.67142 0.00000
0.65247 0.67096 0.00000
0.71227 0.67000 0.00000
0.76924 0.66816 0.00000
0.81970 0.66552 0.00000
0.86639 0.66144 0.00000
0.90761 0.65580 0.00000
0.94419 0.64820 0.00000
0.97444 0.63867 0.00000
0.99570 0.62799 0.00000
1.00000 0.61586 0.00000
1.00000 0.60275 0.00000
1.00000 0.58921 0.00000
1.00000 0.57627 0.00000
1.00000 0.56566 0.00000
1.00000 0.56134 0.00000
1.00000 0.56670 0.00000
0.00000 0.70015 0.00000
0.00000 0.70041 0.00000
0.00000 0.70086 0.00000
0.00000 0.70152 0.00000
0.00000 0.70238 0.00000
0.00000 0.70344 0.00000
0.00000 0.70464 0.00000
0.00000 0.70594 0.00000
0.00000 0.70730 0.00000
0.00000 0.70877 0.00000
0.00000 0.71009 0.00000
0.19988 0.71121 0.00000
0.31447 0.71214 0.00000
0.40495 0.71266 0.00000
0.48008 0.71296 0.00000
0.55368 0.71268 0.00000
0.62359 0.71192 0.00000
0.68501 0.71099 0.00000
0.74314 0.70962 0.00000
0.79577 0.70780 0.00000
0.84378 0.70507 0.00000
0.88623 0.70115 0.00000
0.92364 0.69562 0.00000
0.95664 0.68816 0.00000
0.98155 0.67916 0.00000
0.99807 0.66851 0.00000
1.00000 0.65648 0.00000
1.00000 0.64333 0.00000
1.00000 0.63068 0.00000
1.00000 0.62003 0.00000
1.00000 0.61377 0.00000
1.00000 0.61559 0.00000
0.00000 0.74019 0.00000
0.00000 0.74046 0.00000
0.00000 0.74076 0.00000
0.00000 0.74125 0.00000
0.00000 0.74212 0.00000
0.00000 0.74315 0.00000
0.00000 0.74437 0.00000
0.00000 0.74570 0.00000
0.00000 0.74710 0.00000
0.00000 0.74855 0.00000
0.00000 0.74983 0.00000
0.01017 0.75094 0.00000
0.22523 0.75185 0.00000
0.34650 0.75175 0.00000
0.43673 0.75120 0.00000
0.51691 0.75030 0.00000
0.58998 0.74917 0.00000
0.65598 0.74813 0.00000
0.71627 0.74720 0.00000
0.77153 0.74603 0.00000
0.82049 0.74442 0.00000
0.86464 0.74158 0.00000
0.90305 0.73740 0.00000
0.93762 0.73147 0.00000
0.96563 0.72367 0.00000
0.98533 0.71420 0.00000
0.99746 0.70349 0.00000
1.00000 0.69232 0.00000
1.00000 0.68113 0.00000
1.00000 0.67129 0.00000
1.00000 0.66425 0.00000
1.00000 0.66338 0.00000
0.00000 0.77672 0.00000
0.00000 0.77701 0.00000
0.00000 0.77734 0.00000
0.00000 0.77780 0.00000
0.00000 0.77840 0.00000
0.00000 0.77943 0.00000
0.00000 0.78082 0.00000
0.00000 0.78241 0.00000
0.00000 0.78412 0.00000
0.00000 0.78591 0.00000
0.00000 0.78754 0.00000
0.00000 0.78861 0.00000
0.07701 0.78886 0.00000
0.26254 0.78862 0.00000
0.37937 0.78745 0.00000
0.47243 0.78585 0.00000
0.55030 0.78435 0.00000
0.62262 0.78284 0.00000
0.68770 0.78174 0.00000
0.74667 0.78071 0.00000
0.79729 0.77936 0.00000
0.84299 0.77697 0.00000
0.88281 0.77361 0.00000
0.91842 0.76902 0.00000
0.94829 0.76303 0.00000
0.97050 0.75533 0.00000
0.98639 0.74620 0.00000
0.99608 0.73668 0.00000
1.00000 0.72678 0.00000
1.00000 0.71700 0.00000
1.00000 0.70947 0.00000
1.00000 0.70690 0.00000
0.00000 0.81085 0.00000
0.00000 0.81113 0.00000
0.00000 0.81144 0.00000
0.00000 0.81188 0.00000
0.00000 0.81245 0.00000
0.00000 0.81314 0.00000
0.00000 0.81425 0.00000
0.00000 0.81579 0.00000
0.00000 0.81744 0.00000
0.00000 0.81902 0.00000
0.00000 0.82032 0.00000
0.00000 0.82112 0.00000
0.00000 0.82138 0.00000
0.11627 0.82106 0.00000
0.30081 0.81977 0.00000
0.40617 0.81831 0.00000
0.50077 0.81625 0.00000
0.58493 0.81419 0.00000
0.65554 0.81259 0.00000
0.71952 0.81119 0.00000
0.77370 0.80987 0.00000
0.82176 0.80794 0.00000
0.86324 0.80529 0.00000
0.89914 0.80183 0.00000
0.93075 0.79713 0.00000
0.95549 0.79103 0.00000
0.97436 0.78360 0.00000
0.98679 0.77571 0.00000
0.99522 0.76743 0.00000
1.00000 0.75915 0.00000
1.00000 0.75195 0.00000
1.00000 0.74825 0.00000
0.00000 0.84069 0.00000
0.00000 0.84090 0.00000
0.00000 0.84114 0.00000
0.00000 0.84150 0.00000
0.00000 0.84198 0.00000
0.00000 0.84256 0.00000
0.00000 0.84320 0.00000
0.00000 0.84428 0.00000
0.00000 0.84571 0.00000
0.00000 0.84718 0.00000
0.00000 0.84851 0.00000
0.00000 0.84945 0.00000
0.00000 0.84985 0.00000
0.00000 0.84952 0.00000
0.17395 0.84879 0.00000
0.33532 0.84735 0.00000
0.44674 0.84556 0.00000
0.53814 0.84359 0.00000
0.61802 0.84168 0.00000
0.68746 0.83996 0.00000
0.74739 0.83838 0.00000
0.79892 0.83670 0.00000
0.84280 0.83475 0.00000
0.88019 0.83225 0.00000
0.91303 0.82873 0.00000
0.94015 0.82407 0.00000
0.96138 0.81824 0.00000
0.97663 0.81153 0.00000
0.98747 0.80424 0.00000
0.99482 0.79677 0.00000
0.99974 0.79055 0.00000
1.00000 0.78637 0.00000
0.00000 0.86712 0.00000
0.00000 0.86738 0.00000
0.00000 0.86767 0.00000
0.00000 0.86808 0.00000
0.00000 0.86860 0.00000
0.00000 0.86915 0.00000
0.00000 0.86978 0.00000
0.00000 0.87055 0.00000
0.00000 0.87182 0.00000
0.00000 0.87314 0.00000
0.00000 0.87438 0.00000
0.00000 0.87541 0.00000
0.00000 0.87600 0.00000
0.00000 0.87614 0.00000
0.00000 0.87562 0.00000
0.25105 0.87426 0.00000
0.38267 0.87262 0.00000
0.48674 0.87066 0.00000
0.57624 0.86847 0.00000
0.65221 0.86644 0.00000
0.71865 0.86451 0.00000
0.77362 0.86294 0.00000
0.82113 0.86136 0.00000
0.86083 0.85973 0.00000
0.89576 0.85720 0.00000
0.92505 0.85366 0.00000
0.94838 0.84918 0.00000
0.96630 0.84410 0.00000
0.97936 0.83847 0.00000
0.98844 0.83253 0.00000
0.99457 0.82696 0.00000
0.99874 0.82252 0.00000
0.00000 0.89146 0.00000
0.00000 0.89166 0.00000
0.00000 0.89188 0.00000
0.00000 0.89220 0.00000
0.00000 0.89261 0.00000
0.00000 0.89312 0.00000
0.00000 0.89374 0.00000
0.00000 0.89434 0.00000
0.00000 0.89527 0.00000
0.00000 0.89645 0.00000
0.00000 0.89753 0.00000
0.00000 0.89848 0.00000
0.00000 0.89921 0.00000
0.00000 0.89968 0.00000
0.00000 0.89957 0.00000
0.09801 0.89876 0.00000
0.31094 0.89709 0.00000
0.43109 0.89510 0.00000
0.53061 0.89278 0.00000
0.61322 0.89061 0.00000
0.68623 0.88867 0.00000
0.74665 0.88723 0.00000
0.79851 0.88604 0.00000
0.84177 0.88484 0.00000
0.87851 0.88317 0.00000
0.91044 0.88077 0.00000
0.93587 0.87772 0.00000
0.95630 0.87385 0.00000
0.97155 0.86937 0.00000
0.98241 0.86456 0.00000
0.98964 0.85964 0.00000
0.99458 0.85496 0.00000
0.00000 0.91272 0.00000
0.00000 0.91293 0.00000
0.00000 0.91317 0.00000
0.00000 0.91349 0.00000
0.00000 0.91389 0.00000
0.00000 0.91433 0.00000
0.00000 0.91479 0.00000
0.00000 0.91529 0.00000
0.00000 0.91591 0.00000
0.00000 0.91696 0.00000
0.00000 0.91811 0.00000
0.00000 0.91913 0.00000
0.00000 0.91994 0.00000
0.00000 0.92036 0.00000
0.00000 0.92026 0.00000
0.00000 0.91951 0.00000
0.22696 0.91815 0.00000
0.37507 0.91628 0.00000
0.48022 0.91431 0.00000
0.57145 0.91226 0.00000
0.64985 0.91081 0.00000
0.71745 0.90993 0.00000
0.77432 0.90964 0.00000
0.82138 0.90938 0.00000
0.86081 0.90888 0.00000
0.89531 0.90767 0.00000
0.92322 0.90571 0.00000
0.94570 0.90290 0.00000
0.96298 0.89944 0.00000
0.97549 0.89533 0.00000
0.98403 0.89019 0.00000
0.98910 0.88395 0.00000
0.00000 0.93083 0.00000
0.00000 0.93098 0.00000
0.00000 0.93114 0.00000
0.00000 0.93138 0.00000
0.00000 0.93167 0.00000
0.00000 0.93203 0.00000
0.00000 0.93244 0.00000
0.00000 0.93291 0.00000
0.00000 0.93336 0.00000
0.00000 0.93426 0.00000
0.00000 0.93516 0.00000
0.00000 0.93608 0.00000
0.00000 0.93692 0.00000
0.00000 0.93739 0.00000
0.00000 0.93754 0.00000
0.00000 0.93725 0.00000
0.10013 0.93619 0.00000
0.30368 0.93514 0.00000
0.42962 0.93381 0.00000
0.53092 0.93260 0.00000
0.61464 0.93205 0.00000
0.68813 0.93181 0.00000
0.74850 0.93234 0.00000
0.79979 0.93282 0.00000
0.84184 0.93319 0.00000
0.87838 0.93302 0.00000
0.90842 0.93197 0.00000
0.93252 0.93011 0.00000
0.95129 0.92757 0.00000
0.96493 0.92374 0.00000
0.97351 0.91815 0.00000
0.97862 0.91130 0.00000
0.00000 0.94629 0.00000
0.00000 0.94642 0.00000
0.00000 0.94656 0.00000
0.00000 0.94676 0.00000
0.00000 0.94704 0.00000
0.00000 0.94740 0.00000
0.00000 0.94779 0.00000
0.00000 0.94812 0.00000
0.00000 0.94856 0.00000
0.00000 0.94933 0.00000
0.00000 0.95005 0.00000
0.00000 0.95064 0.00000
0.00000 0.95106 0.00000
0.00000 0.95121 0.00000
0.00000 0.95122 0.00000
0.00000 0.95112 0.00000
0.00000 0.95048 0.00000
0.25641 0.95047 0.00000
0.39451 0.95040 0.00000
0.50168 0.95051 0.00000
0.58705 0.95128 0.00000
0.66229 0.95215 0.00000
0.72384 0.95314 0.00000
0.77638 0.95408 0.00000
0.81987 0.95475 0.00000
0.85744 0.95477 0.00000
0.88864 0.95403 0.00000
0.91372 0.95265 0.00000
0.93298 0.95028 0.00000
0.94689 0.94645 0.00000
0.95594 0.94074 0.00000
0.96319 0.93355 0.00000
0.00000 0.96036 0.00000
0.00000 0.96043 0.00000
0.00000 0.96051 0.00000
0.00000 0.96062 0.00000
0.00000 0.96075 0.00000
0.00000 0.96087 0.00000
0.00000 0.96097 0.00000
0.00000 0.96126 0.00000
0.00000 0.96176 0.00000
0.00000 0.96240 0.00000
0.00000 0.96301 0.00000
0.00000 0.96346 0.00000
0.00000 0.96386 0.00000
0.00000 0.96424 0.00000
0.00000 0.96447 0.00000
0.00000 0.96483 0.00000
0.00000 0.96536 0.00000
0.26397 0.96616 0.00000
0.39010 0.96689 0.00000
0.49033 0.96791 0.00000
0.57075 0.96916 0.00000
0.64215 0.97021 0.00000
0.70107 0.97175 0.00000
0.75237 0.97306 0.00000
0.79532 0.97382 0.00000
0.83140 0.97385 0.00000
0.86261 0.97356 0.00000
0.88771 0.97219 0.00000
0.90807 0.96920 0.00000
0.92315 0.96477 0.00000
0.93525 0.95914 0.00000
0.94575 0.95150 0.00000
0.00000 0.97336 0.00000
0.00000 0.97340 0.00000
0.00000 0.97344 0.00000
0.00000 0.97365 0.00000
