fuji-film/cube-lut/provia.cube
LUT_3D_SIZE 8
DOMAIN_MIN 0.000000 0.000000 0.000000
DOMAIN_MAX 0.903226 0.903226 0.903226
0.00000 0.00000 0.00000
0.10321 0.00185 0.00163
0.33048 0.02011 0.00638
0.59169 0.00000 0.00954
0.81275 0.00000 0.01988
0.96307 0.00000 0.06946
1.00000 0.00000 0.00000
1.00000 0.00000 0.00000
0.00000 0.07394 0.00000
0.07077 0.07570 0.00384
0.31716 0.08653 0.00000
0.59004 0.09551 0.00000
0.81462 0.06104 0.00000
0.96648 0.00000 0.00000
1.00000 0.00000 0.00000
1.00000 0.00000 0.00000
0.00000 0.25087 0.00000
0.00000 0.25237 0.00000
0.26210 0.26373 0.00000
0.56343 0.26479 0.00000
0.80855 0.24250 0.00000
0.97110 0.21748 0.00000
1.00000 0.16762 0.00000
1.00000 0.16085 0.00000
0.00000 0.46978 0.00000
0.00000 0.47344 0.00000
0.13902 0.48072 0.00000
0.47679 0.48656 0.00000
0.75344 0.47831 0.00000
0.94536 0.43868 0.00000
1.00000 0.39042 0.00000
1.00000 0.35029 0.00000
0.00000 0.65889 0.00000
0.00000 0.66141 0.00000
0.00000 0.66635 0.00000
0.36204 0.67043 0.00000
0.65247 0.67096 0.00000
0.86639 0.66144 0.00000
0.99570 0.62799 0.00000
1.00000 0.57627 0.00000
0.00000 0.81085 0.00000
0.00000 0.81245 0.00000
0.00000 0.81744 0.00000
0.00000 0.82138 0.00000
0.50077 0.81625 0.00000
0.77370 0.80987 0.00000
0.93075 0.79713 0.00000
0.99522 0.76743 0.00000
0.00000 0.91272 0.00000
0.00000 0.91389 0.00000
0.00000 0.91591 0.00000
0.00000 0.91994 0.00000
0.22696 0.91815 0.00000
0.64985 0.91081 0.00000
0.86081 0.90888 0.00000
0.96298 0.89944 0.00000
0.00000 0.97336 0.00000
0.00000 0.97394 0.00000
0.00000 0.97583 0.00000
0.00000 0.97795 0.00000
0.11769 0.98119 0.00000
0.56107 0.98649 0.00000
0.76962 0.99167 0.00000
0.88194 0.98613 0.00000
0.00890 0.00632 0.09693
0.11823 0.02018 0.11014
0.33865 0.05129 0.12567
0.59754 0.06545 0.16416
0.82020 0.00000 0.19130
0.96727 0.00000 0.22284
1.00000 0.00000 0.20939
1.00000 0.00000 0.00000
0.00000 0.08746 0.08319
0.09375 0.09407 0.09373
0.31925 0.11733 0.12161
0.59229 0.13592 0.14297
0.82026 0.11733 0.14955
0.97004 0.06402 0.16726
1.00000 0.00000 0.14809
1.00000 0.00000 0.00000
0.00000 0.26149 0.06712
0.00000 0.26591 0.07101
0.26174 0.27833 0.09462
0.56233 0.28807 0.10641
0.81096 0.25894 0.07583
0.97330 0.23463 0.00000
1.00000 0.18091 0.00000
1.00000 0.17182 0.00000
0.00000 0.48082 0.02524
0.00000 0.48474 0.03404
0.09255 0.49034 0.01678
0.47222 0.49739 0.06648
0.75144 0.49705 0.00000
0.94459 0.45483 0.00000
1.00000 0.39731 0.00000
1.00000 0.35248 0.00000
0.00000 0.66602 0.00000
0.00000 0.66853 0.00000
0.00000 0.67304 0.00000
0.34947 0.67622 0.00000
0.65193 0.67801 0.00000
0.86522 0.67213 0.00000
0.99925 0.63841 0.00000
1.00000 0.58390 0.00000
0.00000 0.81540 0.00000
0.00000 0.81719 0.00000
0.00000 0.82239 0.00000
0.00000 0.82563 0.00000
0.50343 0.81888 0.00000
0.77797 0.81428 0.00000
0.93380 0.80314 0.00000
0.99593 0.77330 0.00000
0.00000 0.91589 0.00000
0.00000 0.91685 0.00000
0.00000 0.91902 0.00000
0.00000 0.92340 0.00000
0.20529 0.92097 0.00000
0.65664 0.91353 0.00000
0.86602 0.91312 0.00000
0.96563 0.90442 0.00000
0.00000 0.97548 0.00000
0.00000 0.97613 0.00000
0.00000 0.97788 0.00000
0.00000 0.97997 0.00000
0.11926 0.98322 0.00000
0.56759 0.98885 0.00000
0.77425 0.99494 0.00000
0.88526 0.98934 0.00000
0.02393 0.01342 0.32477
0.13231 0.01887 0.33726
0.37951 0.05558 0.36634
0.62860 0.09947 0.38213
0.82882 0.11704 0.41458
0.96831 0.12877 0.44422
1.00000 0.00000 0.43657
1.00000 0.00000 0.27142
0.01840 0.11514 0.31109
0.14303 0.13186 0.32093
0.35629 0.15609 0.33981
0.61078 0.18720 0.37233
0.81896 0.21301 0.40394
0.96609 0.21525 0.42901
1.00000 0.13631 0.41297
1.00000 0.12534 0.22712
0.00000 0.29256 0.28511
0.00165 0.29573 0.29109
0.30753 0.30806 0.30762
0.57442 0.32530 0.33163
0.79377 0.35100 0.37325
0.95883 0.32409 0.37622
1.00000 0.25267 0.32625
1.00000 0.21526 0.12529
0.00000 0.50185 0.25512
0.00000 0.50363 0.25320
0.12756 0.50581 0.25746
0.49098 0.51348 0.28235
0.74587 0.52522 0.31248
0.92371 0.51519 0.32400
1.00000 0.44149 0.25362
1.00000 0.37303 0.11650
0.00000 0.68122 0.22431
0.00000 0.68368 0.21935
0.00000 0.68662 0.21633
0.34467 0.68511 0.24167
0.65834 0.69075 0.27778
0.86292 0.69520 0.27771
1.00000 0.66984 0.20949
1.00000 0.61159 0.14026
0.00000 0.82332 0.20698
0.00000 0.82470 0.20219
0.00000 0.82892 0.19185
0.00000 0.82976 0.18811
0.53188 0.82138 0.23406
0.79408 0.82277 0.22464
0.94258 0.81851 0.20254
0.99709 0.79045 0.00000
0.00000 0.92099 0.16534
0.00000 0.92199 0.15522
0.00000 0.92478 0.12540
0.00000 0.93003 0.05516
0.19032 0.92609 0.05189
0.68616 0.91855 0.19824
0.88237 0.92323 0.12063
0.97590 0.91630 0.04511
0.00000 0.98019 0.19766
0.00000 0.98079 0.19138
0.00000 0.98203 0.17623
0.00000 0.98411 0.15891
0.17303 0.98780 0.17156
0.58454 0.99571 0.21265
0.78416 1.00000 0.22772
0.89114 0.99786 0.26038
0.05751 0.00000 0.59382
0.16946 0.00000 0.60742
0.39293 0.00000 0.63413
0.65671 0.08481 0.65718
0.84708 0.14204 0.66405
0.97606 0.14724 0.66631
1.00000 0.14024 0.66450
1.00000 0.19233 0.59695
0.02633 0.12933 0.58952
0.17268 0.14572 0.59839
0.39688 0.16764 0.61273
0.64189 0.22119 0.62818
0.83316 0.24096 0.63891
0.96975 0.24001 0.65332
1.00000 0.23389 0.65399
1.00000 0.26265 0.60355
0.00000 0.32924 0.55875
0.14583 0.33831 0.56042
0.35991 0.35139 0.56527
0.59747 0.36558 0.57464
0.79925 0.38781 0.59253
0.94481 0.40313 0.62109
1.00000 0.39343 0.64086
1.00000 0.36618 0.59118
0.00000 0.52121 0.51671
0.00000 0.52222 0.51758
0.22194 0.52336 0.52081
0.52696 0.52671 0.52657
0.75661 0.53422 0.54353
0.91479 0.54596 0.56758
1.00000 0.56025 0.59845
1.00000 0.51781 0.54497
0.00000 0.69103 0.47186
0.00000 0.69201 0.47158
0.00000 0.69234 0.47276
0.38972 0.69059 0.47835
0.67837 0.69422 0.49210
0.86513 0.70292 0.51790
0.99593 0.70714 0.53864
1.00000 0.68820 0.51657
0.00000 0.82430 0.44369
0.00000 0.82458 0.44257
0.00000 0.82373 0.44045
0.10308 0.81987 0.44169
0.57439 0.81784 0.45807
0.80500 0.82416 0.48289
0.94774 0.83292 0.51684
1.00000 0.82005 0.48145
0.00000 0.92121 0.42170
0.00000 0.92155 0.42039
0.00000 0.92306 0.41710
0.00000 0.92347 0.41433
0.36185 0.92049 0.42197
0.72794 0.92187 0.45864
0.90218 0.93320 0.45726
0.98648 0.92969 0.49032
0.00000 0.98618 0.40896
0.00000 0.98675 0.40752
0.00000 0.98796 0.40459
0.00000 0.98998 0.40338
0.26825 0.99510 0.41247
0.61572 1.00000 0.42929
0.79908 1.00000 0.44054
0.89807 1.00000 0.45678
0.11977 0.00000 0.83540
0.21221 0.00000 0.84498
0.41468 0.00000 0.86074
0.65115 0.00000 0.87457
0.85434 0.11236 0.87575
0.98187 0.18333 0.86601
1.00000 0.13616 0.86320
1.00000 0.22532 0.78356
0.08893 0.14081 0.82727
0.19996 0.14282 0.83396
0.41577 0.15220 0.84490
0.65022 0.19235 0.85253
0.84701 0.25392 0.85445
0.97299 0.28734 0.84831
1.00000 0.26072 0.85260
1.00000 0.29190 0.78481
0.01649 0.35405 0.78781
0.24668 0.37933 0.78421
0.42993 0.39534 0.78676
0.63206 0.40727 0.78944
0.81489 0.42853 0.79527
0.94749 0.44470 0.80231
1.00000 0.43701 0.81828
1.00000 0.43614 0.78303
0.00000 0.54299 0.74541
0.00000 0.54555 0.74496
0.32886 0.54927 0.74325
0.56787 0.55540 0.74222
0.76575 0.56797 0.74450
0.91387 0.58305 0.75765
1.00000 0.59945 0.77256
1.00000 0.60508 0.76185
0.00000 0.70367 0.69803
0.00000 0.70359 0.69746
0.00000 0.70153 0.69657
0.45287 0.70041 0.69930
0.70395 0.70368 0.70341
0.87240 0.70796 0.71449
0.99020 0.71805 0.72923
1.00000 0.72840 0.73245
0.00000 0.82795 0.65998
0.00000 0.82787 0.66030
0.00000 0.82681 0.66089
0.24911 0.82129 0.66061
0.60331 0.81915 0.66453
0.81474 0.82297 0.67626
0.95212 0.82902 0.69907
1.00000 0.82686 0.71490
0.00000 0.92000 0.62978
0.00000 0.92006 0.63040
0.00000 0.91967 0.63202
0.00000 0.91788 0.63459
0.47631 0.91716 0.63905
0.74747 0.92339 0.65094
0.91053 0.93188 0.67042
0.98621 0.93206 0.70408
0.00000 0.99322 0.59429
0.00000 0.99380 0.59459
0.00000 0.99563 0.59553
0.00000 0.99816 0.59814
0.39466 1.00000 0.60400
0.65296 1.00000 0.61387
0.81068 1.00000 0.62635
0.90556 1.00000 0.63507
0.16662 0.00000 0.95530
0.26699 0.00000 0.96088
0.43693 0.00000 0.96835
0.65171 0.00000 0.97748
0.84574 0.00000 0.98706
0.98840 0.13476 0.99113
1.00000 0.21058 0.98539
1.00000 0.24889 0.94181
0.13915 0.15693 0.96201
0.25466 0.15145 0.96482
0.43499 0.14547 0.96765
0.65380 0.15455 0.97298
0.84327 0.19632 0.97830
0.98379 0.27889 0.98112
1.00000 0.31846 0.97727
1.00000 0.33032 0.93949
0.12798 0.36375 0.95113
0.25754 0.37518 0.95120
0.46158 0.39928 0.95082
0.65608 0.40612 0.95374
0.82442 0.44181 0.95009
0.96320 0.47004 0.94952
1.00000 0.48650 0.95350
1.00000 0.47856 0.92694
0.11901 0.57942 0.91528
0.26512 0.58842 0.91290
0.44042 0.59868 0.90783
0.62647 0.59991 0.90191
0.78776 0.61071 0.90503
0.92362 0.62944 0.90533
1.00000 0.64228 0.91712
1.00000 0.64581 0.89488
0.00000 0.72147 0.86482
0.00000 0.72099 0.86406
0.27999 0.71991 0.86277
0.52787 0.72057 0.86258
0.73027 0.72323 0.86285
0.88164 0.73349 0.86768
0.99377 0.74953 0.87669
1.00000 0.75892 0.86686
0.00000 0.83572 0.82993
0.00000 0.83509 0.82974
0.00000 0.83230 0.82867
0.37009 0.82809 0.82743
0.64592 0.82881 0.82917
0.83450 0.83421 0.83442
0.97120 0.83823 0.84347
1.00000 0.83953 0.84663
0.00000 0.92605 0.79845
0.00000 0.92637 0.79908
0.00000 0.92604 0.80044
0.00000 0.92505 0.80151
0.53534 0.92362 0.80219
0.76355 0.92719 0.80550
0.91431 0.93025 0.81537
0.98812 0.92773 0.82604
0.00000 0.99985 0.75403
0.00000 1.00000 0.75458
0.00000 1.00000 0.75594
0.16897 1.00000 0.75829
0.49472 1.00000 0.76204
0.68761 1.00000 0.76778
0.82340 1.00000 0.77576
0.91652 1.00000 0.77927
0.24219 0.10370 0.96048
0.31588 0.10214 0.96210
0.47204 0.10046 0.96472
0.66808 0.06993 0.96755
0.84287 0.00000 0.97114
0.98039 0.00000 0.97557
1.00000 0.21491 0.97689
1.00000 0.32706 0.97707
0.23840 0.19125 0.96353
0.31227 0.19023 0.96422
0.47078 0.18893 0.96566
0.66870 0.18826 0.96793
0.84140 0.18275 0.97150
0.97925 0.19957 0.97584
1.00000 0.32121 0.97758
1.00000 0.39747 0.97798
0.20435 0.36238 0.96593
0.29047 0.36304 0.96632
0.46505 0.37351 0.96745
0.66434 0.38100 0.97030
0.83143 0.41235 0.97423
0.96467 0.45788 0.97905
1.00000 0.49995 0.98158
1.00000 0.53126 0.97970
0.21367 0.58811 0.97146
0.33289 0.60463 0.97273
0.52010 0.63343 0.97624
0.67369 0.62986 0.97938
0.81039 0.63010 0.98170
0.92924 0.67048 0.98236
1.00000 0.68740 0.98632
1.00000 0.68138 0.97615
0.09994 0.73840 0.97624
0.24844 0.74188 0.97687
0.42509 0.74718 0.97804
0.60548 0.74984 0.97836
0.76321 0.75677 0.97567
0.89198 0.77697 0.97599
0.98945 0.79329 0.97943
1.00000 0.78616 0.96372
0.00000 0.84185 0.96684
0.00000 0.84156 0.96570
0.24617 0.84065 0.96271
0.49948 0.84049 0.95935
0.70220 0.84370 0.95940
0.85324 0.84820 0.96294
0.97047 0.85429 0.96150
1.00000 0.85586 0.94741
0.00000 0.93059 0.92831
0.00000 0.93005 0.92884
0.00000 0.92833 0.92927
0.35764 0.92589 0.92930
0.61816 0.92625 0.93012
0.79481 0.92898 0.92976
0.92974 0.92983 0.92942
1.00000 0.92455 0.92858
0.00000 0.99988 0.87076
0.00000 1.00000 0.87144
0.14775 1.00000 0.87305
0.40374 1.00000 0.87586
0.58454 1.00000 0.87950
0.73348 1.00000 0.88435
0.85391 1.00000 0.89033
0.94105 0.99595 0.89384
0.30049 0.14930 0.96270
0.36353 0.15017 0.96346
0.50364 0.15259 0.96539
0.67889 0.16808 0.96756
0.83777 0.19293 0.97062
0.96621 0.20694 0.97421
1.00000 0.14808 0.97606
1.00000 0.34291 0.97702
0.30353 0.22535 0.96402
0.36963 0.22470 0.96471
0.50528 0.22692 0.96615
0.67932 0.23870 0.96811
0.83622 0.26324 0.97156
0.96327 0.27612 0.97497
1.00000 0.26649 0.97677
1.00000 0.40573 0.97824
0.28320 0.38083 0.96625
0.35969 0.38218 0.96663
0.49981 0.38179 0.96786
0.67319 0.39685 0.97049
0.82775 0.41958 0.97403
0.95240 0.44181 0.97745
1.00000 0.46351 0.98046
1.00000 0.53291 0.98177
0.31745 0.59760 0.97191
0.39871 0.60585 0.97281
0.54495 0.62415 0.97545
0.69775 0.63386 0.97791
0.82066 0.64066 0.98038
0.93289 0.66203 0.98385
1.00000 0.69621 0.98784
1.00000 0.69210 0.98870
0.33654 0.75854 0.97900
0.41743 0.76649 0.97993
0.55683 0.78083 0.98244
0.69110 0.78777 0.98511
0.80474 0.78945 0.98702
0.90919 0.80239 0.99058
0.99258 0.82212 0.99587
1.00000 0.81096 0.99531
0.22777 0.84737 0.98401
0.30906 0.84814 0.98439
0.45172 0.84883 0.98526
0.60983 0.84966 0.98696
0.74853 0.85445 0.98981
0.86836 0.86728 0.99507
0.96391 0.88488 1.00000
1.00000 0.87429 0.99895
0.00000 0.92059 0.98074
0.18262 0.92056 0.98121
0.36097 0.92048 0.98244
0.53350 0.92118 0.98463
0.68675 0.92515 0.98786
0.81630 0.93195 0.99251
0.92842 0.93397 0.99814
1.00000 0.92276 0.99725
0.28500 0.98733 0.95065
0.32897 0.98805 0.95157
0.41988 0.98935 0.95353
0.53316 0.99212 0.95713
0.65228 0.99444 0.96256
0.76862 0.99580 0.96918
0.88084 0.99123 0.97658
0.97900 0.97904 0.97896
