fuji-film/cube-lut/velvia.cube
LUT_3D_SIZE 5
DOMAIN_MIN 0.000000 0.000000 0.000000
DOMAIN_MAX 0.903226 0.903226 0.903226
0.00000 0.00000 0.00000
0.24977 0.00183 0.00000
0.78387 0.00000 0.00177
1.00000 0.00000 0.19613
1.00000 0.00000 0.14832
0.00000 0.21210 0.00000
0.21821 0.22145 0.00000
0.76070 0.24863 0.00000
1.00000 0.12789 0.00000
1.00000 0.00000 0.00000
0.00000 0.62273 0.00000
0.00000 0.62525 0.00000
0.59095 0.61527 0.00000
0.96888 0.57284 0.00000
1.00000 0.47388 0.00000
0.00000 0.87214 0.00000
0.00000 0.87521 0.00000
0.26990 0.87549 0.00000
0.79429 0.86414 0.00000
0.97556 0.83041 0.00000
0.00000 0.98026 0.09084
0.00000 0.98077 0.00988
0.00000 0.98283 0.00000
0.62752 1.00000 0.00000
0.86308 1.00000 0.00000
0.00521 0.00000 0.31484
0.32247 0.01312 0.33934
0.79824 0.07275 0.37343
1.00000 0.00000 0.44304
1.00000 0.00000 0.38643
0.00000 0.23381 0.24726
0.23366 0.23353 0.23306
0.74467 0.25392 0.28183
1.00000 0.19278 0.30978
1.00000 0.06160 0.19950
0.00000 0.63893 0.19364
0.00000 0.63791 0.15085
0.57513 0.62502 0.18703
0.98445 0.60153 0.09098
1.00000 0.48355 0.00000
0.00000 0.88779 0.20627
0.00000 0.89114 0.17234
0.24260 0.88867 0.09029
0.80946 0.87798 0.03017
0.98228 0.84499 0.00000
0.00000 0.98468 0.26299
0.00000 0.98461 0.24577
0.00000 0.98616 0.18656
0.64163 1.00000 0.16735
0.87059 1.00000 0.19420
0.13713 0.00000 0.91701
0.40910 0.00000 0.93893
0.77627 0.00000 0.88193
1.00000 0.15209 0.83319
1.00000 0.09093 0.81236
0.00000 0.26775 0.84223
0.38153 0.28629 0.81563
0.74538 0.31188 0.79405
1.00000 0.34703 0.77702
1.00000 0.32146 0.76650
0.00000 0.64361 0.66651
0.00000 0.62823 0.64540
0.61082 0.61034 0.61018
0.96915 0.60768 0.60866
1.00000 0.60386 0.59995
0.00000 0.90864 0.55315
0.00000 0.90983 0.53548
0.30679 0.89140 0.48961
0.84348 0.87997 0.47961
0.99841 0.87101 0.50699
0.00000 0.99639 0.52501
0.00000 0.99669 0.51765
0.00000 1.00000 0.50013
0.67378 1.00000 0.49368
0.88246 1.00000 0.50641
0.23968 0.00000 0.94306
0.42232 0.00000 0.95348
0.75216 0.00000 0.97134
1.00000 0.07056 0.98430
1.00000 0.16795 0.98283
0.18497 0.21258 0.95682
0.42825 0.19967 0.95874
0.75351 0.24290 0.96546
1.00000 0.35281 0.97277
1.00000 0.37149 0.96668
0.00000 0.62867 0.97104
0.34381 0.62909 0.97259
0.67349 0.62640 0.96661
0.96440 0.63386 0.96721
1.00000 0.65759 0.92280
0.00000 0.89439 0.92474
0.00000 0.89441 0.92715
0.45640 0.87776 0.90515
0.86884 0.86857 0.86836
1.00000 0.85473 0.85328
0.00000 1.00000 0.79981
0.00000 1.00000 0.79790
0.37526 1.00000 0.79186
0.72092 1.00000 0.78895
0.91020 1.00000 0.79221
0.37774 0.00000 0.95593
0.51979 0.00000 0.95794
0.78190 0.00000 0.96293
1.00000 0.00000 0.96908
1.00000 0.19500 0.97065
0.36598 0.22833 0.95836
0.50741 0.21414 0.95969
0.77512 0.22674 0.96411
1.00000 0.26349 0.97037
1.00000 0.38867 0.97292
0.35871 0.62918 0.96796
0.53458 0.65906 0.97083
0.75734 0.66074 0.97369
0.96910 0.67168 0.98031
1.00000 0.68783 0.98389
0.00000 0.87894 0.98068
0.31477 0.87688 0.98234
0.62418 0.87222 0.98767
0.88610 0.87670 1.00000
1.00000 0.85886 1.00000
0.22739 1.00000 0.96262
0.35467 1.00000 0.96463
0.56476 1.00000 0.97177
0.78900 1.00000 0.98557
0.99244 0.99261 0.99255
