fuji-film/cube-lut/velvia.cube
LUT_3D_SIZE 8
DOMAIN_MIN 0.000000 0.000000 0.000000
DOMAIN_MAX 0.903226 0.903226 0.903226
0.00000 0.00000 0.00000
0.07017 0.00000 0.00000
0.33748 0.00000 0.00000
0.65845 0.00000 0.00000
0.88447 0.00000 0.05935
1.00000 0.00000 0.17063
1.00000 0.00000 0.23082
1.00000 0.00000 0.14832
0.00000 0.06259 0.00000
0.04009 0.05209 0.00000
0.32881 0.07673 0.00000
0.65763 0.10569 0.00000
0.88627 0.05466 0.00000
1.00000 0.00000 0.02820
1.00000 0.00000 0.13483
1.00000 0.00000 0.00000
0.00000 0.28065 0.00000
0.00000 0.28248 0.00000
0.29823 0.29566 0.00000
0.61309 0.30820 0.00000
0.86939 0.28322 0.00000
1.00000 0.21343 0.00000
1.00000 0.15104 0.00000
1.00000 0.10422 0.00000
0.00000 0.52839 0.00000
0.00000 0.53081 0.00000
0.13839 0.53285 0.00000
0.50600 0.52979 0.00000
0.78145 0.51127 0.00000
0.97450 0.46874 0.00000
1.00000 0.40272 0.00000
1.00000 0.35418 0.00000
0.00000 0.70792 0.00000
0.00000 0.70913 0.00000
0.00000 0.71002 0.00000
0.36369 0.70463 0.00000
0.66509 0.69245 0.00000
0.88868 0.67889 0.00000
0.99380 0.64199 0.00000
1.00000 0.59327 0.00000
0.00000 0.84303 0.00000
0.00000 0.84415 0.00000
0.00000 0.84594 0.00000
0.00000 0.84523 0.00000
0.52226 0.84008 0.00000
0.77819 0.83223 0.00000
0.92779 0.81352 0.00000
0.98191 0.78883 0.00000
0.00000 0.93606 0.00000
0.00000 0.93671 0.00000
0.00000 0.93802 0.00000
0.00000 0.93887 0.00000
0.19334 0.93871 0.00000
0.62784 0.94016 0.00000
0.84869 0.93743 0.00000
0.95457 0.93641 0.00000
0.00000 0.98026 0.09084
0.00000 0.98047 0.06863
0.00000 0.98099 0.00000
0.00000 0.98170 0.00000
0.12142 0.98512 0.00000
0.56400 0.99798 0.00000
0.76309 1.00000 0.00000
0.86308 1.00000 0.00000
0.00000 0.00000 0.08282
0.06748 0.00656 0.06075
0.35474 0.01589 0.12124
0.67179 0.00000 0.18253
0.89031 0.00000 0.22349
1.00000 0.00000 0.28265
1.00000 0.00000 0.32497
1.00000 0.00000 0.25003
0.00000 0.04526 0.04531
0.05127 0.05073 0.05200
0.34964 0.07694 0.07206
0.67211 0.10118 0.10134
0.89164 0.06048 0.14396
1.00000 0.00000 0.21734
1.00000 0.00000 0.26163
1.00000 0.00000 0.16671
0.00000 0.28792 0.00951
0.00000 0.29214 0.00000
0.28231 0.30110 0.00000
0.61273 0.30782 0.00000
0.87072 0.28716 0.00000
1.00000 0.21860 0.00000
1.00000 0.15876 0.00000
1.00000 0.10705 0.00000
0.00000 0.53800 0.00000
0.00000 0.54035 0.00000
0.01727 0.54016 0.00000
0.49611 0.53517 0.00000
0.77513 0.52035 0.00000
0.98130 0.47832 0.00000
1.00000 0.40561 0.00000
1.00000 0.35357 0.00000
0.00000 0.71447 0.00000
0.00000 0.71553 0.00000
0.00000 0.71581 0.00000
0.34937 0.70840 0.00000
0.66177 0.69602 0.00000
0.89305 0.68564 0.00000
0.99914 0.64862 0.00000
1.00000 0.59697 0.00000
0.00000 0.84870 0.00000
0.00000 0.84987 0.00000
0.00000 0.85168 0.00000
0.00000 0.85043 0.00000
0.52107 0.84441 0.00000
0.78270 0.83705 0.00000
0.93427 0.81880 0.00000
0.98424 0.79367 0.00000
0.00000 0.94016 0.02023
0.00000 0.94079 0.00000
0.00000 0.94209 0.00000
0.00000 0.94253 0.00000
0.16032 0.94247 0.00000
0.63210 0.94530 0.00000
0.85612 0.94282 0.00000
0.95931 0.94264 0.00000
0.00000 0.98205 0.17156
0.00000 0.98220 0.16075
0.00000 0.98239 0.12996
0.00000 0.98307 0.05737
0.12116 0.98685 0.00000
0.56972 1.00000 0.00000
0.76745 1.00000 0.00000
0.86613 1.00000 0.00000
0.00000 0.00000 0.41945
0.15897 0.00000 0.42759
0.43143 0.05706 0.46357
0.69577 0.08188 0.47060
0.87920 0.06262 0.47830
1.00000 0.00000 0.49459
1.00000 0.00000 0.52499
1.00000 0.00000 0.44511
0.00000 0.06716 0.39443
0.10865 0.06808 0.40574
0.39615 0.09828 0.41668
0.67035 0.13235 0.43287
0.86416 0.16199 0.45221
1.00000 0.11034 0.46263
1.00000 0.04254 0.48901
1.00000 0.00000 0.39351
0.00000 0.30762 0.33098
0.00000 0.30914 0.31869
0.30703 0.30713 0.30693
0.61215 0.30763 0.31330
0.83072 0.32331 0.35473
1.00000 0.30537 0.35449
1.00000 0.23298 0.33529
1.00000 0.14834 0.21975
0.00000 0.55353 0.27216
0.00000 0.55300 0.25761
0.00000 0.54606 0.22794
0.49566 0.53619 0.22134
0.75594 0.53452 0.24932
0.97873 0.52277 0.26424
1.00000 0.43411 0.13398
1.00000 0.36770 0.00000
0.00000 0.72702 0.25678
0.00000 0.72769 0.24329
0.00000 0.72569 0.21271
0.32849 0.70810 0.20201
0.65460 0.69872 0.22560
0.89447 0.69667 0.20727
1.00000 0.66837 0.10516
1.00000 0.61202 0.00000
0.00000 0.86192 0.25730
0.00000 0.86328 0.24544
0.00000 0.86541 0.21826
0.00000 0.86182 0.18628
0.52081 0.85167 0.19094
0.79430 0.84603 0.17675
0.95261 0.83095 0.08794
0.98834 0.80669 0.00000
0.00000 0.94960 0.25561
0.00000 0.95023 0.24383
0.00000 0.95110 0.21354
0.00000 0.95032 0.16051
0.00285 0.95026 0.07497
0.64813 0.95767 0.12189
0.87584 0.95501 0.05830
0.97129 0.95816 0.00000
0.00000 0.98577 0.29468
0.00000 0.98575 0.28813
0.00000 0.98567 0.27211
0.00000 0.98603 0.25056
0.14223 0.99120 0.22290
0.58355 1.00000 0.21998
0.77684 1.00000 0.22422
0.87237 1.00000 0.24368
0.11028 0.00000 0.77845
0.23602 0.00000 0.78840
0.45238 0.00000 0.81413
0.69550 0.04465 0.79030
0.86290 0.10296 0.74652
1.00000 0.12822 0.73068
1.00000 0.10055 0.76053
1.00000 0.12025 0.70574
0.00000 0.02072 0.76195
0.19186 0.04346 0.76876
0.43200 0.07762 0.78760
0.67276 0.15449 0.75167
0.85219 0.20113 0.72131
1.00000 0.22599 0.71274
1.00000 0.20962 0.74501
1.00000 0.21999 0.68548
0.00000 0.32676 0.67958
0.02722 0.32527 0.66937
0.36615 0.32659 0.64461
0.61532 0.33276 0.63672
0.82032 0.35480 0.64376
0.99911 0.37018 0.65065
1.00000 0.35494 0.67853
1.00000 0.34610 0.61145
0.00000 0.55798 0.57506
0.00000 0.55151 0.56583
0.17080 0.53655 0.54565
0.52775 0.52710 0.52681
0.75559 0.52707 0.52218
0.95938 0.52805 0.53647
1.00000 0.52323 0.55442
1.00000 0.48873 0.49613
0.00000 0.72932 0.50790
0.00000 0.72669 0.50063
0.00000 0.71627 0.48015
0.35737 0.69893 0.45244
0.66408 0.68984 0.44653
0.88896 0.69125 0.45606
1.00000 0.68396 0.47037
1.00000 0.66399 0.43831
0.00000 0.87454 0.45904
0.00000 0.87550 0.45130
0.00000 0.87619 0.43112
0.00000 0.86667 0.40398
0.53991 0.84747 0.39262
0.80667 0.84554 0.39924
0.97349 0.84199 0.41100
0.99423 0.82634 0.39093
0.00000 0.96034 0.43104
0.00000 0.96031 0.42457
0.00000 0.95898 0.40864
0.00000 0.95332 0.38236
0.25852 0.95383 0.35511
0.68226 0.96487 0.36657
0.90271 0.97060 0.36672
0.97898 0.97926 0.37493
0.00000 0.99181 0.44384
0.00000 0.99166 0.44020
0.00000 0.99129 0.43051
0.00000 0.99237 0.41579
0.24071 0.99947 0.40423
0.60893 1.00000 0.40269
0.79018 1.00000 0.40691
0.87983 1.00000 0.41751
0.10975 0.00000 0.98210
0.24154 0.00000 0.98867
0.44211 0.00000 0.99956
0.67058 0.00000 0.99657
0.85247 0.05380 0.95114
1.00000 0.16441 0.93488
1.00000 0.02171 0.94324
1.00000 0.07922 0.88865
0.02123 0.00000 0.97314
0.22057 0.00000 0.97577
0.44541 0.00000 0.97990
0.67243 0.00000 0.97353
0.85032 0.20833 0.93131
1.00000 0.25801 0.92163
1.00000 0.20095 0.92192
1.00000 0.21265 0.87221
0.00000 0.33141 0.91747
0.24619 0.34845 0.90852
0.45396 0.35263 0.89141
0.65169 0.35692 0.88283
0.83183 0.38062 0.86672
1.00000 0.39688 0.87493
1.00000 0.38516 0.85325
1.00000 0.38188 0.82073
0.00000 0.54504 0.81387
0.00000 0.54254 0.80579
0.32928 0.53716 0.78886
0.56349 0.53403 0.77233
0.76844 0.53823 0.76436
0.95507 0.54321 0.77540
1.00000 0.54968 0.76197
1.00000 0.55221 0.74860
0.00000 0.71874 0.73848
0.00000 0.71536 0.73212
0.00000 0.70548 0.71502
0.43390 0.69207 0.69650
0.68446 0.68385 0.68371
0.89766 0.68261 0.68045
1.00000 0.67883 0.68851
1.00000 0.68620 0.68388
0.00000 0.87086 0.67351
0.00000 0.87042 0.66873
0.00000 0.86756 0.65567
0.14926 0.85272 0.62979
0.56390 0.84013 0.60858
0.81245 0.83432 0.60229
0.97955 0.83135 0.61706
1.00000 0.82293 0.62800
0.00000 0.96194 0.62874
0.00000 0.96123 0.62484
0.00000 0.95870 0.61436
0.00000 0.95438 0.59532
0.40356 0.95414 0.57360
0.72006 0.96069 0.56457
0.92296 0.97537 0.56653
0.98021 0.97548 0.59404
0.00000 1.00000 0.61062
0.00000 1.00000 0.60871
0.00000 1.00000 0.60379
0.00000 1.00000 0.59593
0.37006 1.00000 0.58761
0.63683 1.00000 0.58400
0.79799 1.00000 0.58852
0.88586 1.00000 0.59527
0.21696 0.00000 0.94093
0.29783 0.00000 0.94587
0.46002 0.00000 0.95741
0.66000 0.00000 0.97041
0.83996 0.00000 0.98526
0.99551 0.13804 0.99804
1.00000 0.11867 1.00000
1.00000 0.14858 0.98485
0.19240 0.00000 0.94428
0.28328 0.00000 0.95011
0.46064 0.00000 0.95865
0.66323 0.00000 0.96759
0.84095 0.13155 0.98024
0.99741 0.25433 0.99107
1.00000 0.24541 0.99346
1.00000 0.25176 0.97714
0.14776 0.29593 0.95907
0.28408 0.30571 0.96014
0.48576 0.32595 0.96187
0.66555 0.31690 0.96451
0.83630 0.36995 0.96743
0.99251 0.41057 0.97615
1.00000 0.41358 0.97332
1.00000 0.41198 0.95178
0.09243 0.54952 0.96409
0.25405 0.55344 0.96503
0.43417 0.55649 0.96651
0.61268 0.55263 0.96258
0.79328 0.55093 0.95314
0.95513 0.56269 0.95751
1.00000 0.57036 0.93383
1.00000 0.58589 0.91186
0.00000 0.70532 0.95323
0.00000 0.70345 0.95102
0.26041 0.69866 0.93940
0.51437 0.69204 0.92393
0.71973 0.68752 0.92463
0.90477 0.68738 0.91327
1.00000 0.69391 0.88919
1.00000 0.71252 0.87064
0.00000 0.85652 0.87810
0.00000 0.85646 0.87754
0.00000 0.85506 0.87589
0.31244 0.84812 0.87144
0.61150 0.83655 0.85403
0.83270 0.83165 0.83213
0.98383 0.82699 0.83725
1.00000 0.82500 0.82286
0.00000 0.96226 0.83201
0.00000 0.96143 0.83051
0.00000 0.95903 0.82544
0.00000 0.95576 0.81222
0.48252 0.95632 0.79158
0.73957 0.96417 0.77877
0.91841 0.96573 0.77826
0.98280 0.95653 0.78156
0.00000 1.00000 0.76522
0.00000 1.00000 0.76437
0.00000 1.00000 0.76209
0.06937 1.00000 0.75798
0.47399 1.00000 0.75328
0.67023 1.00000 0.75117
0.81343 1.00000 0.75351
0.90284 1.00000 0.75540
0.29858 0.00000 0.94900
0.36480 0.00000 0.95082
0.49967 0.00000 0.95489
0.67975 0.00000 0.96105
0.84528 0.00000 0.96745
0.99947 0.00000 0.97162
1.00000 0.00000 0.97202
1.00000 0.24779 0.97879
0.28554 0.00000 0.95192
0.35718 0.00000 0.95337
0.49797 0.00000 0.95634
0.68251 0.00000 0.96167
0.84548 0.00000 0.96707
1.00000 0.11016 0.97097
1.00000 0.17753 0.97114
1.00000 0.32095 0.97796
0.25998 0.28209 0.95895
0.34574 0.27673 0.95946
0.50009 0.26894 0.96068
0.67493 0.26494 0.96322
0.83940 0.32107 0.96731
1.00000 0.38157 0.97206
1.00000 0.40412 0.97319
1.00000 0.45809 0.97615
0.24082 0.52860 0.96364
0.35338 0.54233 0.96457
0.52260 0.56701 0.96690
0.66746 0.55407 0.96760
0.81403 0.55046 0.97183
0.96420 0.58602 0.98071
1.00000 0.60219 0.98207
1.00000 0.61136 0.97390
0.11638 0.70564 0.96947
0.25020 0.70689 0.96976
0.42060 0.70695 0.97057
0.58957 0.70338 0.97416
0.74841 0.70413 0.98554
0.90722 0.71593 0.99862
1.00000 0.72674 0.99275
1.00000 0.72980 0.96977
0.00000 0.85201 0.98419
0.00000 0.85116 0.98621
0.14942 0.84779 0.99095
0.44302 0.84119 0.99702
0.65359 0.83510 0.99658
0.85094 0.83318 0.99205
1.00000 0.83328 0.98395
1.00000 0.83191 0.95786
0.00000 0.96084 0.98096
0.00000 0.96128 0.98120
0.00000 0.96256 0.97935
0.26351 0.96271 0.96921
0.56800 0.95907 0.95524
0.78151 0.95815 0.94816
0.95169 0.95162 0.95105
1.00000 0.93799 0.93840
0.00000 1.00000 0.88844
0.00000 1.00000 0.88840
0.00000 1.00000 0.88823
0.37396 1.00000 0.88791
0.56312 1.00000 0.88811
0.72101 1.00000 0.89066
0.85255 1.00000 0.89542
0.94124 1.00000 0.89580
0.37774 0.00000 0.95593
0.43669 0.00000 0.95670
0.55240 0.00000 0.95843
0.70184 0.00000 0.96107
0.86051 0.00000 0.96493
1.00000 0.00000 0.96851
1.00000 0.00000 0.96934
1.00000 0.19500 0.97065
0.37855 0.07430 0.95696
0.43794 0.07009 0.95767
0.55055 0.00000 0.95909
0.70034 0.00000 0.96155
0.86080 0.00000 0.96528
1.00000 0.00000 0.96896
1.00000 0.00000 0.96959
1.00000 0.27774 0.97110
0.35823 0.28498 0.95900
0.41649 0.28128 0.95944
0.53584 0.27125 0.96066
0.68982 0.27394 0.96304
0.85329 0.30687 0.96643
1.00000 0.32670 0.97053
1.00000 0.34995 0.97159
1.00000 0.43063 0.97395
0.35764 0.52110 0.96372
0.42607 0.52787 0.96443
0.55424 0.54345 0.96634
0.69054 0.55053 0.96905
0.83467 0.55226 0.97213
0.96625 0.57238 0.97547
1.00000 0.60307 0.97841
1.00000 0.61071 0.97918
0.34786 0.71492 0.97121
0.42281 0.72157 0.97221
0.54859 0.73442 0.97420
0.67683 0.73826 0.97603
0.80273 0.73440 0.97794
0.92287 0.73947 0.98340
1.00000 0.75011 0.99068
1.00000 0.74731 0.99047
0.16725 0.84871 0.97858
0.26433 0.84876 0.97905
0.41321 0.84737 0.98021
0.57234 0.84461 0.98255
0.72666 0.84562 0.98725
0.86778 0.85058 0.99509
0.97908 0.85318 1.00000
1.00000 0.83943 1.00000
0.00000 0.95366 0.98567
0.00612 0.95381 0.98646
0.30351 0.95347 0.98825
0.48987 0.95277 0.99104
0.65524 0.95215 0.99553
0.80815 0.95140 1.00000
0.94087 0.94124 1.00000
1.00000 0.91798 1.00000
0.22739 1.00000 0.96262
0.28215 1.00000 0.96332
0.38337 1.00000 0.96524
0.50258 1.00000 0.96905
0.62860 1.00000 0.97518
0.75864 1.00000 0.98329
0.88314 1.00000 0.99149
0.99244 0.99261 0.99255
