fuji-film/cube-lut/velvia.cube
LUT_3D_SIZE 32
0.00000 0.00000 0.00000
0.00183 0.00000 0.00000
0.01143 0.00000 0.00000
0.03284 0.00000 0.00000
0.07017 0.00000 0.00000
0.11322 0.00000 0.00000
0.17496 0.00000 0.00000
0.24977 0.00183 0.00000
0.33748 0.00000 0.00000
0.42758 0.00000 0.00000
0.50893 0.00000 0.00316
0.58587 0.00000 0.00230
0.65845 0.00000 0.00000
0.72367 0.00000 0.00000
0.78387 0.00000 0.00177
0.83715 0.00000 0.02146
0.88447 0.00000 0.05935
0.92826 0.00000 0.09361
0.96591 0.00000 0.12157
0.99828 0.00000 0.14698
1.00000 0.00000 0.17063
1.00000 0.00000 0.19613
1.00000 0.00000 0.21172
1.00000 0.00000 0.22801
1.00000 0.00000 0.23082
1.00000 0.00000 0.21552
1.00000 0.00000 0.19408
1.00000 0.00000 0.16676
1.00000 0.00000 0.14832
1.00000 0.00000 0.14102
1.00000 0.00000 0.15012
1.00000 0.00000 0.17715
0.00000 0.00198 0.00000
0.00079 0.00087 0.00000
0.00557 0.00117 0.00000
0.02279 0.00189 0.00000
0.05690 0.00273 0.00000
0.10226 0.00399 0.00000
0.16670 0.00834 0.00000
0.24573 0.01204 0.00000
0.33559 0.01146 0.00000
0.42685 0.00755 0.00000
0.50895 0.01146 0.00000
0.58600 0.02185 0.00000
0.65880 0.00000 0.00000
0.72394 0.00000 0.00000
0.78392 0.00000 0.00000
0.83723 0.00000 0.00000
0.88488 0.00000 0.01884
0.92895 0.00000 0.06706
0.96677 0.00000 0.10085
0.99912 0.00000 0.12903
1.00000 0.00000 0.15544
1.00000 0.00000 0.17932
1.00000 0.00000 0.20158
1.00000 0.00000 0.21313
1.00000 0.00000 0.21629
1.00000 0.00000 0.20327
1.00000 0.00000 0.17508
1.00000 0.00000 0.14834
1.00000 0.00000 0.12861
1.00000 0.00000 0.12185
1.00000 0.00000 0.13401
1.00000 0.00000 0.16602
0.00000 0.00651 0.00000
0.00082 0.00392 0.00000
0.00623 0.00524 0.00000
0.02064 0.00758 0.00000
0.05101 0.01018 0.00000
0.09626 0.01092 0.00000
0.16122 0.01698 0.00000
0.24283 0.02221 0.00000
0.33433 0.02523 0.00000
0.42614 0.02917 0.00000
0.50903 0.03599 0.00000
0.58627 0.04863 0.00000
0.65879 0.03739 0.00000
0.72408 0.01332 0.00000
0.78378 0.00000 0.00000
0.83723 0.00000 0.00000
0.88532 0.00000 0.00000
0.92973 0.00000 0.02042
0.96773 0.00000 0.07076
1.00000 0.00000 0.10614
1.00000 0.00000 0.13595
1.00000 0.00000 0.16277
1.00000 0.00000 0.18499
1.00000 0.00000 0.20108
1.00000 0.00000 0.20258
1.00000 0.00000 0.18400
1.00000 0.00000 0.15432
1.00000 0.00000 0.12352
1.00000 0.00000 0.10244
1.00000 0.00000 0.09698
1.00000 0.00000 0.11387
1.00000 0.00000 0.15201
0.00000 0.02529 0.00000
0.00000 0.02262 0.00000
0.00000 0.02179 0.00000
0.01461 0.02256 0.00000
0.04817 0.02381 0.00000
0.09376 0.02695 0.00000
0.15773 0.03128 0.00000
0.24068 0.03904 0.00000
0.33278 0.04801 0.00000
0.42508 0.05819 0.00000
0.50892 0.06870 0.00000
0.58645 0.07492 0.00000
0.65855 0.07715 0.00000
0.72380 0.05641 0.00000
0.78323 0.04829 0.00000
0.83705 0.01956 0.00000
0.88585 0.00000 0.00000
0.93081 0.00000 0.00000
0.96911 0.00000 0.00000
1.00000 0.00000 0.06026
1.00000 0.00000 0.10271
1.00000 0.00000 0.13499
1.00000 0.00000 0.15946
1.00000 0.00000 0.17509
1.00000 0.00000 0.17554
1.00000 0.00000 0.15411
1.00000 0.00000 0.11752
1.00000 0.00000 0.07791
1.00000 0.00000 0.04484
1.00000 0.00000 0.04116
1.00000 0.00000 0.07622
1.00000 0.00000 0.12940
0.00000 0.06259 0.00000
0.00000 0.05918 0.00000
0.00000 0.05624 0.00000
0.00121 0.05372 0.00000
0.04009 0.05209 0.00000
0.09018 0.05255 0.00000
0.15289 0.05707 0.00000
0.23688 0.06541 0.00000
0.32881 0.07673 0.00000
0.42302 0.08955 0.00000
0.50764 0.10700 0.00000
0.58533 0.11094 0.00000
0.65763 0.10569 0.00000
0.72221 0.10684 0.00000
0.78183 0.10141 0.00000
0.83633 0.08488 0.00000
0.88627 0.05466 0.00000
0.93211 0.00000 0.00000
0.97084 0.00000 0.00000
1.00000 0.00000 0.00000
1.00000 0.00000 0.02820
1.00000 0.00000 0.08662
1.00000 0.00000 0.11849
1.00000 0.00000 0.13722
1.00000 0.00000 0.13483
1.00000 0.00000 0.10202
1.00000 0.00000 0.03483
1.00000 0.00000 0.00000
1.00000 0.00000 0.00000
1.00000 0.00000 0.00000
1.00000 0.00000 0.00000
1.00000 0.00000 0.09231
0.00000 0.10172 0.00000
0.00000 0.09824 0.00000
0.00000 0.09493 0.00000
0.00000 0.09139 0.00000
0.01588 0.08842 0.00000
0.07305 0.08658 0.00000
0.13838 0.08892 0.00000
0.22676 0.09784 0.00000
0.32209 0.11353 0.00000
0.41888 0.13045 0.00000
0.50454 0.13808 0.00000
0.58185 0.14505 0.00000
0.65376 0.14899 0.00000
0.71836 0.15225 0.00000
0.77859 0.14805 0.00000
0.83440 0.13660 0.00000
0.88625 0.11665 0.00000
0.93327 0.08903 0.00000
0.97255 0.04933 0.00000
1.00000 0.00000 0.00000
1.00000 0.00000 0.00000
1.00000 0.00000 0.00000
1.00000 0.00000 0.02877
1.00000 0.00000 0.06488
1.00000 0.00000 0.04963
1.00000 0.00000 0.00000
1.00000 0.00000 0.00000
1.00000 0.00000 0.00000
1.00000 0.00000 0.00000
1.00000 0.00000 0.00000
1.00000 0.00000 0.00000
1.00000 0.04801 0.00854
0.00000 0.15004 0.00000
0.00000 0.14767 0.00000
0.00000 0.14514 0.00000
0.00000 0.14194 0.00000
0.00000 0.13788 0.00000
0.01712 0.13120 0.00000
0.10691 0.13647 0.00280
0.21734 0.14858 0.00000
0.31619 0.16855 0.00000
0.41245 0.17721 0.00000
0.49694 0.18213 0.00000
0.57358 0.19105 0.00000
0.64550 0.19653 0.00000
0.71069 0.19853 0.00000
0.77210 0.19513 0.00000
0.83023 0.18629 0.00000
0.88470 0.17209 0.00000
0.93333 0.15486 0.00000
0.97342 0.13445 0.00000
1.00000 0.10672 0.00000
1.00000 0.06955 0.00000
1.00000 0.01201 0.00000
1.00000 0.00000 0.00000
1.00000 0.00000 0.00000
1.00000 0.00000 0.00000
1.00000 0.00000 0.00000
1.00000 0.00000 0.00000
1.00000 0.00000 0.00000
1.00000 0.00000 0.00000
1.00000 0.00000 0.00000
1.00000 0.00000 0.00000
1.00000 0.11614 0.00000
0.00000 0.21210 0.00000
0.00000 0.21115 0.00000
0.00000 0.21021 0.00000
0.00000 0.20911 0.00000
0.00000 0.20829 0.00000
0.00369 0.20860 0.00000
0.12479 0.21341 0.00000
0.21821 0.22145 0.00000
0.31215 0.22495 0.00000
0.40173 0.23414 0.00000
0.48362 0.24064 0.00000
0.56030 0.24515 0.00000
0.63234 0.24750 0.00000
0.69782 0.24915 0.00000
0.76070 0.24863 0.00000
0.82196 0.24326 0.00000
0.87943 0.23087 0.00000
0.93069 0.21252 0.00000
0.97238 0.19232 0.00000
1.00000 0.17056 0.00000
1.00000 0.14909 0.00000
1.00000 0.12789 0.00000
1.00000 0.10964 0.00000
1.00000 0.09179 0.00000
1.00000 0.07136 0.00000
1.00000 0.04126 0.00000
1.00000 0.00317 0.00000
1.00000 0.00000 0.00000
1.00000 0.00000 0.00000
1.00000 0.00000 0.00000
1.00000 0.08362 0.00000
1.00000 0.16295 0.00000
0.00000 0.28065 0.00000
0.00000 0.28071 0.00000
0.00000 0.28090 0.00000
0.00000 0.28138 0.00000
0.00000 0.28248 0.00000
0.00000 0.28460 0.00000
0.11189 0.28775 0.00000
0.21034 0.29178 0.00000
0.29823 0.29566 0.00000
0.38435 0.29836 0.00000
0.46493 0.30083 0.00000
0.54196 0.30386 0.00000
0.61309 0.30820 0.00000
0.67950 0.30785 0.00000
0.74479 0.30225 0.00000
0.80909 0.29482 0.00000
0.86939 0.28322 0.00000
0.92307 0.26761 0.00000
0.96701 0.24992 0.00000
0.99972 0.23191 0.00000
1.00000 0.21343 0.00000
1.00000 0.19429 0.00000
1.00000 0.17674 0.00000
1.00000 0.16152 0.00000
1.00000 0.15104 0.00000
1.00000 0.13987 0.00000
1.00000 0.12780 0.00000
1.00000 0.11489 0.00000
1.00000 0.10422 0.00000
1.00000 0.11437 0.00000
1.00000 0.14805 0.00000
1.00000 0.21418 0.00000
0.00000 0.34886 0.00000
0.00000 0.34946 0.00000
0.00000 0.35020 0.00000
0.00000 0.35137 0.00000
0.00000 0.35314 0.00000
0.00000 0.35560 0.00000
0.04888 0.35889 0.00000
0.18334 0.36217 0.00000
0.27413 0.36352 0.00000
0.36013 0.36322 0.00000
0.44136 0.36243 0.00000
0.51917 0.36387 0.00000
0.59058 0.36570 0.00000
0.65865 0.36506 0.00000
0.72465 0.36170 0.00000
0.79030 0.35468 0.00000
0.85299 0.34364 0.00000
0.90889 0.32810 0.00000
0.95546 0.31145 0.00000
0.99079 0.29513 0.00000
1.00000 0.27790 0.00000
1.00000 0.26048 0.00000
1.00000 0.24450 0.00000
1.00000 0.23016 0.00000
1.00000 0.21746 0.00000
1.00000 0.20412 0.00000
1.00000 0.19094 0.00000
1.00000 0.17807 0.00000
1.00000 0.16905 0.00000
1.00000 0.17469 0.00000
1.00000 0.20666 0.00000
1.00000 0.26081 0.00000
0.00000 0.41375 0.00000
0.00000 0.41447 0.00000
0.00000 0.41523 0.00000
0.00000 0.41626 0.00000
0.00000 0.41772 0.00000
0.00000 0.41955 0.00000
0.00000 0.42154 0.00000
0.14137 0.42310 0.00000
0.24308 0.42415 0.00000
0.33038 0.42493 0.00000
0.41178 0.42554 0.00000
0.49281 0.42623 0.00000
0.56437 0.42646 0.00000
0.63463 0.42398 0.00000
0.70205 0.41953 0.00000
0.76842 0.41220 0.00000
0.83157 0.40127 0.00000
0.88942 0.38691 0.00000
0.93826 0.37235 0.00000
0.97716 0.35763 0.00000
1.00000 0.34192 0.00000
1.00000 0.32619 0.00000
1.00000 0.31139 0.00000
1.00000 0.29520 0.00000
1.00000 0.27975 0.00000
1.00000 0.26610 0.00000
1.00000 0.25430 0.00000
1.00000 0.24307 0.00000
1.00000 0.23512 0.00000
1.00000 0.23798 0.00000
1.00000 0.26163 0.00000
1.00000 0.31001 0.00000
0.00000 0.47497 0.00000
0.00000 0.47548 0.00000
0.00000 0.47604 0.00000
0.00000 0.47692 0.00000
0.00000 0.47808 0.00000
0.00000 0.47936 0.00000
0.00000 0.48040 0.00000
0.05580 0.48118 0.00000
0.20108 0.48120 0.00000
0.29599 0.48068 0.00000
0.38020 0.47987 0.00000
0.46412 0.47867 0.00000
0.53638 0.47811 0.00000
0.60897 0.47638 0.00000
0.67749 0.47320 0.00000
0.74398 0.46711 0.00000
0.80748 0.45779 0.00000
0.86577 0.44627 0.00000
0.91716 0.43397 0.00000
0.95924 0.42085 0.00000
0.99095 0.40541 0.00000
1.00000 0.38804 0.00000
1.00000 0.37062 0.00000
1.00000 0.35482 0.00000
1.00000 0.34035 0.00000
1.00000 0.32782 0.00000
1.00000 0.31715 0.00000
1.00000 0.30624 0.00000
1.00000 0.29792 0.00000
1.00000 0.29928 0.00000
1.00000 0.31777 0.00000
1.00000 0.35343 0.00000
0.00000 0.52839 0.00000
0.00000 0.52882 0.00000
0.00000 0.52930 0.00000
0.00000 0.52997 0.00000
0.00000 0.53081 0.00000
0.00000 0.53165 0.00000
0.00000 0.53221 0.00000
0.00000 0.53276 0.00000
0.13839 0.53285 0.00000
0.25392 0.53255 0.00000
0.34474 0.53197 0.00000
0.43055 0.53088 0.00000
0.50600 0.52979 0.00000
0.58110 0.52734 0.00000
0.65025 0.52401 0.00000
0.71733 0.51872 0.00000
0.78145 0.51127 0.00000
0.84007 0.50250 0.00000
0.89299 0.49272 0.00000
0.93792 0.48182 0.00000
0.97450 0.46874 0.00000
0.99851 0.45365 0.00000
1.00000 0.43666 0.00000
1.00000 0.41905 0.00000
1.00000 0.40272 0.00000
1.00000 0.38684 0.00000
1.00000 0.37333 0.00000
1.00000 0.36208 0.00000
1.00000 0.35418 0.00000
1.00000 0.35396 0.00000
1.00000 0.36818 0.00000
1.00000 0.40218 0.00000
0.00000 0.57692 0.00000
0.00000 0.57721 0.00000
0.00000 0.57756 0.00000
0.00000 0.57802 0.00000
0.00000 0.57859 0.00000
0.00000 0.57918 0.00000
0.00000 0.57959 0.00000
0.00000 0.58004 0.00000
0.00041 0.58003 0.00000
0.20186 0.57968 0.00000
0.30690 0.57890 0.00000
0.39528 0.57773 0.00000
0.47484 0.57628 0.00000
0.55073 0.57408 0.00000
0.62085 0.57111 0.00000
0.68866 0.56679 0.00000
0.75317 0.56131 0.00000
0.81365 0.55489 0.00000
0.86702 0.54775 0.00000
0.91461 0.53932 0.00000
0.95518 0.52863 0.00000
0.98466 0.51484 0.00000
1.00000 0.49913 0.00000
1.00000 0.48264 0.00000
1.00000 0.46591 0.00000
1.00000 0.45068 0.00000
1.00000 0.43626 0.00000
1.00000 0.42316 0.00000
1.00000 0.41411 0.00000
1.00000 0.41253 0.00000
1.00000 0.42458 0.00000
1.00000 0.45147 0.00000
0.00000 0.62273 0.00000
0.00000 0.62295 0.00000
0.00000 0.62320 0.00000
0.00000 0.62357 0.00000
0.00000 0.62402 0.00000
0.00000 0.62448 0.00000
0.00000 0.62485 0.00000
0.00000 0.62525 0.00000
0.00000 0.62521 0.00000
0.12442 0.62494 0.00000
0.26076 0.62418 0.00000
0.35603 0.62308 0.00000
0.44060 0.62137 0.00000
0.51822 0.61884 0.00000
0.59095 0.61527 0.00000
0.65976 0.61102 0.00000
0.72476 0.60709 0.00000
0.78490 0.60281 0.00000
0.84062 0.59770 0.00000
0.89117 0.59168 0.00000
0.93460 0.58384 0.00000
0.96888 0.57284 0.00000
0.99134 0.55918 0.00000
1.00000 0.54400 0.00000
1.00000 0.52828 0.00000
1.00000 0.51213 0.00000
1.00000 0.49692 0.00000
1.00000 0.48376 0.00000
1.00000 0.47388 0.00000
1.00000 0.47098 0.00000
1.00000 0.48007 0.00000
1.00000 0.50109 0.00000
0.00000 0.66650 0.00000
0.00000 0.66675 0.00000
0.00000 0.66702 0.00000
0.00000 0.66741 0.00000
0.00000 0.66790 0.00000
0.00000 0.66842 0.00000
0.00000 0.66886 0.00000
0.00000 0.66924 0.00000
0.00000 0.66916 0.00000
0.00000 0.66887 0.00000
0.20017 0.66801 0.00000
0.31132 0.66670 0.00000
0.40367 0.66458 0.00000
0.48499 0.66170 0.00000
0.56021 0.65787 0.03963
0.62972 0.65435 0.02666
0.69527 0.65129 0.00000
0.75706 0.64783 0.00000
0.81381 0.64410 0.00000
0.86678 0.63970 0.00000
0.91257 0.63403 0.00000
0.95098 0.62581 0.00000
0.97818 0.61498 0.00000
0.99459 0.60201 0.00000
1.00000 0.58764 0.00000
1.00000 0.57235 0.00000
1.00000 0.55729 0.00000
1.00000 0.54396 0.00000
1.00000 0.53392 0.00000
1.00000 0.53003 0.00000
1.00000 0.53608 0.00000
1.00000 0.55190 0.00000
0.00000 0.70792 0.00000
0.00000 0.70813 0.00000
0.00000 0.70838 0.00000
0.00000 0.70873 0.00000
0.00000 0.70913 0.00000
0.00000 0.70957 0.00000
0.00000 0.70993 0.00000
0.00000 0.71022 0.00000
0.00000 0.71002 0.00000
0.00000 0.70955 0.00000
0.10757 0.70843 0.00000
0.25859 0.70691 0.00000
0.36369 0.70463 0.00000
0.44849 0.70196 0.00000
0.52615 0.69886 0.00000
0.59795 0.69564 0.00000
0.66509 0.69245 0.00000
0.72885 0.68928 0.00000
0.78826 0.68614 0.00000
0.84138 0.68300 0.00000
0.88868 0.67889 0.00000
0.92988 0.67272 0.00000
0.96167 0.66420 0.00000
0.98221 0.65391 0.00000
0.99380 0.64199 0.00000
0.99943 0.62879 0.00000
1.00000 0.61561 0.00000
1.00000 0.60330 0.00000
1.00000 0.59327 0.00000
1.00000 0.58864 0.00000
1.00000 0.59192 0.00000
1.00000 0.60319 0.00000
0.00000 0.74651 0.00000
0.00000 0.74669 0.00000
0.00000 0.74690 0.00000
0.00000 0.74719 0.00000
0.00000 0.74751 0.00000
0.00000 0.74777 0.00000
0.00000 0.74794 0.00000
0.00000 0.74805 0.00000
0.00000 0.74771 0.00000
0.00000 0.74713 0.00000
0.00000 0.74593 0.00000
0.18770 0.74450 0.00000
0.31770 0.74226 0.00000
0.40695 0.73991 0.00000
0.49085 0.73692 0.00000
0.56434 0.73394 0.00000
0.63405 0.73089 0.00000
0.69993 0.72792 0.00000
0.76060 0.72520 0.00000
0.81527 0.72252 0.00000
0.86379 0.71935 0.00000
0.90623 0.71470 0.00000
0.94150 0.70800 0.00000
0.96615 0.69977 0.00000
0.98124 0.69055 0.00000
0.98950 0.68031 0.00000
0.99439 0.66884 0.00000
0.99768 0.65797 0.00000
1.00000 0.64940 0.00000
1.00000 0.64454 0.00000
1.00000 0.64544 0.00000
1.00000 0.65213 0.00000
0.00000 0.78067 0.00000
0.00000 0.78083 0.00000
0.00000 0.78103 0.00000
0.00000 0.78131 0.00000
0.00000 0.78159 0.00000
0.00000 0.78189 0.00000
0.00000 0.78208 0.00000
0.00000 0.78223 0.00000
0.00000 0.78204 0.00000
0.00000 0.78164 0.00000
0.00000 0.78072 0.00000
0.04638 0.77960 0.00000
0.25812 0.77773 0.00000
0.36073 0.77575 0.00000
0.45142 0.77324 0.00000
0.52893 0.77076 0.00000
0.60086 0.76832 0.00000
0.66889 0.76597 0.00000
0.73078 0.76373 0.00000
0.78632 0.76133 0.00000
0.83722 0.75833 0.00000
0.88074 0.75451 0.00000
0.91821 0.74916 0.00000
0.94670 0.74240 0.00000
0.96559 0.73435 0.00000
0.97769 0.72536 0.00000
0.98521 0.71645 0.00000
0.99033 0.70741 0.00000
0.99419 0.69968 0.00000
0.99744 0.69520 0.00000
1.00000 0.69450 0.00000
1.00000 0.69811 0.00000
0.00000 0.81287 0.00000
0.00000 0.81302 0.00000
0.00000 0.81320 0.00000
0.00000 0.81344 0.00000
0.00000 0.81374 0.00000
0.00000 0.81406 0.00000
0.00000 0.81434 0.00000
0.00000 0.81461 0.00000
0.00000 0.81465 0.00000
0.00000 0.81449 0.00000
0.00000 0.81398 0.00000
0.00000 0.81324 0.00000
0.16752 0.81190 0.00000
0.30547 0.81030 0.00000
0.40538 0.80833 0.00000
0.48907 0.80626 0.00000
0.56456 0.80422 0.00000
0.63478 0.80223 0.00000
0.69918 0.80019 0.00000
0.75762 0.79792 0.00000
0.80904 0.79525 0.00000
0.85393 0.79182 0.00000
0.89297 0.78721 0.00000
0.92468 0.78132 0.00000
0.94766 0.77440 0.00000
0.96394 0.76681 0.00000
0.97490 0.75933 0.00000
0.98240 0.75231 0.00000
0.98799 0.74635 0.00000
0.99248 0.74229 0.00000
0.99632 0.74093 0.00000
1.00000 0.74278 0.00000
0.00000 0.84303 0.00000
0.00000 0.84323 0.00000
0.00000 0.84344 0.00000
0.00000 0.84375 0.00000
0.00000 0.84415 0.00000
0.00000 0.84459 0.00000
0.00000 0.84501 0.00000
0.00000 0.84550 0.00000
0.00000 0.84594 0.00000
0.00000 0.84616 0.00000
0.00000 0.84617 0.00000
0.00000 0.84595 0.00000
0.00000 0.84523 0.00000
0.22888 0.84419 0.00000
0.34848 0.84297 0.00000
0.44160 0.84156 0.00000
0.52226 0.84008 0.00000
0.59539 0.83852 0.00000
0.66305 0.83677 0.00000
0.72463 0.83469 0.00000
0.77819 0.83223 0.00000
0.82524 0.82905 0.00000
0.86563 0.82493 0.00000
0.90032 0.81967 0.00000
0.92779 0.81352 0.00000
0.94820 0.80688 0.00000
0.96326 0.80012 0.00000
0.97399 0.79392 0.00000
0.98191 0.78883 0.00000
0.98783 0.78536 0.00000
0.99254 0.78384 0.00000
0.99664 0.78433 0.00000
0.00000 0.87214 0.00000
0.00000 0.87234 0.00000
0.00000 0.87259 0.00000
0.00000 0.87295 0.00000
0.00000 0.87342 0.00000
0.00000 0.87397 0.00000
0.00000 0.87454 0.00000
0.00000 0.87521 0.00000
0.00000 0.87589 0.00000
0.00000 0.87635 0.00000
0.00000 0.87673 0.00000
0.00000 0.87679 0.00000
0.00000 0.87669 0.00000
0.08799 0.87612 0.00000
0.26990 0.87549 0.00000
0.38378 0.87440 0.00000
0.47160 0.87331 0.00000
0.55026 0.87215 0.00000
0.62259 0.87085 0.00000
0.68688 0.86926 0.00000
0.74342 0.86714 0.00000
0.79429 0.86414 0.00000
0.83705 0.86040 0.00000
0.87476 0.85570 0.00000
0.90652 0.85032 0.00000
0.93131 0.84466 0.00000
0.95082 0.83907 0.00000
0.96517 0.83425 0.00000
0.97556 0.83041 0.00000
0.98302 0.82768 0.00000
0.98834 0.82612 0.00000
0.99257 0.82540 0.00000
0.00000 0.89786 0.00000
0.00000 0.89809 0.00000
0.00000 0.89834 0.00000
0.00000 0.89870 0.00000
0.00000 0.89921 0.00000
0.00000 0.89981 0.00000
0.00000 0.90048 0.00000
0.00000 0.90118 0.00000
0.00000 0.90196 0.00000
0.00000 0.90256 0.00000
0.00000 0.90311 0.00000
0.00000 0.90340 0.00000
0.00000 0.90363 0.00000
0.00000 0.90343 0.00000
0.14314 0.90321 0.00000
0.30418 0.90275 0.00000
0.40880 0.90223 0.00000
0.49639 0.90157 0.00000
0.57409 0.90078 0.00000
0.64457 0.89960 0.00000
0.70793 0.89777 0.00000
0.76177 0.89528 0.00000
0.80870 0.89202 0.00000
0.84948 0.88812 0.00000
0.88536 0.88376 0.00000
0.91489 0.87938 0.00000
0.93873 0.87531 0.00000
0.95687 0.87186 0.00000
0.96959 0.86921 0.00000
0.97796 0.86726 0.00000
0.98353 0.86565 0.00000
0.98780 0.86392 0.00000
0.00000 0.91970 0.00000
0.00000 0.91989 0.00000
0.00000 0.92011 0.00000
0.00000 0.92041 0.00000
0.00000 0.92082 0.00000
0.00000 0.92133 0.00000
0.00000 0.92189 0.00000
0.00000 0.92249 0.00000
0.00000 0.92309 0.00000
0.00000 0.92370 0.00000
0.00000 0.92411 0.00000
0.00000 0.92447 0.00000
0.00000 0.92456 0.00000
0.00000 0.92457 0.00000
0.00000 0.92425 0.00000
0.16925 0.92410 0.00000
0.32442 0.92368 0.00000
0.42784 0.92348 0.00000
0.51710 0.92314 0.00000
0.59774 0.92259 0.00000
0.66781 0.92181 0.00000
0.72796 0.92038 0.00000
0.78095 0.91809 0.00000
0.82576 0.91534 0.00000
0.86597 0.91223 0.00000
0.90042 0.90932 0.00000
0.92838 0.90693 0.00000
0.94957 0.90511 0.00000
0.96348 0.90378 0.00000
0.97194 0.90255 0.00000
0.97735 0.90093 0.00000
0.98124 0.89845 0.00000
0.00000 0.93606 0.00000
0.00000 0.93617 0.00000
0.00000 0.93630 0.00000
0.00000 0.93648 0.00000
0.00000 0.93671 0.00000
0.00000 0.93699 0.00000
0.00000 0.93734 0.00000
0.00000 0.93771 0.00000
0.00000 0.93802 0.00000
0.00000 0.93835 0.00000
0.00000 0.93869 0.00000
0.00000 0.93882 0.00000
0.00000 0.93887 0.00000
0.00000 0.93883 0.00000
0.00000 0.93866 0.00000
0.00000 0.93860 0.00000
0.19334 0.93871 0.00000
0.34601 0.93879 0.00000
0.45488 0.93923 0.00000
0.54726 0.93971 0.00000
0.62784 0.94016 0.00000
0.69674 0.94006 0.00000
0.75450 0.93963 0.00000
0.80407 0.93859 0.00000
0.84869 0.93743 0.00000
0.88753 0.93678 0.00000
0.91875 0.93643 0.00000
0.94123 0.93632 0.00000
0.95457 0.93641 0.00000
0.96222 0.93602 0.00000
0.96708 0.93461 0.00000
0.97086 0.93160 0.00000
0.00000 0.94794 0.00000
0.00000 0.94800 0.00000
0.00000 0.94806 0.00000
0.00000 0.94815 0.00000
0.00000 0.94825 0.00000
0.00000 0.94836 0.00000
0.00000 0.94850 0.00000
0.00000 0.94874 0.00000
0.00000 0.94894 0.00000
0.00000 0.94903 0.00000
0.00000 0.94913 0.00000
0.00000 0.94907 0.00000
0.00000 0.94893 0.00000
0.00000 0.94865 0.00000
0.00000 0.94845 0.00000
0.00000 0.94824 0.00000
0.00000 0.94830 0.00000
0.26470 0.94859 0.00000
0.39850 0.94952 0.00000
0.50341 0.95078 0.00000
0.59352 0.95229 0.00000
0.66960 0.95399 0.00000
0.73263 0.95548 0.00000
0.78622 0.95680 0.00000
0.83374 0.95794 0.00000
0.87499 0.96010 0.00000
0.90698 0.96182 0.00000
0.92845 0.96287 0.00000
0.94052 0.96392 0.00000
0.94762 0.96402 0.00000
0.95280 0.96270 0.00000
0.95746 0.95933 0.00000
0.00000 0.95798 0.00000
0.00000 0.95800 0.00000
0.00000 0.95803 0.00000
0.00000 0.95806 0.00000
0.00000 0.95809 0.00000
0.00000 0.95811 0.00000
0.00000 0.95813 0.00000
0.00000 0.95815 0.00000
0.00000 0.95813 0.00000
0.00000 0.95800 0.00000
0.00000 0.95786 0.00000
0.00000 0.95765 0.00000
0.00000 0.95730 0.00000
0.00000 0.95691 0.00000
0.00000 0.95661 0.00000
0.00000 0.95636 0.00000
0.00000 0.95652 0.00000
0.21736 0.95715 0.00000
0.36915 0.95873 0.00000
0.47988 0.96096 0.00000
0.57309 0.96378 0.00000
0.65042 0.96676 0.00000
0.71493 0.97036 0.00000
0.76943 0.97384 0.00000
0.81620 0.97713 0.00000
0.85578 0.98150 0.00000
0.88561 0.98412 0.00000
0.90564 0.98681 0.00000
0.91868 0.98832 0.00000
0.92758 0.98844 0.00000
0.93460 0.98674 0.00000
0.94153 0.98235 0.00000
0.00000 0.96836 0.00000
0.00000 0.96836 0.00000
0.00000 0.96836 0.00000
0.00000 0.96836 0.00000
0.00000 0.96834 0.00000
0.00000 0.96833 0.00000
0.00000 0.96832 0.00000
0.00000 0.96828 0.00000
0.00000 0.96815 0.00000
0.00000 0.96806 0.00000
0.00000 0.96797 0.00000
0.00000 0.96773 0.00000
0.00000 0.96758 0.00000
0.00000 0.96742 0.00000
0.00000 0.96758 0.00000
0.00000 0.96772 0.00000
0.00000 0.96862 0.00000
0.24409 0.97011 0.00000
0.37830 0.97245 0.00000
0.48089 0.97517 0.00000
0.56692 0.97900 0.00000
0.63883 0.98267 0.00000
0.69859 0.98751 0.00000
0.74964 0.99216 0.00000
0.79171 0.99701 0.00000
0.82742 1.00000 0.00000
0.85516 1.00000 0.00000
0.87574 1.00000 0.00000
0.89118 1.00000 0.00000
0.90364 1.00000 0.00000
0.91419 1.00000 0.00000
0.92406 1.00000 0.00000
0.00000 0.98026 0.09084
0.00000 0.98029 0.08747
0.00000 0.98034 0.08346
0.00000 0.98039 0.07740
